((2018-01-26 HACKSAW)
(2018-01-26 HACKSAW)
(T24  D=4. CR=0. TAPER=118DEG - ZMIN=-2.702 - DRILL)
(T42  D=0.1 CR=0. TAPER=45DEG - ZMIN=14.2 - TAPERED MILL)
(T162  D=5.5 CR=0. - ZMIN=0. - FLAT END MILL)
G90 G94 G91.1 G40 G49 G17
G21
G28 G91 Z0.
G90

(DRILL3 3)
M5
M9
T24 M6
S8000 M3
G54
M8
G0 X-45.984 Y15.108 
Z33.2
Z23.2
G98 G83 X-45.984 Y15.108 Z-2.702 R23.2 Q4. F800. 
X-12.5 Y14.79 
X-12.596 Y69.79 
X-46.08 Y70.108 
G80
Z33.2
G28 G91 Z0.
G90

(DRILL3 3)
M5
M9
T24 M6
S8000 M3
G54
M8
G0 X-125.0644 Y15.1088 
Z33.2
Z23.2
G98 G83 X-125.0644 Y15.1088 Z-2.702 R23.2 Q4. F800. 
X-91.585 Y14.799 
X-91.676 Y69.799 

(DRILL3 3)
M5
M9
T24 M6
S8000 M3
G54
M8
G0 X-45.9844 Y115.6788 
Z33.2
Z23.2
G98 G83 X-45.9844 Y115.6788 Z-2.702 R23.2 Q4. F800. 
X-12.55 Y115.369 
X-12.596 Y170.369 

(DRILL3 3)
M5
M9
T24 M6
S8000 M3
G54
M8
G0 X-125.0644 Y115.6788 
Z33.2
Z23.2
G98 G83 X-125.0644 Y115.6788 Z-2.702 R23.2 Q4. F800. 
X-91.585 Y115.369 
X-91.676 Y170.369 

(DRILL3 4)
M5
M9
M1
T42 M6
S12000 M3
G54
M8
G0 X-45.984 Y15.108 
Z33.2
Z23.2
G83 X-45.984 Y15.108 Z14.2 R23.2 Q4. F1200. 
X-46.08 Y70.108 
G80
Z33.2
G28 G91 Z0.
G90

(DRILL3 4)
M5
M9
M1
T42 M6
S12000 M3
G54
M8
G0 X-125.0644 Y15.1088 
Z33.2
Z23.2
G83 X-125.064 Y15.1088 

(DRILL3 4)
M5
M9
M1
T42 M6
S12000 M3
G54
M8
G0 X-45.9844 Y115.6788 
Z33.2
Z23.2
G83 X-45.984 Y115.6788 

(DRILL3 4)
M5
M9
M1
T42 M6
S12000 M3
G54
M8
G0 X-125.0644 Y115.6788 
Z33.2
Z23.2
G83 X-125.064 Y115.6788 

(2D CONTOUR4 2)
M5
M9
M1
T162 M6
S12000 M3
G54
M8
G0 X-29.18 Y70.307 
Z33.2
Z23.2
G1 Z22.2 F1200.
Z15.75
Y3.5743765E-15 Z15.664 
Y3.576826E-15 Z15.58 
Y3.5808674E-15 Z15.5 
Y3.586378E-15 Z15.427 
Y3.593236E-15 Z15.361 
X-29.407 Y70.306 Z15.305 
Y3.6102586E-15 Z15.26 
Y3.6200558E-15 Z15.227 
Y3.630343E-15 Z15.207 
Y3.640875E-15 Z15.2 
X-30.28 Y70.305 F1000. 
G3 X-30.829 Y69.754 I0.001 J-0.55 
G1 X-30.734 Y15.139 F3600. 
X9.232E-16 
G2 X-48.453 Y-2.642 I-17.75 J0.031 
X-66.234 Y15.077 I-0.031 J17.75 
G1 X-66.33 Y70.077 
G2 X-48.611 Y87.858 I17.75 J0.031 
X-30.83 Y70.139 I0.031 J-17.75 
G1 X-30.829 Y69.754 
G3 X-30.278 Y69.205 I0.55 J0.001 F1000. 
G1 X-29.728 Y69.206 
Y3.630098E-15 Z15.207 
Y3.619811E-15 Z15.227 
Y3.610136E-15 Z15.26 
Y3.601074E-15 Z15.305 
X-29.339 Y69.207 Z15.361 
Y3.5861334E-15 Z15.427 
Y3.5806226E-15 Z15.5 
Y3.576581E-15 Z15.58 
Y3.5741318E-15 Z15.664 
Y3.5732746E-15 Z15.75 
G0 Z23.2
X-29.495 Y69.206 
G1 Z22.2 F1200.
Z15.75
Y3.6112386E-15 Z15.664 
Y3.6087894E-15 Z15.58 
Y3.6047478E-15 Z15.5 
X-29.39 Y69.207 Z15.427 
Y3.592379E-15 Z15.361 
Y3.584296E-15 Z15.305 
Y3.575356E-15 Z15.26 
Y3.565559E-15 Z15.227 
Y3.555272E-15 Z15.207 
Y3.5447401E-15 Z15.2 
X-28.395 Y69.208 F1000. 
G3 X-27.846 Y69.759 I-0.001 J0.55 
G2 X-13.054 Y87.292 I17.75 J0.031 F3600. 
Y1.4864762E-15 I0.458 J-2.712 
X2.654 Y69.821 I-2.958 J-17.502 
G1 X2.75 Y14.821 
G2 X-12.042 Y-2.712 I-17.75 J-0.031 
Y1.5868974E-15 I-0.458 J2.712 
X-27.75 Y14.759 I2.958 J17.502 
G1 X-27.846 Y69.759 
G3 X-28.397 Y70.308 I-0.55 J-0.001 F1000. 
G1 X-28.947 Y70.307 
Y3.5555174E-15 Z15.207 
Y3.565804E-15 Z15.227 
Y3.5756014E-15 Z15.26 
Y3.5845414E-15 Z15.305 
Y3.5926238E-15 Z15.361 
Y3.5994818E-15 Z15.427 
X-29.437 Y70.306 Z15.5 
Y3.609034E-15 Z15.58 
Y3.6114834E-15 Z15.664 
Y3.6123406E-15 Z15.75 
G0 Z23.2
X-29.18 Y70.307 
G1 Z19.2 F1200.
Z12.75
Y3.5743765E-15 Z12.664 
Y3.576826E-15 Z12.58 
Y3.5808674E-15 Z12.5 
Y3.586378E-15 Z12.427 
Y3.593236E-15 Z12.361 
X-29.407 Y70.306 Z12.305 
Y3.6102586E-15 Z12.26 
Y3.6200558E-15 Z12.227 
Y3.630343E-15 Z12.207 
Y3.640875E-15 Z12.2 
X-30.28 Y70.305 F1000. 
G3 X-30.829 Y69.754 I0.001 J-0.55 
G1 X-30.734 Y15.139 F3600. 
X9.232E-16 
G2 X-48.453 Y-2.642 I-17.75 J0.031 
X-66.234 Y15.077 I-0.031 J17.75 
G1 X-66.33 Y70.077 
G2 X-48.611 Y87.858 I17.75 J0.031 
X-30.83 Y70.139 I0.031 J-17.75 
G1 X-30.829 Y69.754 
G3 X-30.278 Y69.205 I0.55 J0.001 F1000. 
G1 X-29.728 Y69.206 
Y3.630098E-15 Z12.207 
Y3.619811E-15 Z12.227 
Y3.610136E-15 Z12.26 
Y3.601074E-15 Z12.305 
X-29.339 Y69.207 Z12.361 
Y3.5861334E-15 Z12.427 
Y3.5806226E-15 Z12.5 
Y3.576581E-15 Z12.58 
Y3.5741318E-15 Z12.664 
Y3.5732746E-15 Z12.75 
G0 Z23.2
X-29.495 Y69.206 
G1 Z19.2 F1200.
Z12.75
Y3.6112386E-15 Z12.664 
Y3.6087894E-15 Z12.58 
Y3.6047478E-15 Z12.5 
X-29.39 Y69.207 Z12.427 
Y3.592379E-15 Z12.361 
Y3.584296E-15 Z12.305 
Y3.575356E-15 Z12.26 
Y3.565559E-15 Z12.227 
Y3.555272E-15 Z12.207 
Y3.5447401E-15 Z12.2 
X-28.395 Y69.208 F1000. 
G3 X-27.846 Y69.759 I-0.001 J0.55 
G2 X-13.054 Y87.292 I17.75 J0.031 F3600. 
Y1.4864762E-15 I0.458 J-2.712 
X2.654 Y69.821 I-2.958 J-17.502 
G1 X2.75 Y14.821 
G2 X-12.042 Y-2.712 I-17.75 J-0.031 
Y1.5868974E-15 I-0.458 J2.712 
X-27.75 Y14.759 I2.958 J17.502 
G1 X-27.846 Y69.759 
G3 X-28.397 Y70.308 I-0.55 J-0.001 F1000. 
G1 X-28.947 Y70.307 
Y3.5555174E-15 Z12.207 
Y3.565804E-15 Z12.227 
Y3.5756014E-15 Z12.26 
Y3.5845414E-15 Z12.305 
Y3.5926238E-15 Z12.361 
Y3.5994818E-15 Z12.427 
X-29.437 Y70.306 Z12.5 
Y3.609034E-15 Z12.58 
Y3.6114834E-15 Z12.664 
Y3.6123406E-15 Z12.75 
G0 Z23.2
X-29.18 Y70.307 
G1 Z16.2 F1200.
Z9.75
Y3.5743765E-15 Z9.664 
Y3.576826E-15 Z9.58 
Y3.5808674E-15 Z9.5 
Y3.586378E-15 Z9.427 
Y3.593236E-15 Z9.361 
X-29.407 Y70.306 Z9.305 
Y3.6102586E-15 Z9.26 
Y3.6200558E-15 Z9.227 
Y3.630343E-15 Z9.207 
Y3.640875E-15 Z9.2 
X-30.28 Y70.305 F1000. 
G3 X-30.829 Y69.754 I0.001 J-0.55 
G1 X-30.734 Y15.139 F3600. 
X9.232E-16 
G2 X-48.453 Y-2.642 I-17.75 J0.031 
X-66.234 Y15.077 I-0.031 J17.75 
G1 X-66.33 Y70.077 
G2 X-48.611 Y87.858 I17.75 J0.031 
X-30.83 Y70.139 I0.031 J-17.75 
G1 X-30.829 Y69.754 
G3 X-30.278 Y69.205 I0.55 J0.001 F1000. 
G1 X-29.728 Y69.206 
Y3.630098E-15 Z9.207 
Y3.619811E-15 Z9.227 
Y3.610136E-15 Z9.26 
Y3.601074E-15 Z9.305 
X-29.339 Y69.207 Z9.361 
Y3.5861334E-15 Z9.427 
Y3.5806226E-15 Z9.5 
Y3.576581E-15 Z9.58 
Y3.5741318E-15 Z9.664 
Y3.5732746E-15 Z9.75 
G0 Z23.2
X-29.495 Y69.206 
G1 Z16.2 F1200.
Z9.75
Y3.6112386E-15 Z9.664 
Y3.6087894E-15 Z9.58 
Y3.6047478E-15 Z9.5 
X-29.39 Y69.207 Z9.427 
Y3.592379E-15 Z9.361 
Y3.584296E-15 Z9.305 
Y3.575356E-15 Z9.26 
Y3.565559E-15 Z9.227 
Y3.555272E-15 Z9.207 
Y3.5447401E-15 Z9.2 
X-28.395 Y69.208 F1000. 
G3 X-27.846 Y69.759 I-0.001 J0.55 
G2 X-13.054 Y87.292 I17.75 J0.031 F3600. 
Y1.4864762E-15 I0.458 J-2.712 
X2.654 Y69.821 I-2.958 J-17.502 
G1 X2.75 Y14.821 
G2 X-12.042 Y-2.712 I-17.75 J-0.031 
Y1.5868974E-15 I-0.458 J2.712 
X-27.75 Y14.759 I2.958 J17.502 
G1 X-27.846 Y69.759 
G3 X-28.397 Y70.308 I-0.55 J-0.001 F1000. 
G1 X-28.947 Y70.307 
Y3.5555174E-15 Z9.207 
Y3.565804E-15 Z9.227 
Y3.5756014E-15 Z9.26 
Y3.5845414E-15 Z9.305 
Y3.5926238E-15 Z9.361 
Y3.5994818E-15 Z9.427 
X-29.437 Y70.306 Z9.5 
Y3.609034E-15 Z9.58 
Y3.6114834E-15 Z9.664 
Y3.6123406E-15 Z9.75 
G0 Z23.2
X-29.18 Y70.307 
G1 Z13.2 F1200.
Z6.75
Y3.5743765E-15 Z6.664 
Y3.576826E-15 Z6.58 
Y3.5808674E-15 Z6.5 
Y3.586378E-15 Z6.427 
Y3.593236E-15 Z6.361 
X-29.407 Y70.306 Z6.305 
Y3.6102586E-15 Z6.26 
Y3.6200558E-15 Z6.227 
Y3.630343E-15 Z6.207 
Y3.640875E-15 Z6.2 
X-30.28 Y70.305 F1000. 
G3 X-30.829 Y69.754 I0.001 J-0.55 
G1 X-30.734 Y15.139 F3600. 
X9.232E-16 
G2 X-48.453 Y-2.642 I-17.75 J0.031 
X-66.234 Y15.077 I-0.031 J17.75 
G1 X-66.33 Y70.077 
G2 X-48.611 Y87.858 I17.75 J0.031 
X-30.83 Y70.139 I0.031 J-17.75 
G1 X-30.829 Y69.754 
G3 X-30.278 Y69.205 I0.55 J0.001 F1000. 
G1 X-29.728 Y69.206 
Y3.630098E-15 Z6.207 
Y3.619811E-15 Z6.227 
Y3.610136E-15 Z6.26 
Y3.601074E-15 Z6.305 
X-29.339 Y69.207 Z6.361 
Y3.5861334E-15 Z6.427 
Y3.5806226E-15 Z6.5 
Y3.576581E-15 Z6.58 
Y3.5741318E-15 Z6.664 
Y3.5732746E-15 Z6.75 
G0 Z23.2
X-29.495 Y69.206 
G1 Z13.2 F1200.
Z6.75
Y3.6112386E-15 Z6.664 
Y3.6087894E-15 Z6.58 
Y3.6047478E-15 Z6.5 
X-29.39 Y69.207 Z6.427 
Y3.592379E-15 Z6.361 
Y3.584296E-15 Z6.305 
Y3.575356E-15 Z6.26 
Y3.565559E-15 Z6.227 
Y3.555272E-15 Z6.207 
Y3.5447401E-15 Z6.2 
X-28.395 Y69.208 F1000. 
G3 X-27.846 Y69.759 I-0.001 J0.55 
G2 X-13.054 Y87.292 I17.75 J0.031 F3600. 
Y1.4864762E-15 I0.458 J-2.712 
X2.654 Y69.821 I-2.958 J-17.502 
G1 X2.75 Y14.821 
G2 X-12.042 Y-2.712 I-17.75 J-0.031 
Y1.5868974E-15 I-0.458 J2.712 
X-27.75 Y14.759 I2.958 J17.502 
G1 X-27.846 Y69.759 
G3 X-28.397 Y70.308 I-0.55 J-0.001 F1000. 
G1 X-28.947 Y70.307 
Y3.5555174E-15 Z6.207 
Y3.565804E-15 Z6.227 
Y3.5756014E-15 Z6.26 
Y3.5845414E-15 Z6.305 
Y3.5926238E-15 Z6.361 
Y3.5994818E-15 Z6.427 
X-29.437 Y70.306 Z6.5 
Y3.609034E-15 Z6.58 
Y3.6114834E-15 Z6.664 
Y3.6123406E-15 Z6.75 
G0 Z23.2
X-29.18 Y70.307 
G1 Z10.2 F1200.
Z3.75
Y3.5743765E-15 Z3.664 
Y3.576826E-15 Z3.58 
Y3.5808674E-15 Z3.5 
Y3.586378E-15 Z3.427 
Y3.593236E-15 Z3.361 
X-29.407 Y70.306 Z3.305 
Y3.6102586E-15 Z3.26 
Y3.6200558E-15 Z3.227 
Y3.630343E-15 Z3.207 
Y3.640875E-15 Z3.2 
X-30.28 Y70.305 F1000. 
G3 X-30.829 Y69.754 I0.001 J-0.55 
G1 X-30.734 Y15.139 F3600. 
X9.232E-16 
G2 X-48.453 Y-2.642 I-17.75 J0.031 
X-66.234 Y15.077 I-0.031 J17.75 
G1 X-66.33 Y70.077 
G2 X-48.611 Y87.858 I17.75 J0.031 
X-30.83 Y70.139 I0.031 J-17.75 
G1 X-30.829 Y69.754 
G3 X-30.278 Y69.205 I0.55 J0.001 F1000. 
G1 X-29.728 Y69.206 
Y3.630098E-15 Z3.207 
Y3.619811E-15 Z3.227 
Y3.610136E-15 Z3.26 
Y3.601074E-15 Z3.305 
X-29.339 Y69.207 Z3.361 
Y3.5861334E-15 Z3.427 
Y3.5806226E-15 Z3.5 
Y3.576581E-15 Z3.58 
Y3.5741318E-15 Z3.664 
Y3.5732746E-15 Z3.75 
G0 Z23.2
X-29.495 Y69.206 
G1 Z10.2 F1200.
Z3.75
Y3.6112386E-15 Z3.664 
Y3.6087894E-15 Z3.58 
Y3.6047478E-15 Z3.5 
X-29.39 Y69.207 Z3.427 
Y3.592379E-15 Z3.361 
Y3.584296E-15 Z3.305 
Y3.575356E-15 Z3.26 
Y3.565559E-15 Z3.227 
Y3.555272E-15 Z3.207 
Y3.5447401E-15 Z3.2 
X-28.395 Y69.208 F1000. 
G3 X-27.846 Y69.759 I-0.001 J0.55 
G2 X-13.054 Y87.292 I17.75 J0.031 F3600. 
Y1.4864762E-15 I0.458 J-2.712 
X2.654 Y69.821 I-2.958 J-17.502 
G1 X2.75 Y14.821 
G2 X-12.042 Y-2.712 I-17.75 J-0.031 
Y1.5868974E-15 I-0.458 J2.712 
X-27.75 Y14.759 I2.958 J17.502 
G1 X-27.846 Y69.759 
G3 X-28.397 Y70.308 I-0.55 J-0.001 F1000. 
G1 X-28.947 Y70.307 
Y3.5555174E-15 Z3.207 
Y3.565804E-15 Z3.227 
Y3.5756014E-15 Z3.26 
Y3.5845414E-15 Z3.305 
Y3.5926238E-15 Z3.361 
Y3.5994818E-15 Z3.427 
X-29.437 Y70.306 Z3.5 
Y3.609034E-15 Z3.58 
Y3.6114834E-15 Z3.664 
Y3.6123406E-15 Z3.75 
G0 Z23.2
X-29.18 Y70.307 
G1 Z7.2 F1200.
Z2.15
Y3.5743765E-15 Z2.064 
Y3.576826E-15 Z1.98 
Y3.5808674E-15 Z1.9 
Y3.586378E-15 Z1.827 
Y3.593236E-15 Z1.761 
X-29.407 Y70.306 Z1.705 
Y3.6102586E-15 Z1.66 
Y3.6200558E-15 Z1.627 
Y3.630343E-15 Z1.607 
Y3.640875E-15 Z1.6 
X-30.28 Y70.305 F1000. 
G3 X-30.829 Y69.754 I0.001 J-0.55 
G1 X-30.734 Y15.139 F3600. 
X9.232E-16 
G2 X-48.453 Y-2.642 I-17.75 J0.031 
X-66.234 Y15.077 I-0.031 J17.75 
G1 X-66.33 Y70.077 
G2 X-48.611 Y87.858 I17.75 J0.031 
X-30.83 Y70.139 I0.031 J-17.75 
G1 X-30.829 Y69.754 
G3 X-30.278 Y69.205 I0.55 J0.001 F1000. 
G1 X-29.728 Y69.206 
Y3.630098E-15 Z1.607 
Y3.619811E-15 Z1.627 
Y3.610136E-15 Z1.66 
Y3.601074E-15 Z1.705 
X-29.339 Y69.207 Z1.761 
Y3.5861334E-15 Z1.827 
Y3.5806226E-15 Z1.9 
Y3.576581E-15 Z1.98 
Y3.5741318E-15 Z2.064 
Y3.5732746E-15 Z2.15 
G0 Z23.2
X-29.495 Y69.206 
G1 Z7.2 F1200.
Z2.15
Y3.6112386E-15 Z2.064 
Y3.6087894E-15 Z1.98 
Y3.6047478E-15 Z1.9 
X-29.39 Y69.207 Z1.827 
Y3.592379E-15 Z1.761 
Y3.584296E-15 Z1.705 
Y3.575356E-15 Z1.66 
Y3.565559E-15 Z1.627 
Y3.555272E-15 Z1.607 
Y3.5447401E-15 Z1.6 
X-28.395 Y69.208 F1000. 
G3 X-27.846 Y69.759 I-0.001 J0.55 
G2 X-13.054 Y87.292 I17.75 J0.031 F3600. 
Y1.4864762E-15 I0.458 J-2.712 
X2.654 Y69.821 I-2.958 J-17.502 
G1 X2.75 Y14.821 
G2 X-12.042 Y-2.712 I-17.75 J-0.031 
Y1.5868974E-15 I-0.458 J2.712 
X-27.75 Y14.759 I2.958 J17.502 
G1 X-27.846 Y69.759 
G3 X-28.397 Y70.308 I-0.55 J-0.001 F1000. 
G1 X-28.947 Y70.307 
Y3.5555174E-15 Z1.607 
Y3.565804E-15 Z1.627 
Y3.5756014E-15 Z1.66 
Y3.5845414E-15 Z1.705 
Y3.5926238E-15 Z1.761 
Y3.5994818E-15 Z1.827 
X-29.437 Y70.306 Z1.9 
Y3.609034E-15 Z1.98 
Y3.6114834E-15 Z2.064 
Y3.6123406E-15 Z2.15 
G0 Z23.2
X-29.18 Y70.307 
G1 Z5.6 F1200.
Z0.55
Y3.5743765E-15 Z0.464 
Y3.576826E-15 Z0.38 
Y3.5808674E-15 Z0.3 
Y3.586378E-15 Z0.227 
Y3.593236E-15 Z0.161 
X-29.407 Y70.306 Z0.105 
Y3.6102586E-15 Z0.06 
Y3.6200558E-15 Z0.027 
Y3.630343E-15 Z0.007 
Y3.640875E-15 Z0. 
X-30.28 Y70.305 F1000. 
G3 X-30.829 Y69.754 I0.001 J-0.55 
G1 X-30.734 Y15.139 F3600. 
X9.232E-16 
G2 X-48.453 Y-2.642 I-17.75 J0.031 
X-66.234 Y15.077 I-0.031 J17.75 
G1 X-66.33 Y70.077 
G2 X-48.611 Y87.858 I17.75 J0.031 
X-30.83 Y70.139 I0.031 J-17.75 
G1 X-30.829 Y69.754 
G3 X-30.278 Y69.205 I0.55 J0.001 F1000. 
G1 X-29.728 Y69.206 
Y3.630098E-15 Z0.007 
Y3.619811E-15 Z0.027 
Y3.610136E-15 Z0.06 
Y3.601074E-15 Z0.105 
X-29.339 Y69.207 Z0.161 
Y3.5861334E-15 Z0.227 
Y3.5806226E-15 Z0.3 
Y3.576581E-15 Z0.38 
Y3.5741318E-15 Z0.464 
Y3.5732746E-15 Z0.55 
G0 Z23.2
X-29.495 Y69.206 
G1 Z5.6 F1200.
Z0.55
Y3.6112386E-15 Z0.464 
Y3.6087894E-15 Z0.38 
Y3.6047478E-15 Z0.3 
X-29.39 Y69.207 Z0.227 
Y3.592379E-15 Z0.161 
Y3.584296E-15 Z0.105 
Y3.575356E-15 Z0.06 
Y3.565559E-15 Z0.027 
Y3.555272E-15 Z0.007 
Y3.5447401E-15 Z0. 
X-28.395 Y69.208 F1000. 
G3 X-27.846 Y69.759 I-0.001 J0.55 
G2 X-13.054 Y87.292 I17.75 J0.031 F3600. 
Y1.4864762E-15 I0.458 J-2.712 
X2.654 Y69.821 I-2.958 J-17.502 
G1 X2.75 Y14.821 
G2 X-12.042 Y-2.712 I-17.75 J-0.031 
Y1.5868974E-15 I-0.458 J2.712 
X-27.75 Y14.759 I2.958 J17.502 
G1 X-27.846 Y69.759 
G3 X-28.397 Y70.308 I-0.55 J-0.001 F1000. 
G1 X-28.947 Y70.307 
Y3.5555174E-15 Z0.007 
Y3.565804E-15 Z0.027 
Y3.5756014E-15 Z0.06 
Y3.5845414E-15 Z0.105 
Y3.5926238E-15 Z0.161 
Y3.5994818E-15 Z0.227 
X-29.437 Y70.306 Z0.3 
Y3.609034E-15 Z0.38 
Y3.6114834E-15 Z0.464 
Y3.6123406E-15 Z0.55 
G0 Z33.2

(2D CONTOUR4 2)
M5
M9
M1
T162 M6
S12000 M3
G54
M8
G0 X-108.268 Y70.3077 
Z33.2
Z23.2
G1 Z22.2 F1200.
Z15.75
Y1.3258969E-14 Z15.664 
Y1.3261418E-14 Z15.58 
Y1.3265864E-14 Z15.5 
Y1.3270885E-14 Z15.427 
Y1.3277744E-14 Z15.361 
X-108.4877 Y70.3066 Z15.305 
Y1.3295746E-14 Z15.26 
Y1.3305298E-14 Z15.227 
Y1.3314899E-14 Z15.207 
Y1.3325749E-14 Z15.2 
X-109.368 Y70.3055 F1000. 
G3 X-109.909004 Y69.7544 I0.001 J-0.55 
G1 X-109.8144 Y15.1399 F3600. 
X9.232428E-16 
G2 X-127.533005 Y-2.6422 I-17.75 J0.031 
X-145.3144 Y15.0777 I-0.031 J17.75 
G1 X-145.413 Y70.0777 
G2 X-127.6911 Y87.8588 I17.75 J0.031 
X-109.913 Y70.1399 I0.031 J-17.75 
G1 X-109.909004 Y69.7544 
G3 X-109.3588 Y69.2055 I0.55 J0.001 F1000. 
G1 X-108.8088 Y69.2066 
Y1.33146295E-14 Z15.207 
Y1.3304416E-14 Z15.227 
Y1.3294644E-14 Z15.26 
Y1.32856415E-14 Z15.305 
X-108.41902 Y69.2077 Z15.361 
Y1.3270642E-14 Z15.427 
Y1.3265227E-14 Z15.5 
Y1.3261149E-14 Z15.58 
Y1.32587E-14 Z15.664 
Y1.3257879E-14 Z15.75 
G0 Z23.2
X-108.575005 Y69.2066 
G1 Z22.2 F1200.
Z15.75
Y1.3295844E-14 Z15.664 
Y1.3293297E-14 Z15.58 
Y1.3289317E-14 Z15.5 
X-108.479 Y69.2077 Z15.427 
Y1.3276935E-14 Z15.361 
Y1.32689016E-14 Z15.305 
Y1.3259924E-14 Z15.26 
Y1.3250128E-14 Z15.227 
Y1.3239792E-14 Z15.207 
Y1.3229308E-14 Z15.2 
X-107.475006 Y69.2088 F1000. 
G3 X-106.9266 Y69.7599 I-0.001 J0.55 
G2 X-92.1344 Y87.2922 I17.75 J0.031 F3600. 
Y1.1171081E-14 I0.458 J-2.712 
X-76.4264 Y69.8211 I-2.958 J-17.502 
G1 X-76.335 Y14.8211 
G2 X-91.1222 Y-2.7122 I-17.75 J-0.031 
Y1.1271502E-14 I-0.458 J2.712 
X-106.835 Y14.7599 I2.958 J17.502 
G1 X-106.9266 Y69.7599 
G3 X-107.477005 Y70.3088 I-0.55 J-0.001 F1000. 
G1 X-108.0277 Y70.3077 
Y1.3240025E-14 Z15.207 
Y1.3250313E-14 Z15.227 
Y1.3260194E-14 Z15.26 
Y1.3269049E-14 Z15.305 
Y1.3277204E-14 Z15.361 
Y1.32840135E-14 Z15.427 
X-108.5177 Y70.3066 Z15.5 
Y1.3294398E-14 Z15.58 
Y1.32970925E-14 Z15.664 
Y1.3296933E-14 Z15.75 
G0 Z23.2
X-108.268 Y70.3077 
G1 Z19.2 F1200.
Z12.75
Y1.3258969E-14 Z12.664 
Y1.3261418E-14 Z12.58 
Y1.3265864E-14 Z12.5 
Y1.3270885E-14 Z12.427 
Y1.3277744E-14 Z12.361 
X-108.4877 Y70.3066 Z12.305 
Y1.3295746E-14 Z12.26 
Y1.3305298E-14 Z12.227 
Y1.3314899E-14 Z12.207 
Y1.3325749E-14 Z12.2 
X-109.368 Y70.3055 F1000. 
G3 X-109.909004 Y69.7544 I0.001 J-0.55 
G1 X-109.8144 Y15.1399 F3600. 
X9.232428E-16 
G2 X-127.533005 Y-2.6422 I-17.75 J0.031 
X-145.3144 Y15.0777 I-0.031 J17.75 
G1 X-145.413 Y70.0777 
G2 X-127.6911 Y87.8588 I17.75 J0.031 
X-109.913 Y70.1399 I0.031 J-17.75 
G1 X-109.909004 Y69.7544 
G3 X-109.3588 Y69.2055 I0.55 J0.001 F1000. 
G1 X-108.8088 Y69.2066 
Y1.33146295E-14 Z12.207 
Y1.3304416E-14 Z12.227 
Y1.3294644E-14 Z12.26 
Y1.32856415E-14 Z12.305 
X-108.41902 Y69.2077 Z12.361 
Y1.3270642E-14 Z12.427 
Y1.3265227E-14 Z12.5 
Y1.3261149E-14 Z12.58 
Y1.32587E-14 Z12.664 
Y1.3257879E-14 Z12.75 
G0 Z23.2
X-108.575005 Y69.2066 
G1 Z19.2 F1200.
Z12.75
Y1.3295844E-14 Z12.664 
Y1.3293297E-14 Z12.58 
Y1.3289317E-14 Z12.5 
X-108.479 Y69.2077 Z12.427 
Y1.3276935E-14 Z12.361 
Y1.32689016E-14 Z12.305 
Y1.3259924E-14 Z12.26 
Y1.3250128E-14 Z12.227 
Y1.3239792E-14 Z12.207 
Y1.3229308E-14 Z12.2 
X-107.475006 Y69.2088 F1000. 
G3 X-106.9266 Y69.7599 I-0.001 J0.55 
G2 X-92.1344 Y87.2922 I17.75 J0.031 F3600. 
Y1.1171081E-14 I0.458 J-2.712 
X-76.4264 Y69.8211 I-2.958 J-17.502 
G1 X-76.335 Y14.8211 
G2 X-91.1222 Y-2.7122 I-17.75 J-0.031 
Y1.1271502E-14 I-0.458 J2.712 
X-106.835 Y14.7599 I2.958 J17.502 
G1 X-106.9266 Y69.7599 
G3 X-107.477005 Y70.3088 I-0.55 J-0.001 F1000. 
G1 X-108.0277 Y70.3077 
Y1.3240025E-14 Z12.207 
Y1.3250313E-14 Z12.227 
Y1.3260194E-14 Z12.26 
Y1.3269049E-14 Z12.305 
Y1.3277204E-14 Z12.361 
Y1.32840135E-14 Z12.427 
X-108.5177 Y70.3066 Z12.5 
Y1.3294398E-14 Z12.58 
Y1.32970925E-14 Z12.664 
Y1.3296933E-14 Z12.75 
G0 Z23.2
X-108.268 Y70.3077 
G1 Z16.2 F1200.
Z9.75
Y1.3258969E-14 Z9.664 
Y1.3261418E-14 Z9.58 
Y1.3265864E-14 Z9.5 
Y1.3270885E-14 Z9.427 
Y1.3277744E-14 Z9.361 
X-108.4877 Y70.3066 Z9.305 
Y1.3295746E-14 Z9.26 
Y1.3305298E-14 Z9.227 
Y1.3314899E-14 Z9.207 
Y1.3325749E-14 Z9.2 
X-109.368 Y70.3055 F1000. 
G3 X-109.909004 Y69.7544 I0.001 J-0.55 
G1 X-109.8144 Y15.1399 F3600. 
X9.232428E-16 
G2 X-127.533005 Y-2.6422 I-17.75 J0.031 
X-145.3144 Y15.0777 I-0.031 J17.75 
G1 X-145.413 Y70.0777 
G2 X-127.6911 Y87.8588 I17.75 J0.031 
X-109.913 Y70.1399 I0.031 J-17.75 
G1 X-109.909004 Y69.7544 
G3 X-109.3588 Y69.2055 I0.55 J0.001 F1000. 
G1 X-108.8088 Y69.2066 
Y1.33146295E-14 Z9.207 
Y1.3304416E-14 Z9.227 
Y1.3294644E-14 Z9.26 
Y1.32856415E-14 Z9.305 
X-108.41902 Y69.2077 Z9.361 
Y1.3270642E-14 Z9.427 
Y1.3265227E-14 Z9.5 
Y1.3261149E-14 Z9.58 
Y1.32587E-14 Z9.664 
Y1.3257879E-14 Z9.75 
G0 Z23.2
X-108.575005 Y69.2066 
G1 Z16.2 F1200.
Z9.75
Y1.3295844E-14 Z9.664 
Y1.3293297E-14 Z9.58 
Y1.3289317E-14 Z9.5 
X-108.479 Y69.2077 Z9.427 
Y1.3276935E-14 Z9.361 
Y1.32689016E-14 Z9.305 
Y1.3259924E-14 Z9.26 
Y1.3250128E-14 Z9.227 
Y1.3239792E-14 Z9.207 
Y1.3229308E-14 Z9.2 
X-107.475006 Y69.2088 F1000. 
G3 X-106.9266 Y69.7599 I-0.001 J0.55 
G2 X-92.1344 Y87.2922 I17.75 J0.031 F3600. 
Y1.1171081E-14 I0.458 J-2.712 
X-76.4264 Y69.8211 I-2.958 J-17.502 
G1 X-76.335 Y14.8211 
G2 X-91.1222 Y-2.7122 I-17.75 J-0.031 
Y1.1271502E-14 I-0.458 J2.712 
X-106.835 Y14.7599 I2.958 J17.502 
G1 X-106.9266 Y69.7599 
G3 X-107.477005 Y70.3088 I-0.55 J-0.001 F1000. 
G1 X-108.0277 Y70.3077 
Y1.3240025E-14 Z9.207 
Y1.3250313E-14 Z9.227 
Y1.3260194E-14 Z9.26 
Y1.3269049E-14 Z9.305 
Y1.3277204E-14 Z9.361 
Y1.32840135E-14 Z9.427 
X-108.5177 Y70.3066 Z9.5 
Y1.3294398E-14 Z9.58 
Y1.32970925E-14 Z9.664 
Y1.3296933E-14 Z9.75 
G0 Z23.2
X-108.268 Y70.3077 
G1 Z13.2 F1200.
Z6.75
Y1.3258969E-14 Z6.664 
Y1.3261418E-14 Z6.58 
Y1.3265864E-14 Z6.5 
Y1.3270885E-14 Z6.427 
Y1.3277744E-14 Z6.361 
X-108.4877 Y70.3066 Z6.305 
Y1.3295746E-14 Z6.26 
Y1.3305298E-14 Z6.227 
Y1.3314899E-14 Z6.207 
Y1.3325749E-14 Z6.2 
X-109.368 Y70.3055 F1000. 
G3 X-109.909004 Y69.7544 I0.001 J-0.55 
G1 X-109.8144 Y15.1399 F3600. 
X9.232428E-16 
G2 X-127.533005 Y-2.6422 I-17.75 J0.031 
X-145.3144 Y15.0777 I-0.031 J17.75 
G1 X-145.413 Y70.0777 
G2 X-127.6911 Y87.8588 I17.75 J0.031 
X-109.913 Y70.1399 I0.031 J-17.75 
G1 X-109.909004 Y69.7544 
G3 X-109.3588 Y69.2055 I0.55 J0.001 F1000. 
G1 X-108.8088 Y69.2066 
Y1.33146295E-14 Z6.207 
Y1.3304416E-14 Z6.227 
Y1.3294644E-14 Z6.26 
Y1.32856415E-14 Z6.305 
X-108.41902 Y69.2077 Z6.361 
Y1.3270642E-14 Z6.427 
Y1.3265227E-14 Z6.5 
Y1.3261149E-14 Z6.58 
Y1.32587E-14 Z6.664 
Y1.3257879E-14 Z6.75 
G0 Z23.2
X-108.575005 Y69.2066 
G1 Z13.2 F1200.
Z6.75
Y1.3295844E-14 Z6.664 
Y1.3293297E-14 Z6.58 
Y1.3289317E-14 Z6.5 
X-108.479 Y69.2077 Z6.427 
Y1.3276935E-14 Z6.361 
Y1.32689016E-14 Z6.305 
Y1.3259924E-14 Z6.26 
Y1.3250128E-14 Z6.227 
Y1.3239792E-14 Z6.207 
Y1.3229308E-14 Z6.2 
X-107.475006 Y69.2088 F1000. 
G3 X-106.9266 Y69.7599 I-0.001 J0.55 
G2 X-92.1344 Y87.2922 I17.75 J0.031 F3600. 
Y1.1171081E-14 I0.458 J-2.712 
X-76.4264 Y69.8211 I-2.958 J-17.502 
G1 X-76.335 Y14.8211 
G2 X-91.1222 Y-2.7122 I-17.75 J-0.031 
Y1.1271502E-14 I-0.458 J2.712 
X-106.835 Y14.7599 I2.958 J17.502 
G1 X-106.9266 Y69.7599 
G3 X-107.477005 Y70.3088 I-0.55 J-0.001 F1000. 
G1 X-108.0277 Y70.3077 
Y1.3240025E-14 Z6.207 
Y1.3250313E-14 Z6.227 
Y1.3260194E-14 Z6.26 
Y1.3269049E-14 Z6.305 
Y1.3277204E-14 Z6.361 
Y1.32840135E-14 Z6.427 
X-108.5177 Y70.3066 Z6.5 
Y1.3294398E-14 Z6.58 
Y1.32970925E-14 Z6.664 
Y1.3296933E-14 Z6.75 
G0 Z23.2
X-108.268 Y70.3077 
G1 Z10.2 F1200.
Z3.75
Y1.3258969E-14 Z3.664 
Y1.3261418E-14 Z3.58 
Y1.3265864E-14 Z3.5 
Y1.3270885E-14 Z3.427 
Y1.3277744E-14 Z3.361 
X-108.4877 Y70.3066 Z3.305 
Y1.3295746E-14 Z3.26 
Y1.3305298E-14 Z3.227 
Y1.3314899E-14 Z3.207 
Y1.3325749E-14 Z3.2 
X-109.368 Y70.3055 F1000. 
G3 X-109.909004 Y69.7544 I0.001 J-0.55 
G1 X-109.8144 Y15.1399 F3600. 
X9.232428E-16 
G2 X-127.533005 Y-2.6422 I-17.75 J0.031 
X-145.3144 Y15.0777 I-0.031 J17.75 
G1 X-145.413 Y70.0777 
G2 X-127.6911 Y87.8588 I17.75 J0.031 
X-109.913 Y70.1399 I0.031 J-17.75 
G1 X-109.909004 Y69.7544 
G3 X-109.3588 Y69.2055 I0.55 J0.001 F1000. 
G1 X-108.8088 Y69.2066 
Y1.33146295E-14 Z3.207 
Y1.3304416E-14 Z3.227 
Y1.3294644E-14 Z3.26 
Y1.32856415E-14 Z3.305 
X-108.41902 Y69.2077 Z3.361 
Y1.3270642E-14 Z3.427 
Y1.3265227E-14 Z3.5 
Y1.3261149E-14 Z3.58 
Y1.32587E-14 Z3.664 
Y1.3257879E-14 Z3.75 
G0 Z23.2
X-108.575005 Y69.2066 
G1 Z10.2 F1200.
Z3.75
Y1.3295844E-14 Z3.664 
Y1.3293297E-14 Z3.58 
Y1.3289317E-14 Z3.5 
X-108.479 Y69.2077 Z3.427 
Y1.3276935E-14 Z3.361 
Y1.32689016E-14 Z3.305 
Y1.3259924E-14 Z3.26 
Y1.3250128E-14 Z3.227 
Y1.3239792E-14 Z3.207 
Y1.3229308E-14 Z3.2 
X-107.475006 Y69.2088 F1000. 
G3 X-106.9266 Y69.7599 I-0.001 J0.55 
G2 X-92.1344 Y87.2922 I17.75 J0.031 F3600. 
Y1.1171081E-14 I0.458 J-2.712 
X-76.4264 Y69.8211 I-2.958 J-17.502 
G1 X-76.335 Y14.8211 
G2 X-91.1222 Y-2.7122 I-17.75 J-0.031 
Y1.1271502E-14 I-0.458 J2.712 
X-106.835 Y14.7599 I2.958 J17.502 
G1 X-106.9266 Y69.7599 
G3 X-107.477005 Y70.3088 I-0.55 J-0.001 F1000. 
G1 X-108.0277 Y70.3077 
Y1.3240025E-14 Z3.207 
Y1.3250313E-14 Z3.227 
Y1.3260194E-14 Z3.26 
Y1.3269049E-14 Z3.305 
Y1.3277204E-14 Z3.361 
Y1.32840135E-14 Z3.427 
X-108.5177 Y70.3066 Z3.5 
Y1.3294398E-14 Z3.58 
Y1.32970925E-14 Z3.664 
Y1.3296933E-14 Z3.75 
G0 Z23.2
X-108.268 Y70.3077 
G1 Z7.2 F1200.
Z2.15
Y1.3258969E-14 Z2.064 
Y1.3261418E-14 Z1.98 
Y1.3265864E-14 Z1.9 
Y1.3270885E-14 Z1.827 
Y1.3277744E-14 Z1.761 
X-108.4877 Y70.3066 Z1.705 
Y1.3295746E-14 Z1.66 
Y1.3305298E-14 Z1.627 
Y1.3314899E-14 Z1.607 
Y1.3325749E-14 Z1.6 
X-109.368 Y70.3055 F1000. 
G3 X-109.909004 Y69.7544 I0.001 J-0.55 
G1 X-109.8144 Y15.1399 F3600. 
X9.232428E-16 
G2 X-127.533005 Y-2.6422 I-17.75 J0.031 
X-145.3144 Y15.0777 I-0.031 J17.75 
G1 X-145.413 Y70.0777 
G2 X-127.6911 Y87.8588 I17.75 J0.031 
X-109.913 Y70.1399 I0.031 J-17.75 
G1 X-109.909004 Y69.7544 
G3 X-109.3588 Y69.2055 I0.55 J0.001 F1000. 
G1 X-108.8088 Y69.2066 
Y1.33146295E-14 Z1.607 
Y1.3304416E-14 Z1.627 
Y1.3294644E-14 Z1.66 
Y1.32856415E-14 Z1.705 
X-108.41902 Y69.2077 Z1.761 
Y1.3270642E-14 Z1.827 
Y1.3265227E-14 Z1.9 
Y1.3261149E-14 Z1.98 
Y1.32587E-14 Z2.064 
Y1.3257879E-14 Z2.15 
G0 Z23.2
X-108.575005 Y69.2066 
G1 Z7.2 F1200.
Z2.15
Y1.3295844E-14 Z2.064 
Y1.3293297E-14 Z1.98 
Y1.3289317E-14 Z1.9 
X-108.479 Y69.2077 Z1.827 
Y1.3276935E-14 Z1.761 
Y1.32689016E-14 Z1.705 
Y1.3259924E-14 Z1.66 
Y1.3250128E-14 Z1.627 
Y1.3239792E-14 Z1.607 
Y1.3229308E-14 Z1.6 
X-107.475006 Y69.2088 F1000. 
G3 X-106.9266 Y69.7599 I-0.001 J0.55 
G2 X-92.1344 Y87.2922 I17.75 J0.031 F3600. 
Y1.1171081E-14 I0.458 J-2.712 
X-76.4264 Y69.8211 I-2.958 J-17.502 
G1 X-76.335 Y14.8211 
G2 X-91.1222 Y-2.7122 I-17.75 J-0.031 
Y1.1271502E-14 I-0.458 J2.712 
X-106.835 Y14.7599 I2.958 J17.502 
G1 X-106.9266 Y69.7599 
G3 X-107.477005 Y70.3088 I-0.55 J-0.001 F1000. 
G1 X-108.0277 Y70.3077 
Y1.3240025E-14 Z1.607 
Y1.3250313E-14 Z1.627 
Y1.3260194E-14 Z1.66 
Y1.3269049E-14 Z1.705 
Y1.3277204E-14 Z1.761 
Y1.32840135E-14 Z1.827 
X-108.5177 Y70.3066 Z1.9 
Y1.3294398E-14 Z1.98 
Y1.32970925E-14 Z2.064 
Y1.3296933E-14 Z2.15 
G0 Z23.2
X-108.268 Y70.3077 
G1 Z5.6 F1200.
Z0.55
Y1.3258969E-14 Z0.464 
Y1.3261418E-14 Z0.38 
Y1.3265864E-14 Z0.3 
Y1.3270885E-14 Z0.227 
Y1.3277744E-14 Z0.161 
X-108.4877 Y70.3066 Z0.105 
Y1.3295746E-14 Z0.06 
Y1.3305298E-14 Z0.027 
Y1.3314899E-14 Z0.007 
Y1.3325749E-14 Z0. 
X-109.368 Y70.3055 F1000. 
G3 X-109.909004 Y69.7544 I0.001 J-0.55 
G1 X-109.8144 Y15.1399 F3600. 
X9.232428E-16 
G2 X-127.533005 Y-2.6422 I-17.75 J0.031 
X-145.3144 Y15.0777 I-0.031 J17.75 
G1 X-145.413 Y70.0777 
G2 X-127.6911 Y87.8588 I17.75 J0.031 
X-109.913 Y70.1399 I0.031 J-17.75 
G1 X-109.909004 Y69.7544 
G3 X-109.3588 Y69.2055 I0.55 J0.001 F1000. 
G1 X-108.8088 Y69.2066 
Y1.33146295E-14 Z0.007 
Y1.3304416E-14 Z0.027 
Y1.3294644E-14 Z0.06 
Y1.32856415E-14 Z0.105 
X-108.41902 Y69.2077 Z0.161 
Y1.3270642E-14 Z0.227 
Y1.3265227E-14 Z0.3 
Y1.3261149E-14 Z0.38 
Y1.32587E-14 Z0.464 
Y1.3257879E-14 Z0.55 
G0 Z23.2
X-108.575005 Y69.2066 
G1 Z5.6 F1200.
Z0.55
Y1.3295844E-14 Z0.464 
Y1.3293297E-14 Z0.38 
Y1.3289317E-14 Z0.3 
X-108.479 Y69.2077 Z0.227 
Y1.3276935E-14 Z0.161 
Y1.32689016E-14 Z0.105 
Y1.3259924E-14 Z0.06 
Y1.3250128E-14 Z0.027 
Y1.3239792E-14 Z0.007 
Y1.3229308E-14 Z0. 
X-107.475006 Y69.2088 F1000. 
G3 X-106.9266 Y69.7599 I-0.001 J0.55 
G2 X-92.1344 Y87.2922 I17.75 J0.031 F3600. 
Y1.1171081E-14 I0.458 J-2.712 
X-76.4264 Y69.8211 I-2.958 J-17.502 
G1 X-76.335 Y14.8211 
G2 X-91.1222 Y-2.7122 I-17.75 J-0.031 
Y1.1271502E-14 I-0.458 J2.712 
X-106.835 Y14.7599 I2.958 J17.502 
G1 X-106.9266 Y69.7599 
G3 X-107.477005 Y70.3088 I-0.55 J-0.001 F1000. 
G1 X-108.0277 Y70.3077 
Y1.3240025E-14 Z0.007 
Y1.3250313E-14 Z0.027 
Y1.3260194E-14 Z0.06 
Y1.3269049E-14 Z0.105 
Y1.3277204E-14 Z0.161 
Y1.3283989E-14 

(2D CONTOUR4 2)
M5
M9
M1
T162 M6
S12000 M3
G54
M8
G0 X-29.188 Y170.8777 
Z33.2
Z23.2
G1 Z22.2 F1200.
Z15.75
Y3.5744625E-15 Z15.664 
Y3.5769117E-15 Z15.58 
Y3.581357E-15 Z15.5 
Y3.586439E-15 Z15.427 
Y3.5932484E-15 Z15.361 
X-29.4077 Y170.8766 Z15.305 
Y3.6112386E-15 Z15.26 
Y3.6207906E-15 Z15.227 
Y3.630392E-15 Z15.207 
Y3.641242E-15 Z15.2 
X-30.288 Y170.8755 F1000. 
G3 X-30.8299 Y170.3244 I0.001 J-0.55 
G1 X-30.7344 Y115.7099 F3600. 
X7.0813792E-15 
G2 X-48.4533 Y97.9282 I-17.75 J0.031 
X-66.2344 Y115.6477 I-0.031 J17.75 
G1 X-66.333 Y170.6477 
G2 X-48.6111 Y188.42802 I17.75 J0.031 
X-30.833 Y170.7099 I0.031 J-17.75 
G1 X-30.8299 Y170.3244 
G3 X-30.2788 Y169.7755 I0.55 J0.001 F1000. 
G1 X-29.7288 Y169.7766 
Y3.6301227E-15 Z15.207 
Y3.619909E-15 Z15.227 
Y3.6102467E-15 Z15.26 
Y3.601135E-15 Z15.305 
X-29.3399 Y169.77702 Z15.361 
Y3.58617E-15 Z15.427 
Y3.5807204E-15 Z15.5 
Y3.5766424E-15 Z15.58 
Y3.5741927E-15 Z15.664 
Y3.5733724E-15 Z15.75 
G0 Z23.2
X-29.4955 Y169.7766 
G1 Z22.2 F1200.
Z15.75
Y3.6113364E-15 Z15.664 
Y3.608887E-15 Z15.58 
Y3.604809E-15 Z15.5 
X-29.399 Y169.77702 Z15.427 
Y3.592428E-15 Z15.361 
Y3.5843944E-15 Z15.305 
Y3.5754175E-15 Z15.26 
Y3.5656203E-15 Z15.227 
Y3.5552844E-15 Z15.207 
Y3.5448013E-15 Z15.2 
X-28.3955 Y169.7788 F1000. 
G3 X-27.8466 Y170.32903 I-0.001 J0.55 
G2 X-13.0544 Y187.8622 I17.75 J0.031 F3600. 
Y1.4865743E-15 I0.458 J-2.712 
X2.6544 Y170.39099 I-2.958 J-17.502 
G1 X2.755 Y115.3911 
G2 X-12.0422 Y97.8582 I-17.75 J-0.031 
Y1.5869953E-15 I-0.458 J2.712 
X-27.755 Y115.3299 I2.958 J17.502 
G1 X-27.8466 Y170.32903 
G3 X-28.3977 Y170.87799 I-0.55 J-0.001 F1000. 
G1 X-28.9477 Y170.8777 
Y3.5555538E-15 Z15.207 
Y3.5658897E-15 Z15.227 
Y3.575687E-15 Z15.26 
Y3.5853986E-15 Z15.305 
Y3.5926974E-15 Z15.361 
Y3.5995063E-15 Z15.427 
X-29.4377 Y170.8766 Z15.5 
Y3.6098914E-15 Z15.58 
Y3.6125858E-15 Z15.664 
Y3.6124265E-15 Z15.75 
G0 Z23.2
X-29.188 Y170.8777 
G1 Z19.2 F1200.
Z12.75
Y3.5744625E-15 Z12.664 
Y3.5769117E-15 Z12.58 
Y3.581357E-15 Z12.5 
Y3.586439E-15 Z12.427 
Y3.5932484E-15 Z12.361 
X-29.4077 Y170.8766 Z12.305 
Y3.6112386E-15 Z12.26 
Y3.6207906E-15 Z12.227 
Y3.630392E-15 Z12.207 
Y3.641242E-15 Z12.2 
X-30.288 Y170.8755 F1000. 
G3 X-30.8299 Y170.3244 I0.001 J-0.55 
G1 X-30.7344 Y115.7099 F3600. 
X7.0813792E-15 
G2 X-48.4533 Y97.9282 I-17.75 J0.031 
X-66.2344 Y115.6477 I-0.031 J17.75 
G1 X-66.333 Y170.6477 
G2 X-48.6111 Y188.42802 I17.75 J0.031 
X-30.833 Y170.7099 I0.031 J-17.75 
G1 X-30.8299 Y170.3244 
G3 X-30.2788 Y169.7755 I0.55 J0.001 F1000. 
G1 X-29.7288 Y169.7766 
Y3.6301227E-15 Z12.207 
Y3.619909E-15 Z12.227 
Y3.6102467E-15 Z12.26 
Y3.601135E-15 Z12.305 
X-29.3399 Y169.77702 Z12.361 
Y3.58617E-15 Z12.427 
Y3.5807204E-15 Z12.5 
Y3.5766424E-15 Z12.58 
Y3.5741927E-15 Z12.664 
Y3.5733724E-15 Z12.75 
G0 Z23.2
X-29.4955 Y169.7766 
G1 Z19.2 F1200.
Z12.75
Y3.6113364E-15 Z12.664 
Y3.608887E-15 Z12.58 
Y3.604809E-15 Z12.5 
X-29.399 Y169.77702 Z12.427 
Y3.592428E-15 Z12.361 
Y3.5843944E-15 Z12.305 
Y3.5754175E-15 Z12.26 
Y3.5656203E-15 Z12.227 
Y3.5552844E-15 Z12.207 
Y3.5448013E-15 Z12.2 
X-28.3955 Y169.7788 F1000. 
G3 X-27.8466 Y170.32903 I-0.001 J0.55 
G2 X-13.0544 Y187.8622 I17.75 J0.031 F3600. 
Y1.4865743E-15 I0.458 J-2.712 
X2.6544 Y170.39099 I-2.958 J-17.502 
G1 X2.755 Y115.3911 
G2 X-12.0422 Y97.8582 I-17.75 J-0.031 
Y1.5869953E-15 I-0.458 J2.712 
X-27.755 Y115.3299 I2.958 J17.502 
G1 X-27.8466 Y170.32903 
G3 X-28.3977 Y170.87799 I-0.55 J-0.001 F1000. 
G1 X-28.9477 Y170.8777 
Y3.5555538E-15 Z12.207 
Y3.5658897E-15 Z12.227 
Y3.575687E-15 Z12.26 
Y3.5853986E-15 Z12.305 
Y3.5926974E-15 Z12.361 
Y3.5995063E-15 Z12.427 
X-29.4377 Y170.8766 Z12.5 
Y3.6098914E-15 Z12.58 
Y3.6125858E-15 Z12.664 
Y3.6124265E-15 Z12.75 
G0 Z23.2
X-29.188 Y170.8777 
G1 Z16.2 F1200.
Z9.75
Y3.5744625E-15 Z9.664 
Y3.5769117E-15 Z9.58 
Y3.581357E-15 Z9.5 
Y3.586439E-15 Z9.427 
Y3.5932484E-15 Z9.361 
X-29.4077 Y170.8766 Z9.305 
Y3.6112386E-15 Z9.26 
Y3.6207906E-15 Z9.227 
Y3.630392E-15 Z9.207 
Y3.641242E-15 Z9.2 
X-30.288 Y170.8755 F1000. 
G3 X-30.8299 Y170.3244 I0.001 J-0.55 
G1 X-30.7344 Y115.7099 F3600. 
X7.0813792E-15 
G2 X-48.4533 Y97.9282 I-17.75 J0.031 
X-66.2344 Y115.6477 I-0.031 J17.75 
G1 X-66.333 Y170.6477 
G2 X-48.6111 Y188.42802 I17.75 J0.031 
X-30.833 Y170.7099 I0.031 J-17.75 
G1 X-30.8299 Y170.3244 
G3 X-30.2788 Y169.7755 I0.55 J0.001 F1000. 
G1 X-29.7288 Y169.7766 
Y3.6301227E-15 Z9.207 
Y3.619909E-15 Z9.227 
Y3.6102467E-15 Z9.26 
Y3.601135E-15 Z9.305 
X-29.3399 Y169.77702 Z9.361 
Y3.58617E-15 Z9.427 
Y3.5807204E-15 Z9.5 
Y3.5766424E-15 Z9.58 
Y3.5741927E-15 Z9.664 
Y3.5733724E-15 Z9.75 
G0 Z23.2
X-29.4955 Y169.7766 
G1 Z16.2 F1200.
Z9.75
Y3.6113364E-15 Z9.664 
Y3.608887E-15 Z9.58 
Y3.604809E-15 Z9.5 
X-29.399 Y169.77702 Z9.427 
Y3.592428E-15 Z9.361 
Y3.5843944E-15 Z9.305 
Y3.5754175E-15 Z9.26 
Y3.5656203E-15 Z9.227 
Y3.5552844E-15 Z9.207 
Y3.5448013E-15 Z9.2 
X-28.3955 Y169.7788 F1000. 
G3 X-27.8466 Y170.32903 I-0.001 J0.55 
G2 X-13.0544 Y187.8622 I17.75 J0.031 F3600. 
Y1.4865743E-15 I0.458 J-2.712 
X2.6544 Y170.39099 I-2.958 J-17.502 
G1 X2.755 Y115.3911 
G2 X-12.0422 Y97.8582 I-17.75 J-0.031 
Y1.5869953E-15 I-0.458 J2.712 
X-27.755 Y115.3299 I2.958 J17.502 
G1 X-27.8466 Y170.32903 
G3 X-28.3977 Y170.87799 I-0.55 J-0.001 F1000. 
G1 X-28.9477 Y170.8777 
Y3.5555538E-15 Z9.207 
Y3.5658897E-15 Z9.227 
Y3.575687E-15 Z9.26 
Y3.5853986E-15 Z9.305 
Y3.5926974E-15 Z9.361 
Y3.5995063E-15 Z9.427 
X-29.4377 Y170.8766 Z9.5 
Y3.6098914E-15 Z9.58 
Y3.6125858E-15 Z9.664 
Y3.6124265E-15 Z9.75 
G0 Z23.2
X-29.188 Y170.8777 
G1 Z13.2 F1200.
Z6.75
Y3.5744625E-15 Z6.664 
Y3.5769117E-15 Z6.58 
Y3.581357E-15 Z6.5 
Y3.586439E-15 Z6.427 
Y3.5932484E-15 Z6.361 
X-29.4077 Y170.8766 Z6.305 
Y3.6112386E-15 Z6.26 
Y3.6207906E-15 Z6.227 
Y3.630392E-15 Z6.207 
Y3.641242E-15 Z6.2 
X-30.288 Y170.8755 F1000. 
G3 X-30.8299 Y170.3244 I0.001 J-0.55 
G1 X-30.7344 Y115.7099 F3600. 
X7.0813792E-15 
G2 X-48.4533 Y97.9282 I-17.75 J0.031 
X-66.2344 Y115.6477 I-0.031 J17.75 
G1 X-66.333 Y170.6477 
G2 X-48.6111 Y188.42802 I17.75 J0.031 
X-30.833 Y170.7099 I0.031 J-17.75 
G1 X-30.8299 Y170.3244 
G3 X-30.2788 Y169.7755 I0.55 J0.001 F1000. 
G1 X-29.7288 Y169.7766 
Y3.6301227E-15 Z6.207 
Y3.619909E-15 Z6.227 
Y3.6102467E-15 Z6.26 
Y3.601135E-15 Z6.305 
X-29.3399 Y169.77702 Z6.361 
Y3.58617E-15 Z6.427 
Y3.5807204E-15 Z6.5 
Y3.5766424E-15 Z6.58 
Y3.5741927E-15 Z6.664 
Y3.5733724E-15 Z6.75 
G0 Z23.2
X-29.4955 Y169.7766 
G1 Z13.2 F1200.
Z6.75
Y3.6113364E-15 Z6.664 
Y3.608887E-15 Z6.58 
Y3.604809E-15 Z6.5 
X-29.399 Y169.77702 Z6.427 
Y3.592428E-15 Z6.361 
Y3.5843944E-15 Z6.305 
Y3.5754175E-15 Z6.26 
Y3.5656203E-15 Z6.227 
Y3.5552844E-15 Z6.207 
Y3.5448013E-15 Z6.2 
X-28.3955 Y169.7788 F1000. 
G3 X-27.8466 Y170.32903 I-0.001 J0.55 
G2 X-13.0544 Y187.8622 I17.75 J0.031 F3600. 
Y1.4865743E-15 I0.458 J-2.712 
X2.6544 Y170.39099 I-2.958 J-17.502 
G1 X2.755 Y115.3911 
G2 X-12.0422 Y97.8582 I-17.75 J-0.031 
Y1.5869953E-15 I-0.458 J2.712 
X-27.755 Y115.3299 I2.958 J17.502 
G1 X-27.8466 Y170.32903 
G3 X-28.3977 Y170.87799 I-0.55 J-0.001 F1000. 
G1 X-28.9477 Y170.8777 
Y3.5555538E-15 Z6.207 
Y3.5658897E-15 Z6.227 
Y3.575687E-15 Z6.26 
Y3.5853986E-15 Z6.305 
Y3.5926974E-15 Z6.361 
Y3.5995063E-15 Z6.427 
X-29.4377 Y170.8766 Z6.5 
Y3.6098914E-15 Z6.58 
Y3.6125858E-15 Z6.664 
Y3.6124265E-15 Z6.75 
G0 Z23.2
X-29.188 Y170.8777 
G1 Z10.2 F1200.
Z3.75
Y3.5744625E-15 Z3.664 
Y3.5769117E-15 Z3.58 
Y3.581357E-15 Z3.5 
Y3.586439E-15 Z3.427 
Y3.5932484E-15 Z3.361 
X-29.4077 Y170.8766 Z3.305 
Y3.6112386E-15 Z3.26 
Y3.6207906E-15 Z3.227 
Y3.630392E-15 Z3.207 
Y3.641242E-15 Z3.2 
X-30.288 Y170.8755 F1000. 
G3 X-30.8299 Y170.3244 I0.001 J-0.55 
G1 X-30.7344 Y115.7099 F3600. 
X7.0813792E-15 
G2 X-48.4533 Y97.9282 I-17.75 J0.031 
X-66.2344 Y115.6477 I-0.031 J17.75 
G1 X-66.333 Y170.6477 
G2 X-48.6111 Y188.42802 I17.75 J0.031 
X-30.833 Y170.7099 I0.031 J-17.75 
G1 X-30.8299 Y170.3244 
G3 X-30.2788 Y169.7755 I0.55 J0.001 F1000. 
G1 X-29.7288 Y169.7766 
Y3.6301227E-15 Z3.207 
Y3.619909E-15 Z3.227 
Y3.6102467E-15 Z3.26 
Y3.601135E-15 Z3.305 
X-29.3399 Y169.77702 Z3.361 
Y3.58617E-15 Z3.427 
Y3.5807204E-15 Z3.5 
Y3.5766424E-15 Z3.58 
Y3.5741927E-15 Z3.664 
Y3.5733724E-15 Z3.75 
G0 Z23.2
X-29.4955 Y169.7766 
G1 Z10.2 F1200.
Z3.75
Y3.6113364E-15 Z3.664 
Y3.608887E-15 Z3.58 
Y3.604809E-15 Z3.5 
X-29.399 Y169.77702 Z3.427 
Y3.592428E-15 Z3.361 
Y3.5843944E-15 Z3.305 
Y3.5754175E-15 Z3.26 
Y3.5656203E-15 Z3.227 
Y3.5552844E-15 Z3.207 
Y3.5448013E-15 Z3.2 
X-28.3955 Y169.7788 F1000. 
G3 X-27.8466 Y170.32903 I-0.001 J0.55 
G2 X-13.0544 Y187.8622 I17.75 J0.031 F3600. 
Y1.4865743E-15 I0.458 J-2.712 
X2.6544 Y170.39099 I-2.958 J-17.502 
G1 X2.755 Y115.3911 
G2 X-12.0422 Y97.8582 I-17.75 J-0.031 
Y1.5869953E-15 I-0.458 J2.712 
X-27.755 Y115.3299 I2.958 J17.502 
G1 X-27.8466 Y170.32903 
G3 X-28.3977 Y170.87799 I-0.55 J-0.001 F1000. 
G1 X-28.9477 Y170.8777 
Y3.5555538E-15 Z3.207 
Y3.5658897E-15 Z3.227 
Y3.575687E-15 Z3.26 
Y3.5853986E-15 Z3.305 
Y3.5926974E-15 Z3.361 
Y3.5995063E-15 Z3.427 
X-29.4377 Y170.8766 Z3.5 
Y3.6098914E-15 Z3.58 
Y3.6125858E-15 Z3.664 
Y3.6124265E-15 Z3.75 
G0 Z23.2
X-29.188 Y170.8777 
G1 Z7.2 F1200.
Z2.15
Y3.5744625E-15 Z2.064 
Y3.5769117E-15 Z1.98 
Y3.581357E-15 Z1.9 
Y3.586439E-15 Z1.827 
Y3.5932484E-15 Z1.761 
X-29.4077 Y170.8766 Z1.705 
Y3.6112386E-15 Z1.66 
Y3.6207906E-15 Z1.627 
Y3.630392E-15 Z1.607 
Y3.641242E-15 Z1.6 
X-30.288 Y170.8755 F1000. 
G3 X-30.8299 Y170.3244 I0.001 J-0.55 
G1 X-30.7344 Y115.7099 F3600. 
X7.0813792E-15 
G2 X-48.4533 Y97.9282 I-17.75 J0.031 
X-66.2344 Y115.6477 I-0.031 J17.75 
G1 X-66.333 Y170.6477 
G2 X-48.6111 Y188.42802 I17.75 J0.031 
X-30.833 Y170.7099 I0.031 J-17.75 
G1 X-30.8299 Y170.3244 
G3 X-30.2788 Y169.7755 I0.55 J0.001 F1000. 
G1 X-29.7288 Y169.7766 
Y3.6301227E-15 Z1.607 
Y3.619909E-15 Z1.627 
Y3.6102467E-15 Z1.66 
Y3.601135E-15 Z1.705 
X-29.3399 Y169.77702 Z1.761 
Y3.58617E-15 Z1.827 
Y3.5807204E-15 Z1.9 
Y3.5766424E-15 Z1.98 
Y3.5741927E-15 Z2.064 
Y3.5733724E-15 Z2.15 
G0 Z23.2
X-29.4955 Y169.7766 
G1 Z7.2 F1200.
Z2.15
Y3.6113364E-15 Z2.064 
Y3.608887E-15 Z1.98 
Y3.604809E-15 Z1.9 
X-29.399 Y169.77702 Z1.827 
Y3.592428E-15 Z1.761 
Y3.5843944E-15 Z1.705 
Y3.5754175E-15 Z1.66 
Y3.5656203E-15 Z1.627 
Y3.5552844E-15 Z1.607 
Y3.5448013E-15 Z1.6 
X-28.3955 Y169.7788 F1000. 
G3 X-27.8466 Y170.32903 I-0.001 J0.55 
G2 X-13.0544 Y187.8622 I17.75 J0.031 F3600. 
Y1.4865743E-15 I0.458 J-2.712 
X2.6544 Y170.39099 I-2.958 J-17.502 
G1 X2.755 Y115.3911 
G2 X-12.0422 Y97.8582 I-17.75 J-0.031 
Y1.5869953E-15 I-0.458 J2.712 
X-27.755 Y115.3299 I2.958 J17.502 
G1 X-27.8466 Y170.32903 
G3 X-28.3977 Y170.87799 I-0.55 J-0.001 F1000. 
G1 X-28.9477 Y170.8777 
Y3.5555538E-15 Z1.607 
Y3.5658897E-15 Z1.627 
Y3.575687E-15 Z1.66 
Y3.5853986E-15 Z1.705 
Y3.5926974E-15 Z1.761 
Y3.5995063E-15 Z1.827 
X-29.4377 Y170.8766 Z1.9 
Y3.6098914E-15 Z1.98 
Y3.6125858E-15 Z2.064 
Y3.6124265E-15 Z2.15 
G0 Z23.2
X-29.188 Y170.8777 
G1 Z5.6 F1200.
Z0.55
Y3.5744625E-15 Z0.464 
Y3.5769117E-15 Z0.38 
Y3.581357E-15 Z0.3 
Y3.586439E-15 Z0.227 
Y3.5932484E-15 Z0.161 
X-29.4077 Y170.8766 Z0.105 
Y3.6112386E-15 Z0.06 
Y3.6207906E-15 Z0.027 
Y3.630392E-15 Z0.007 
Y3.641242E-15 Z0. 
X-30.288 Y170.8755 F1000. 
G3 X-30.8299 Y170.3244 I0.001 J-0.55 
G1 X-30.7344 Y115.7099 F3600. 
X7.0813792E-15 
G2 X-48.4533 Y97.9282 I-17.75 J0.031 
X-66.2344 Y115.6477 I-0.031 J17.75 
G1 X-66.333 Y170.6477 
G2 X-48.6111 Y188.42802 I17.75 J0.031 
X-30.833 Y170.7099 I0.031 J-17.75 
G1 X-30.8299 Y170.3244 
G3 X-30.2788 Y169.7755 I0.55 J0.001 F1000. 
G1 X-29.7288 Y169.7766 
Y3.6301227E-15 Z0.007 
Y3.619909E-15 Z0.027 
Y3.6102467E-15 Z0.06 
Y3.601135E-15 Z0.105 
X-29.3399 Y169.77702 Z0.161 
Y3.58617E-15 Z0.227 
Y3.5807204E-15 Z0.3 
Y3.5766424E-15 Z0.38 
Y3.5741927E-15 Z0.464 
Y3.5733724E-15 Z0.55 
G0 Z23.2
X-29.4955 Y169.7766 
G1 Z5.6 F1200.
Z0.55
Y3.6113364E-15 Z0.464 
Y3.608887E-15 Z0.38 
Y3.604809E-15 Z0.3 
X-29.399 Y169.77702 Z0.227 
Y3.592428E-15 Z0.161 
Y3.5843944E-15 Z0.105 
Y3.5754175E-15 Z0.06 
Y3.5656203E-15 Z0.027 
Y3.5552844E-15 Z0.007 
Y3.5448013E-15 Z0. 
X-28.3955 Y169.7788 F1000. 
G3 X-27.8466 Y170.32903 I-0.001 J0.55 
G2 X-13.0544 Y187.8622 I17.75 J0.031 F3600. 
Y1.4865743E-15 I0.458 J-2.712 
X2.6544 Y170.39099 I-2.958 J-17.502 
G1 X2.755 Y115.3911 
G2 X-12.0422 Y97.8582 I-17.75 J-0.031 
Y1.5869953E-15 I-0.458 J2.712 
X-27.755 Y115.3299 I2.958 J17.502 
G1 X-27.8466 Y170.32903 
G3 X-28.3977 Y170.87799 I-0.55 J-0.001 F1000. 
G1 X-28.9477 Y170.8777 
Y3.5555538E-15 Z0.007 
Y3.5658897E-15 Z0.027 
Y3.575687E-15 Z0.06 
Y3.5853986E-15 Z0.105 
Y3.5926974E-15 Z0.161 
Y3.5994818E-15 

(2D CONTOUR4 2)
M5
M9
M1
T162 M6
S12000 M3
G54
M8
G0 X-108.268 Y170.8777 
Z33.2
Z23.2
G1 Z22.2 F1200.
Z15.75
Y1.3258969E-14 Z15.664 
Y1.3261418E-14 Z15.58 
Y1.3265864E-14 Z15.5 
Y1.3270885E-14 Z15.427 
Y1.3277744E-14 Z15.361 
X-108.4877 Y170.8766 Z15.305 
Y1.3295746E-14 Z15.26 
Y1.3305298E-14 Z15.227 
Y1.3314899E-14 Z15.207 
Y1.3325749E-14 Z15.2 
X-109.368 Y170.8755 F1000. 
G3 X-109.909004 Y170.3244 I0.001 J-0.55 
G1 X-109.8144 Y115.7099 F3600. 
X7.0813792E-15 
G2 X-127.533005 Y97.9282 I-17.75 J0.031 
X-145.3144 Y115.6477 I-0.031 J17.75 
G1 X-145.413 Y170.6477 
G2 X-127.6911 Y188.42802 I17.75 J0.031 
X-109.913 Y170.7099 I0.031 J-17.75 
G1 X-109.909004 Y170.3244 
G3 X-109.3588 Y169.7755 I0.55 J0.001 F1000. 
G1 X-108.8088 Y169.7766 
Y1.33146295E-14 Z15.207 
Y1.3304416E-14 Z15.227 
Y1.3294644E-14 Z15.26 
Y1.32856415E-14 Z15.305 
X-108.41902 Y169.77702 Z15.361 
Y1.3270642E-14 Z15.427 
Y1.3265227E-14 Z15.5 
Y1.3261149E-14 Z15.58 
Y1.32587E-14 Z15.664 
Y1.3257879E-14 Z15.75 
G0 Z23.2
X-108.575005 Y169.7766 
G1 Z22.2 F1200.
Z15.75
Y1.3295844E-14 Z15.664 
Y1.3293297E-14 Z15.58 
Y1.3289317E-14 Z15.5 
X-108.479 Y169.77702 Z15.427 
Y1.3276935E-14 Z15.361 
Y1.32689016E-14 Z15.305 
Y1.3259924E-14 Z15.26 
Y1.3250128E-14 Z15.227 
Y1.3239792E-14 Z15.207 
Y1.3229308E-14 Z15.2 
X-107.475006 Y169.7788 F1000. 
G3 X-106.9266 Y170.32903 I-0.001 J0.55 
G2 X-92.1344 Y187.8622 I17.75 J0.031 F3600. 
Y1.1171081E-14 I0.458 J-2.712 
X-76.4264 Y170.39099 I-2.958 J-17.502 
G1 X-76.335 Y115.3911 
G2 X-91.1222 Y97.8582 I-17.75 J-0.031 
Y1.1271502E-14 I-0.458 J2.712 
X-106.835 Y115.3299 I2.958 J17.502 
G1 X-106.9266 Y170.32903 
G3 X-107.477005 Y170.87799 I-0.55 J-0.001 F1000. 
G1 X-108.0277 Y170.8777 
Y1.3240025E-14 Z15.207 
Y1.3250313E-14 Z15.227 
Y1.3260194E-14 Z15.26 
Y1.3269049E-14 Z15.305 
Y1.3277204E-14 Z15.361 
Y1.32840135E-14 Z15.427 
X-108.5177 Y170.8766 Z15.5 
Y1.3294398E-14 Z15.58 
Y1.32970925E-14 Z15.664 
Y1.3296933E-14 Z15.75 
G0 Z23.2
X-108.268 Y170.8777 
G1 Z19.2 F1200.
Z12.75
Y1.3258969E-14 Z12.664 
Y1.3261418E-14 Z12.58 
Y1.3265864E-14 Z12.5 
Y1.3270885E-14 Z12.427 
Y1.3277744E-14 Z12.361 
X-108.4877 Y170.8766 Z12.305 
Y1.3295746E-14 Z12.26 
Y1.3305298E-14 Z12.227 
Y1.3314899E-14 Z12.207 
Y1.3325749E-14 Z12.2 
X-109.368 Y170.8755 F1000. 
G3 X-109.909004 Y170.3244 I0.001 J-0.55 
G1 X-109.8144 Y115.7099 F3600. 
X7.0813792E-15 
G2 X-127.533005 Y97.9282 I-17.75 J0.031 
X-145.3144 Y115.6477 I-0.031 J17.75 
G1 X-145.413 Y170.6477 
G2 X-127.6911 Y188.42802 I17.75 J0.031 
X-109.913 Y170.7099 I0.031 J-17.75 
G1 X-109.909004 Y170.3244 
G3 X-109.3588 Y169.7755 I0.55 J0.001 F1000. 
G1 X-108.8088 Y169.7766 
Y1.33146295E-14 Z12.207 
Y1.3304416E-14 Z12.227 
Y1.3294644E-14 Z12.26 
Y1.32856415E-14 Z12.305 
X-108.41902 Y169.77702 Z12.361 
Y1.3270642E-14 Z12.427 
Y1.3265227E-14 Z12.5 
Y1.3261149E-14 Z12.58 
Y1.32587E-14 Z12.664 
Y1.3257879E-14 Z12.75 
G0 Z23.2
X-108.575005 Y169.7766 
G1 Z19.2 F1200.
Z12.75
Y1.3295844E-14 Z12.664 
Y1.3293297E-14 Z12.58 
Y1.3289317E-14 Z12.5 
X-108.479 Y169.77702 Z12.427 
Y1.3276935E-14 Z12.361 
Y1.32689016E-14 Z12.305 
Y1.3259924E-14 Z12.26 
Y1.3250128E-14 Z12.227 
Y1.3239792E-14 Z12.207 
Y1.3229308E-14 Z12.2 
X-107.475006 Y169.7788 F1000. 
G3 X-106.9266 Y170.32903 I-0.001 J0.55 
G2 X-92.1344 Y187.8622 I17.75 J0.031 F3600. 
Y1.1171081E-14 I0.458 J-2.712 
X-76.4264 Y170.39099 I-2.958 J-17.502 
G1 X-76.335 Y115.3911 
G2 X-91.1222 Y97.8582 I-17.75 J-0.031 
Y1.1271502E-14 I-0.458 J2.712 
X-106.835 Y115.3299 I2.958 J17.502 
G1 X-106.9266 Y170.32903 
G3 X-107.477005 Y170.87799 I-0.55 J-0.001 F1000. 
G1 X-108.0277 Y170.8777 
Y1.3240025E-14 Z12.207 
Y1.3250313E-14 Z12.227 
Y1.3260194E-14 Z12.26 
Y1.3269049E-14 Z12.305 
Y1.3277204E-14 Z12.361 
Y1.32840135E-14 Z12.427 
X-108.5177 Y170.8766 Z12.5 
Y1.3294398E-14 Z12.58 
Y1.32970925E-14 Z12.664 
Y1.3296933E-14 Z12.75 
G0 Z23.2
X-108.268 Y170.8777 
G1 Z16.2 F1200.
Z9.75
Y1.3258969E-14 Z9.664 
Y1.3261418E-14 Z9.58 
Y1.3265864E-14 Z9.5 
Y1.3270885E-14 Z9.427 
Y1.3277744E-14 Z9.361 
X-108.4877 Y170.8766 Z9.305 
Y1.3295746E-14 Z9.26 
Y1.3305298E-14 Z9.227 
Y1.3314899E-14 Z9.207 
Y1.3325749E-14 Z9.2 
X-109.368 Y170.8755 F1000. 
G3 X-109.909004 Y170.3244 I0.001 J-0.55 
G1 X-109.8144 Y115.7099 F3600. 
X7.0813792E-15 
G2 X-127.533005 Y97.9282 I-17.75 J0.031 
X-145.3144 Y115.6477 I-0.031 J17.75 
G1 X-145.413 Y170.6477 
G2 X-127.6911 Y188.42802 I17.75 J0.031 
X-109.913 Y170.7099 I0.031 J-17.75 
G1 X-109.909004 Y170.3244 
G3 X-109.3588 Y169.7755 I0.55 J0.001 F1000. 
G1 X-108.8088 Y169.7766 
Y1.33146295E-14 Z9.207 
Y1.3304416E-14 Z9.227 
Y1.3294644E-14 Z9.26 
Y1.32856415E-14 Z9.305 
X-108.41902 Y169.77702 Z9.361 
Y1.3270642E-14 Z9.427 
Y1.3265227E-14 Z9.5 
Y1.3261149E-14 Z9.58 
Y1.32587E-14 Z9.664 
Y1.3257879E-14 Z9.75 
G0 Z23.2
X-108.575005 Y169.7766 
G1 Z16.2 F1200.
Z9.75
Y1.3295844E-14 Z9.664 
Y1.3293297E-14 Z9.58 
Y1.3289317E-14 Z9.5 
X-108.479 Y169.77702 Z9.427 
Y1.3276935E-14 Z9.361 
Y1.32689016E-14 Z9.305 
Y1.3259924E-14 Z9.26 
Y1.3250128E-14 Z9.227 
Y1.3239792E-14 Z9.207 
Y1.3229308E-14 Z9.2 
X-107.475006 Y169.7788 F1000. 
G3 X-106.9266 Y170.32903 I-0.001 J0.55 
G2 X-92.1344 Y187.8622 I17.75 J0.031 F3600. 
Y1.1171081E-14 I0.458 J-2.712 
X-76.4264 Y170.39099 I-2.958 J-17.502 
G1 X-76.335 Y115.3911 
G2 X-91.1222 Y97.8582 I-17.75 J-0.031 
Y1.1271502E-14 I-0.458 J2.712 
X-106.835 Y115.3299 I2.958 J17.502 
G1 X-106.9266 Y170.32903 
G3 X-107.477005 Y170.87799 I-0.55 J-0.001 F1000. 
G1 X-108.0277 Y170.8777 
Y1.3240025E-14 Z9.207 
Y1.3250313E-14 Z9.227 
Y1.3260194E-14 Z9.26 
Y1.3269049E-14 Z9.305 
Y1.3277204E-14 Z9.361 
Y1.32840135E-14 Z9.427 
X-108.5177 Y170.8766 Z9.5 
Y1.3294398E-14 Z9.58 
Y1.32970925E-14 Z9.664 
Y1.3296933E-14 Z9.75 
G0 Z23.2
X-108.268 Y170.8777 
G1 Z13.2 F1200.
Z6.75
Y1.3258969E-14 Z6.664 
Y1.3261418E-14 Z6.58 
Y1.3265864E-14 Z6.5 
Y1.3270885E-14 Z6.427 
Y1.3277744E-14 Z6.361 
X-108.4877 Y170.8766 Z6.305 
Y1.3295746E-14 Z6.26 
Y1.3305298E-14 Z6.227 
Y1.3314899E-14 Z6.207 
Y1.3325749E-14 Z6.2 
X-109.368 Y170.8755 F1000. 
G3 X-109.909004 Y170.3244 I0.001 J-0.55 
G1 X-109.8144 Y115.7099 F3600. 
X7.0813792E-15 
G2 X-127.533005 Y97.9282 I-17.75 J0.031 
X-145.3144 Y115.6477 I-0.031 J17.75 
G1 X-145.413 Y170.6477 
G2 X-127.6911 Y188.42802 I17.75 J0.031 
X-109.913 Y170.7099 I0.031 J-17.75 
G1 X-109.909004 Y170.3244 
G3 X-109.3588 Y169.7755 I0.55 J0.001 F1000. 
G1 X-108.8088 Y169.7766 
Y1.33146295E-14 Z6.207 
Y1.3304416E-14 Z6.227 
Y1.3294644E-14 Z6.26 
Y1.32856415E-14 Z6.305 
X-108.41902 Y169.77702 Z6.361 
Y1.3270642E-14 Z6.427 
Y1.3265227E-14 Z6.5 
Y1.3261149E-14 Z6.58 
Y1.32587E-14 Z6.664 
Y1.3257879E-14 Z6.75 
G0 Z23.2
X-108.575005 Y169.7766 
G1 Z13.2 F1200.
Z6.75
Y1.3295844E-14 Z6.664 
Y1.3293297E-14 Z6.58 
Y1.3289317E-14 Z6.5 
X-108.479 Y169.77702 Z6.427 
Y1.3276935E-14 Z6.361 
Y1.32689016E-14 Z6.305 
Y1.3259924E-14 Z6.26 
Y1.3250128E-14 Z6.227 
Y1.3239792E-14 Z6.207 
Y1.3229308E-14 Z6.2 
X-107.475006 Y169.7788 F1000. 
G3 X-106.9266 Y170.32903 I-0.001 J0.55 
G2 X-92.1344 Y187.8622 I17.75 J0.031 F3600. 
Y1.1171081E-14 I0.458 J-2.712 
X-76.4264 Y170.39099 I-2.958 J-17.502 
G1 X-76.335 Y115.3911 
G2 X-91.1222 Y97.8582 I-17.75 J-0.031 
Y1.1271502E-14 I-0.458 J2.712 
X-106.835 Y115.3299 I2.958 J17.502 
G1 X-106.9266 Y170.32903 
G3 X-107.477005 Y170.87799 I-0.55 J-0.001 F1000. 
G1 X-108.0277 Y170.8777 
Y1.3240025E-14 Z6.207 
Y1.3250313E-14 Z6.227 
Y1.3260194E-14 Z6.26 
Y1.3269049E-14 Z6.305 
Y1.3277204E-14 Z6.361 
Y1.32840135E-14 Z6.427 
X-108.5177 Y170.8766 Z6.5 
Y1.3294398E-14 Z6.58 
Y1.32970925E-14 Z6.664 
Y1.3296933E-14 Z6.75 
G0 Z23.2
X-108.268 Y170.8777 
G1 Z10.2 F1200.
Z3.75
Y1.3258969E-14 Z3.664 
Y1.3261418E-14 Z3.58 
Y1.3265864E-14 Z3.5 
Y1.3270885E-14 Z3.427 
Y1.3277744E-14 Z3.361 
X-108.4877 Y170.8766 Z3.305 
Y1.3295746E-14 Z3.26 
Y1.3305298E-14 Z3.227 
Y1.3314899E-14 Z3.207 
Y1.3325749E-14 Z3.2 
X-109.368 Y170.8755 F1000. 
G3 X-109.909004 Y170.3244 I0.001 J-0.55 
G1 X-109.8144 Y115.7099 F3600. 
X7.0813792E-15 
G2 X-127.533005 Y97.9282 I-17.75 J0.031 
X-145.3144 Y115.6477 I-0.031 J17.75 
G1 X-145.413 Y170.6477 
G2 X-127.6911 Y188.42802 I17.75 J0.031 
X-109.913 Y170.7099 I0.031 J-17.75 
G1 X-109.909004 Y170.3244 
G3 X-109.3588 Y169.7755 I0.55 J0.001 F1000. 
G1 X-108.8088 Y169.7766 
Y1.33146295E-14 Z3.207 
Y1.3304416E-14 Z3.227 
Y1.3294644E-14 Z3.26 
Y1.32856415E-14 Z3.305 
X-108.41902 Y169.77702 Z3.361 
Y1.3270642E-14 Z3.427 
Y1.3265227E-14 Z3.5 
Y1.3261149E-14 Z3.58 
Y1.32587E-14 Z3.664 
Y1.3257879E-14 Z3.75 
G0 Z23.2
X-108.575005 Y169.7766 
G1 Z10.2 F1200.
Z3.75
Y1.3295844E-14 Z3.664 
Y1.3293297E-14 Z3.58 
Y1.3289317E-14 Z3.5 
X-108.479 Y169.77702 Z3.427 
Y1.3276935E-14 Z3.361 
Y1.32689016E-14 Z3.305 
Y1.3259924E-14 Z3.26 
Y1.3250128E-14 Z3.227 
Y1.3239792E-14 Z3.207 
Y1.3229308E-14 Z3.2 
X-107.475006 Y169.7788 F1000. 
G3 X-106.9266 Y170.32903 I-0.001 J0.55 
G2 X-92.1344 Y187.8622 I17.75 J0.031 F3600. 
Y1.1171081E-14 I0.458 J-2.712 
X-76.4264 Y170.39099 I-2.958 J-17.502 
G1 X-76.335 Y115.3911 
G2 X-91.1222 Y97.8582 I-17.75 J-0.031 
Y1.1271502E-14 I-0.458 J2.712 
X-106.835 Y115.3299 I2.958 J17.502 
G1 X-106.9266 Y170.32903 
G3 X-107.477005 Y170.87799 I-0.55 J-0.001 F1000. 
G1 X-108.0277 Y170.8777 
Y1.3240025E-14 Z3.207 
Y1.3250313E-14 Z3.227 
Y1.3260194E-14 Z3.26 
Y1.3269049E-14 Z3.305 
Y1.3277204E-14 Z3.361 
Y1.32840135E-14 Z3.427 
X-108.5177 Y170.8766 Z3.5 
Y1.3294398E-14 Z3.58 
Y1.32970925E-14 Z3.664 
Y1.3296933E-14 Z3.75 
G0 Z23.2
X-108.268 Y170.8777 
G1 Z7.2 F1200.
Z2.15
Y1.3258969E-14 Z2.064 
Y1.3261418E-14 Z1.98 
Y1.3265864E-14 Z1.9 
Y1.3270885E-14 Z1.827 
Y1.3277744E-14 Z1.761 
X-108.4877 Y170.8766 Z1.705 
Y1.3295746E-14 Z1.66 
Y1.3305298E-14 Z1.627 
Y1.3314899E-14 Z1.607 
Y1.3325749E-14 Z1.6 
X-109.368 Y170.8755 F1000. 
G3 X-109.909004 Y170.3244 I0.001 J-0.55 
G1 X-109.8144 Y115.7099 F3600. 
X7.0813792E-15 
G2 X-127.533005 Y97.9282 I-17.75 J0.031 
X-145.3144 Y115.6477 I-0.031 J17.75 
G1 X-145.413 Y170.6477 
G2 X-127.6911 Y188.42802 I17.75 J0.031 
X-109.913 Y170.7099 I0.031 J-17.75 
G1 X-109.909004 Y170.3244 
G3 X-109.3588 Y169.7755 I0.55 J0.001 F1000. 
G1 X-108.8088 Y169.7766 
Y1.33146295E-14 Z1.607 
Y1.3304416E-14 Z1.627 
Y1.3294644E-14 Z1.66 
Y1.32856415E-14 Z1.705 
X-108.41902 Y169.77702 Z1.761 
Y1.3270642E-14 Z1.827 
Y1.3265227E-14 Z1.9 
Y1.3261149E-14 Z1.98 
Y1.32587E-14 Z2.064 
Y1.3257879E-14 Z2.15 
G0 Z23.2
X-108.575005 Y169.7766 
G1 Z7.2 F1200.
Z2.15
Y1.3295844E-14 Z2.064 
Y1.3293297E-14 Z1.98 
Y1.3289317E-14 Z1.9 
X-108.479 Y169.77702 Z1.827 
Y1.3276935E-14 Z1.761 
Y1.32689016E-14 Z1.705 
Y1.3259924E-14 Z1.66 
Y1.3250128E-14 Z1.627 
Y1.3239792E-14 Z1.607 
Y1.3229308E-14 Z1.6 
X-107.475006 Y169.7788 F1000. 
G3 X-106.9266 Y170.32903 I-0.001 J0.55 
G2 X-92.1344 Y187.8622 I17.75 J0.031 F3600. 
Y1.1171081E-14 I0.458 J-2.712 
X-76.4264 Y170.39099 I-2.958 J-17.502 
G1 X-76.335 Y115.3911 
G2 X-91.1222 Y97.8582 I-17.75 J-0.031 
Y1.1271502E-14 I-0.458 J2.712 
X-106.835 Y115.3299 I2.958 J17.502 
G1 X-106.9266 Y170.32903 
G3 X-107.477005 Y170.87799 I-0.55 J-0.001 F1000. 
G1 X-108.0277 Y170.8777 
Y1.3240025E-14 Z1.607 
Y1.3250313E-14 Z1.627 
Y1.3260194E-14 Z1.66 
Y1.3269049E-14 Z1.705 
Y1.3277204E-14 Z1.761 
Y1.32840135E-14 Z1.827 
X-108.5177 Y170.8766 Z1.9 
Y1.3294398E-14 Z1.98 
Y1.32970925E-14 Z2.064 
Y1.3296933E-14 Z2.15 
G0 Z23.2
X-108.268 Y170.8777 
G1 Z5.6 F1200.
Z0.55
Y1.3258969E-14 Z0.464 
Y1.3261418E-14 Z0.38 
Y1.3265864E-14 Z0.3 
Y1.3270885E-14 Z0.227 
Y1.3277744E-14 Z0.161 
X-108.4877 Y170.8766 Z0.105 
Y1.3295746E-14 Z0.06 
Y1.3305298E-14 Z0.027 
Y1.3314899E-14 Z0.007 
Y1.3325749E-14 Z0. 
X-109.368 Y170.8755 F1000. 
G3 X-109.909004 Y170.3244 I0.001 J-0.55 
G1 X-109.8144 Y115.7099 F3600. 
X7.0813792E-15 
G2 X-127.533005 Y97.9282 I-17.75 J0.031 
X-145.3144 Y115.6477 I-0.031 J17.75 
G1 X-145.413 Y170.6477 
G2 X-127.6911 Y188.42802 I17.75 J0.031 
X-109.913 Y170.7099 I0.031 J-17.75 
G1 X-109.909004 Y170.3244 
G3 X-109.3588 Y169.7755 I0.55 J0.001 F1000. 
G1 X-108.8088 Y169.7766 
Y1.33146295E-14 Z0.007 
Y1.3304416E-14 Z0.027 
Y1.3294644E-14 Z0.06 
Y1.32856415E-14 Z0.105 
X-108.41902 Y169.77702 Z0.161 
Y1.3270642E-14 Z0.227 
Y1.3265227E-14 Z0.3 
Y1.3261149E-14 Z0.38 
Y1.32587E-14 Z0.464 
Y1.3257879E-14 Z0.55 
G0 Z23.2
X-108.575005 Y169.7766 
G1 Z5.6 F1200.
Z0.55
Y1.3295844E-14 Z0.464 
Y1.3293297E-14 Z0.38 
Y1.3289317E-14 Z0.3 
X-108.479 Y169.77702 Z0.227 
Y1.3276935E-14 Z0.161 
Y1.32689016E-14 Z0.105 
Y1.3259924E-14 Z0.06 
Y1.3250128E-14 Z0.027 
Y1.3239792E-14 Z0.007 
Y1.3229308E-14 Z0. 
X-107.475006 Y169.7788 F1000. 
G3 X-106.9266 Y170.32903 I-0.001 J0.55 
G2 X-92.1344 Y187.8622 I17.75 J0.031 F3600. 
Y1.1171081E-14 I0.458 J-2.712 
X-76.4264 Y170.39099 I-2.958 J-17.502 
G1 X-76.335 Y115.3911 
G2 X-91.1222 Y97.8582 I-17.75 J-0.031 
Y1.1271502E-14 I-0.458 J2.712 
X-106.835 Y115.3299 I2.958 J17.502 
G1 X-106.9266 Y170.32903 
G3 X-107.477005 Y170.87799 I-0.55 J-0.001 F1000. 
G1 X-108.0277 Y170.8777 
Y1.3240025E-14 Z0.007 
Y1.3250313E-14 Z0.027 
Y1.3260194E-14 Z0.06 
Y1.3269049E-14 Z0.105 
Y1.3277204E-14 Z0.161 
Y1.3283989E-14 

M9
G28 G91 Z0.
G90
G28 G91 X0.0 Y0.0 
G90
M30


