(2018-01-26 HACKSAW)
(2018-01-26 HACKSAW)
(T24  D=4. CR=0. TAPER=118DEG - ZMIN=-2.702 - DRILL)
(T42  D=0.1 CR=0. TAPER=45DEG - ZMIN=14.2 - TAPERED MILL)
(T162  D=5.5 CR=0. - ZMIN=0. - FLAT END MILL)
G90 G94 G91.1 G40 G49 G17
G21
G28 G91 Z0.
G90

(DRILL3 3)
M5
M9
T24 M6
S8000 M3
G54
M8
G0 X15.108 Y45.984
Z33.2
Z23.2
G98 G83 X15.108 Y45.984 Z-2.702 R23.2 Q4. F800.
X14.79 Y12.5
X69.79 Y12.596
X70.108 Y46.08
G80
Z33.2
G28 G91 Z0.
G90

(DRILL3 3)
M5
M9
T24 M6
S8000 M3
G54
M8
G0 X15.1088 Y125.0644
Z33.2
Z23.2
G98 G83 X15.1088 Y125.0644 Z-2.702 R23.2 Q4. F800.
X14.799 Y91.585
X69.799 Y91.676

(DRILL3 3)
M5
M9
T24 M6
S8000 M3
G54
M8
G0 X115.6788 Y45.9844
Z33.2
Z23.2
G98 G83 X115.6788 Y45.9844 Z-2.702 R23.2 Q4. F800.
X115.369 Y12.55
X170.369 Y12.596

(DRILL3 3)
M5
M9
T24 M6
S8000 M3
G54
M8
G0 X115.6788 Y125.0644
Z33.2
Z23.2
G98 G83 X115.6788 Y125.0644 Z-2.702 R23.2 Q4. F800.
X115.369 Y91.585
X170.369 Y91.676

(DRILL3 4)
M5
M9
M1
T42 M6
S12000 M3
G54
M8
G0 X15.108 Y45.984
Z33.2
Z23.2
G83 X15.108 Y45.984 Z14.2 R23.2 Q4. F1200.
X70.108 Y46.08
G80
Z33.2
G28 G91 Z0.
G90

(DRILL3 4)
M5
M9
M1
T42 M6
S12000 M3
G54
M8
G0 X15.1088 Y125.0644
Z33.2
Z23.2
G83 X15.1088 Y125.064

(DRILL3 4)
M5
M9
M1
T42 M6
S12000 M3
G54
M8
G0 X115.6788 Y45.9844
Z33.2
Z23.2
G83 X115.6788 Y45.984

(DRILL3 4)
M5
M9
M1
T42 M6
S12000 M3
G54
M8
G0 X115.6788 Y125.0644
Z33.2
Z23.2
G83 X115.6788 Y125.064

(2D CONTOUR4 2)
M5
M9
M1
T162 M6
S12000 M3
G54
M8
G0 X70.307 Y29.18
Z33.2
Z23.2
G1 Z22.2 F1200.
Z15.75
Y29.187 Z15.664
Y29.207 Z15.58
Y29.24 Z15.5
Y29.285 Z15.427
Y29.341 Z15.361
X70.306 Y29.407 Z15.305
Y29.48 Z15.26
Y29.56 Z15.227
Y29.644 Z15.207
Y29.73 Z15.2
X70.305 Y30.28 F1000.
G3 X69.754 Y30.829 I-0.55 J-0.001
G1 X15.139 Y30.734 F3600.
X15.077
G2 X-2.642 Y48.453 I0.031 J17.75
X15.077 Y66.234 I17.75 J0.031
G1 X70.077 Y66.33
G2 X87.858 Y48.611 I0.031 J-17.75
X70.139 Y30.83 I-17.75 J-0.031
G1 X69.754 Y30.829
G3 X69.205 Y30.278 I0.001 J-0.55 F1000.
G1 X69.206 Y29.728
Y29.642 Z15.207
Y29.558 Z15.227
Y29.479 Z15.26
Y29.405 Z15.305
X69.207 Y29.339 Z15.361
Y29.283 Z15.427
Y29.238 Z15.5
Y29.205 Z15.58
Y29.185 Z15.664
Y29.178 Z15.75
G0 Z23.2
X69.206 Y29.495
G1 Z22.2 F1200.
Z15.75
Y29.488 Z15.664
Y29.468 Z15.58
Y29.435 Z15.5
X69.207 Y29.39 Z15.427
Y29.334 Z15.361
Y29.268 Z15.305
Y29.195 Z15.26
Y29.115 Z15.227
Y29.031 Z15.207
Y28.945 Z15.2
X69.208 Y28.395 F1000.
G3 X69.759 Y27.846 I0.55 J0.001
G2 X87.292 Y13.054 I0.031 J-17.75 F3600.
Y12.138 I-2.712 J-0.458
X69.821 Y-2.654 I-17.502 J2.958
G1 X14.821 Y-2.75
G2 X-2.712 Y12.042 I-0.031 J17.75
Y12.958 I2.712 J0.458
X14.759 Y27.75 I17.502 J-2.958
G1 X69.759 Y27.846
G3 X70.308 Y28.397 I-0.001 J0.55 F1000.
G1 X70.307 Y28.947
Y29.033 Z15.207
Y29.117 Z15.227
Y29.197 Z15.26
Y29.27 Z15.305
Y29.336 Z15.361
Y29.392 Z15.427
X70.306 Y29.437 Z15.5
Y29.47 Z15.58
Y29.49 Z15.664
Y29.497 Z15.75
G0 Z23.2
X70.307 Y29.18
G1 Z19.2 F1200.
Z12.75
Y29.187 Z12.664
Y29.207 Z12.58
Y29.24 Z12.5
Y29.285 Z12.427
Y29.341 Z12.361
X70.306 Y29.407 Z12.305
Y29.48 Z12.26
Y29.56 Z12.227
Y29.644 Z12.207
Y29.73 Z12.2
X70.305 Y30.28 F1000.
G3 X69.754 Y30.829 I-0.55 J-0.001
G1 X15.139 Y30.734 F3600.
X15.077
G2 X-2.642 Y48.453 I0.031 J17.75
X15.077 Y66.234 I17.75 J0.031
G1 X70.077 Y66.33
G2 X87.858 Y48.611 I0.031 J-17.75
X70.139 Y30.83 I-17.75 J-0.031
G1 X69.754 Y30.829
G3 X69.205 Y30.278 I0.001 J-0.55 F1000.
G1 X69.206 Y29.728
Y29.642 Z12.207
Y29.558 Z12.227
Y29.479 Z12.26
Y29.405 Z12.305
X69.207 Y29.339 Z12.361
Y29.283 Z12.427
Y29.238 Z12.5
Y29.205 Z12.58
Y29.185 Z12.664
Y29.178 Z12.75
G0 Z23.2
X69.206 Y29.495
G1 Z19.2 F1200.
Z12.75
Y29.488 Z12.664
Y29.468 Z12.58
Y29.435 Z12.5
X69.207 Y29.39 Z12.427
Y29.334 Z12.361
Y29.268 Z12.305
Y29.195 Z12.26
Y29.115 Z12.227
Y29.031 Z12.207
Y28.945 Z12.2
X69.208 Y28.395 F1000.
G3 X69.759 Y27.846 I0.55 J0.001
G2 X87.292 Y13.054 I0.031 J-17.75 F3600.
Y12.138 I-2.712 J-0.458
X69.821 Y-2.654 I-17.502 J2.958
G1 X14.821 Y-2.75
G2 X-2.712 Y12.042 I-0.031 J17.75
Y12.958 I2.712 J0.458
X14.759 Y27.75 I17.502 J-2.958
G1 X69.759 Y27.846
G3 X70.308 Y28.397 I-0.001 J0.55 F1000.
G1 X70.307 Y28.947
Y29.033 Z12.207
Y29.117 Z12.227
Y29.197 Z12.26
Y29.27 Z12.305
Y29.336 Z12.361
Y29.392 Z12.427
X70.306 Y29.437 Z12.5
Y29.47 Z12.58
Y29.49 Z12.664
Y29.497 Z12.75
G0 Z23.2
X70.307 Y29.18
G1 Z16.2 F1200.
Z9.75
Y29.187 Z9.664
Y29.207 Z9.58
Y29.24 Z9.5
Y29.285 Z9.427
Y29.341 Z9.361
X70.306 Y29.407 Z9.305
Y29.48 Z9.26
Y29.56 Z9.227
Y29.644 Z9.207
Y29.73 Z9.2
X70.305 Y30.28 F1000.
G3 X69.754 Y30.829 I-0.55 J-0.001
G1 X15.139 Y30.734 F3600.
X15.077
G2 X-2.642 Y48.453 I0.031 J17.75
X15.077 Y66.234 I17.75 J0.031
G1 X70.077 Y66.33
G2 X87.858 Y48.611 I0.031 J-17.75
X70.139 Y30.83 I-17.75 J-0.031
G1 X69.754 Y30.829
G3 X69.205 Y30.278 I0.001 J-0.55 F1000.
G1 X69.206 Y29.728
Y29.642 Z9.207
Y29.558 Z9.227
Y29.479 Z9.26
Y29.405 Z9.305
X69.207 Y29.339 Z9.361
Y29.283 Z9.427
Y29.238 Z9.5
Y29.205 Z9.58
Y29.185 Z9.664
Y29.178 Z9.75
G0 Z23.2
X69.206 Y29.495
G1 Z16.2 F1200.
Z9.75
Y29.488 Z9.664
Y29.468 Z9.58
Y29.435 Z9.5
X69.207 Y29.39 Z9.427
Y29.334 Z9.361
Y29.268 Z9.305
Y29.195 Z9.26
Y29.115 Z9.227
Y29.031 Z9.207
Y28.945 Z9.2
X69.208 Y28.395 F1000.
G3 X69.759 Y27.846 I0.55 J0.001
G2 X87.292 Y13.054 I0.031 J-17.75 F3600.
Y12.138 I-2.712 J-0.458
X69.821 Y-2.654 I-17.502 J2.958
G1 X14.821 Y-2.75
G2 X-2.712 Y12.042 I-0.031 J17.75
Y12.958 I2.712 J0.458
X14.759 Y27.75 I17.502 J-2.958
G1 X69.759 Y27.846
G3 X70.308 Y28.397 I-0.001 J0.55 F1000.
G1 X70.307 Y28.947
Y29.033 Z9.207
Y29.117 Z9.227
Y29.197 Z9.26
Y29.27 Z9.305
Y29.336 Z9.361
Y29.392 Z9.427
X70.306 Y29.437 Z9.5
Y29.47 Z9.58
Y29.49 Z9.664
Y29.497 Z9.75
G0 Z23.2
X70.307 Y29.18
G1 Z13.2 F1200.
Z6.75
Y29.187 Z6.664
Y29.207 Z6.58
Y29.24 Z6.5
Y29.285 Z6.427
Y29.341 Z6.361
X70.306 Y29.407 Z6.305
Y29.48 Z6.26
Y29.56 Z6.227
Y29.644 Z6.207
Y29.73 Z6.2
X70.305 Y30.28 F1000.
G3 X69.754 Y30.829 I-0.55 J-0.001
G1 X15.139 Y30.734 F3600.
X15.077
G2 X-2.642 Y48.453 I0.031 J17.75
X15.077 Y66.234 I17.75 J0.031
G1 X70.077 Y66.33
G2 X87.858 Y48.611 I0.031 J-17.75
X70.139 Y30.83 I-17.75 J-0.031
G1 X69.754 Y30.829
G3 X69.205 Y30.278 I0.001 J-0.55 F1000.
G1 X69.206 Y29.728
Y29.642 Z6.207
Y29.558 Z6.227
Y29.479 Z6.26
Y29.405 Z6.305
X69.207 Y29.339 Z6.361
Y29.283 Z6.427
Y29.238 Z6.5
Y29.205 Z6.58
Y29.185 Z6.664
Y29.178 Z6.75
G0 Z23.2
X69.206 Y29.495
G1 Z13.2 F1200.
Z6.75
Y29.488 Z6.664
Y29.468 Z6.58
Y29.435 Z6.5
X69.207 Y29.39 Z6.427
Y29.334 Z6.361
Y29.268 Z6.305
Y29.195 Z6.26
Y29.115 Z6.227
Y29.031 Z6.207
Y28.945 Z6.2
X69.208 Y28.395 F1000.
G3 X69.759 Y27.846 I0.55 J0.001
G2 X87.292 Y13.054 I0.031 J-17.75 F3600.
Y12.138 I-2.712 J-0.458
X69.821 Y-2.654 I-17.502 J2.958
G1 X14.821 Y-2.75
G2 X-2.712 Y12.042 I-0.031 J17.75
Y12.958 I2.712 J0.458
X14.759 Y27.75 I17.502 J-2.958
G1 X69.759 Y27.846
G3 X70.308 Y28.397 I-0.001 J0.55 F1000.
G1 X70.307 Y28.947
Y29.033 Z6.207
Y29.117 Z6.227
Y29.197 Z6.26
Y29.27 Z6.305
Y29.336 Z6.361
Y29.392 Z6.427
X70.306 Y29.437 Z6.5
Y29.47 Z6.58
Y29.49 Z6.664
Y29.497 Z6.75
G0 Z23.2
X70.307 Y29.18
G1 Z10.2 F1200.
Z3.75
Y29.187 Z3.664
Y29.207 Z3.58
Y29.24 Z3.5
Y29.285 Z3.427
Y29.341 Z3.361
X70.306 Y29.407 Z3.305
Y29.48 Z3.26
Y29.56 Z3.227
Y29.644 Z3.207
Y29.73 Z3.2
X70.305 Y30.28 F1000.
G3 X69.754 Y30.829 I-0.55 J-0.001
G1 X15.139 Y30.734 F3600.
X15.077
G2 X-2.642 Y48.453 I0.031 J17.75
X15.077 Y66.234 I17.75 J0.031
G1 X70.077 Y66.33
G2 X87.858 Y48.611 I0.031 J-17.75
X70.139 Y30.83 I-17.75 J-0.031
G1 X69.754 Y30.829
G3 X69.205 Y30.278 I0.001 J-0.55 F1000.
G1 X69.206 Y29.728
Y29.642 Z3.207
Y29.558 Z3.227
Y29.479 Z3.26
Y29.405 Z3.305
X69.207 Y29.339 Z3.361
Y29.283 Z3.427
Y29.238 Z3.5
Y29.205 Z3.58
Y29.185 Z3.664
Y29.178 Z3.75
G0 Z23.2
X69.206 Y29.495
G1 Z10.2 F1200.
Z3.75
Y29.488 Z3.664
Y29.468 Z3.58
Y29.435 Z3.5
X69.207 Y29.39 Z3.427
Y29.334 Z3.361
Y29.268 Z3.305
Y29.195 Z3.26
Y29.115 Z3.227
Y29.031 Z3.207
Y28.945 Z3.2
X69.208 Y28.395 F1000.
G3 X69.759 Y27.846 I0.55 J0.001
G2 X87.292 Y13.054 I0.031 J-17.75 F3600.
Y12.138 I-2.712 J-0.458
X69.821 Y-2.654 I-17.502 J2.958
G1 X14.821 Y-2.75
G2 X-2.712 Y12.042 I-0.031 J17.75
Y12.958 I2.712 J0.458
X14.759 Y27.75 I17.502 J-2.958
G1 X69.759 Y27.846
G3 X70.308 Y28.397 I-0.001 J0.55 F1000.
G1 X70.307 Y28.947
Y29.033 Z3.207
Y29.117 Z3.227
Y29.197 Z3.26
Y29.27 Z3.305
Y29.336 Z3.361
Y29.392 Z3.427
X70.306 Y29.437 Z3.5
Y29.47 Z3.58
Y29.49 Z3.664
Y29.497 Z3.75
G0 Z23.2
X70.307 Y29.18
G1 Z7.2 F1200.
Z2.15
Y29.187 Z2.064
Y29.207 Z1.98
Y29.24 Z1.9
Y29.285 Z1.827
Y29.341 Z1.761
X70.306 Y29.407 Z1.705
Y29.48 Z1.66
Y29.56 Z1.627
Y29.644 Z1.607
Y29.73 Z1.6
X70.305 Y30.28 F1000.
G3 X69.754 Y30.829 I-0.55 J-0.001
G1 X15.139 Y30.734 F3600.
X15.077
G2 X-2.642 Y48.453 I0.031 J17.75
X15.077 Y66.234 I17.75 J0.031
G1 X70.077 Y66.33
G2 X87.858 Y48.611 I0.031 J-17.75
X70.139 Y30.83 I-17.75 J-0.031
G1 X69.754 Y30.829
G3 X69.205 Y30.278 I0.001 J-0.55 F1000.
G1 X69.206 Y29.728
Y29.642 Z1.607
Y29.558 Z1.627
Y29.479 Z1.66
Y29.405 Z1.705
X69.207 Y29.339 Z1.761
Y29.283 Z1.827
Y29.238 Z1.9
Y29.205 Z1.98
Y29.185 Z2.064
Y29.178 Z2.15
G0 Z23.2
X69.206 Y29.495
G1 Z7.2 F1200.
Z2.15
Y29.488 Z2.064
Y29.468 Z1.98
Y29.435 Z1.9
X69.207 Y29.39 Z1.827
Y29.334 Z1.761
Y29.268 Z1.705
Y29.195 Z1.66
Y29.115 Z1.627
Y29.031 Z1.607
Y28.945 Z1.6
X69.208 Y28.395 F1000.
G3 X69.759 Y27.846 I0.55 J0.001
G2 X87.292 Y13.054 I0.031 J-17.75 F3600.
Y12.138 I-2.712 J-0.458
X69.821 Y-2.654 I-17.502 J2.958
G1 X14.821 Y-2.75
G2 X-2.712 Y12.042 I-0.031 J17.75
Y12.958 I2.712 J0.458
X14.759 Y27.75 I17.502 J-2.958
G1 X69.759 Y27.846
G3 X70.308 Y28.397 I-0.001 J0.55 F1000.
G1 X70.307 Y28.947
Y29.033 Z1.607
Y29.117 Z1.627
Y29.197 Z1.66
Y29.27 Z1.705
Y29.336 Z1.761
Y29.392 Z1.827
X70.306 Y29.437 Z1.9
Y29.47 Z1.98
Y29.49 Z2.064
Y29.497 Z2.15
G0 Z23.2
X70.307 Y29.18
G1 Z5.6 F1200.
Z0.55
Y29.187 Z0.464
Y29.207 Z0.38
Y29.24 Z0.3
Y29.285 Z0.227
Y29.341 Z0.161
X70.306 Y29.407 Z0.105
Y29.48 Z0.06
Y29.56 Z0.027
Y29.644 Z0.007
Y29.73 Z0.
X70.305 Y30.28 F1000.
G3 X69.754 Y30.829 I-0.55 J-0.001
G1 X15.139 Y30.734 F3600.
X15.077
G2 X-2.642 Y48.453 I0.031 J17.75
X15.077 Y66.234 I17.75 J0.031
G1 X70.077 Y66.33
G2 X87.858 Y48.611 I0.031 J-17.75
X70.139 Y30.83 I-17.75 J-0.031
G1 X69.754 Y30.829
G3 X69.205 Y30.278 I0.001 J-0.55 F1000.
G1 X69.206 Y29.728
Y29.642 Z0.007
Y29.558 Z0.027
Y29.479 Z0.06
Y29.405 Z0.105
X69.207 Y29.339 Z0.161
Y29.283 Z0.227
Y29.238 Z0.3
Y29.205 Z0.38
Y29.185 Z0.464
Y29.178 Z0.55
G0 Z23.2
X69.206 Y29.495
G1 Z5.6 F1200.
Z0.55
Y29.488 Z0.464
Y29.468 Z0.38
Y29.435 Z0.3
X69.207 Y29.39 Z0.227
Y29.334 Z0.161
Y29.268 Z0.105
Y29.195 Z0.06
Y29.115 Z0.027
Y29.031 Z0.007
Y28.945 Z0.
X69.208 Y28.395 F1000.
G3 X69.759 Y27.846 I0.55 J0.001
G2 X87.292 Y13.054 I0.031 J-17.75 F3600.
Y12.138 I-2.712 J-0.458
X69.821 Y-2.654 I-17.502 J2.958
G1 X14.821 Y-2.75
G2 X-2.712 Y12.042 I-0.031 J17.75
Y12.958 I2.712 J0.458
X14.759 Y27.75 I17.502 J-2.958
G1 X69.759 Y27.846
G3 X70.308 Y28.397 I-0.001 J0.55 F1000.
G1 X70.307 Y28.947
Y29.033 Z0.007
Y29.117 Z0.027
Y29.197 Z0.06
Y29.27 Z0.105
Y29.336 Z0.161
Y29.392 Z0.227
X70.306 Y29.437 Z0.3
Y29.47 Z0.38
Y29.49 Z0.464
Y29.497 Z0.55
G0 Z33.2

(2D CONTOUR4 2)
M5
M9
M1
T162 M6
S12000 M3
G54
M8
G0 X70.3077 Y108.268
Z33.2
Z23.2
G1 Z22.2 F1200.
Z15.75
Y108.2677 Z15.664
Y108.2877 Z15.58
Y108.324 Z15.5
Y108.3650055 Z15.427
Y108.4210051 Z15.361
X70.3066 Y108.4877 Z15.305
Y108.568 Z15.26
Y108.646 Z15.227
Y108.7244 Z15.207
Y108.813 Z15.2
X70.3055 Y109.368 F1000.
G3 X69.7544 Y109.9090049 I-0.55 J-0.001
G1 X15.1399 Y109.8144 F3600.
X15.0777
G2 X-2.6422 Y127.5330053 I0.031 J17.75
X15.0777 Y145.3144 I17.75 J0.031
G1 X70.0777 Y145.413
G2 X87.8588 Y127.6911 I0.031 J-17.75
X70.1399 Y109.913 I-17.75 J-0.031
G1 X69.7544 Y109.9090049
G3 X69.2055 Y109.3588 I0.001 J-0.55 F1000.
G1 X69.2066 Y108.8088
Y108.7222 Z15.207
Y108.6388 Z15.227
Y108.5590069 Z15.26
Y108.4855 Z15.305
X69.2077 Y108.419019 Z15.361
Y108.363013 Z15.427
Y108.3188 Z15.5
Y108.2855 Z15.58
Y108.2655 Z15.664
Y108.2588 Z15.75
G0 Z23.2
X69.2066 Y108.5750055
G1 Z22.2 F1200.
Z15.75
Y108.5688 Z15.664
Y108.5480048 Z15.58
Y108.5155 Z15.5
X69.2077 Y108.479 Z15.427
Y108.4144 Z15.361
Y108.3488 Z15.305
Y108.2755 Z15.26
Y108.1955 Z15.227
Y108.1111 Z15.207
Y108.0255 Z15.2
X69.2088 Y107.4750065 F1000.
G3 X69.7599 Y106.9266 I0.55 J0.001
G2 X87.2922 Y92.1344 I0.031 J-17.75 F3600.
Y91.2188 I-2.712 J-0.458
X69.8211 Y76.4264 I-17.502 J2.958
G1 X14.8211 Y76.335
G2 X-2.7122 Y91.1222 I-0.031 J17.75
Y92.0388 I2.712 J0.458
X14.7599 Y106.835 I17.502 J-2.958
G1 X69.7599 Y106.9266
G3 X70.3088 Y107.4770057 I-0.001 J0.55 F1000.
G1 X70.3077 Y108.0277
Y108.113013 Z15.207
Y108.197017 Z15.227
Y108.2777 Z15.26
Y108.3500067 Z15.305
Y108.4166 Z15.361
Y108.4722 Z15.427
X70.3066 Y108.5177 Z15.5
Y108.557 Z15.58
Y108.579 Z15.664
Y108.5777 Z15.75
G0 Z23.2
X70.3077 Y108.268
G1 Z19.2 F1200.
Z12.75
Y108.2677 Z12.664
Y108.2877 Z12.58
Y108.324 Z12.5
Y108.3650055 Z12.427
Y108.4210051 Z12.361
X70.3066 Y108.4877 Z12.305
Y108.568 Z12.26
Y108.646 Z12.227
Y108.7244 Z12.207
Y108.813 Z12.2
X70.3055 Y109.368 F1000.
G3 X69.7544 Y109.9090049 I-0.55 J-0.001
G1 X15.1399 Y109.8144 F3600.
X15.0777
G2 X-2.6422 Y127.5330053 I0.031 J17.75
X15.0777 Y145.3144 I17.75 J0.031
G1 X70.0777 Y145.413
G2 X87.8588 Y127.6911 I0.031 J-17.75
X70.1399 Y109.913 I-17.75 J-0.031
G1 X69.7544 Y109.9090049
G3 X69.2055 Y109.3588 I0.001 J-0.55 F1000.
G1 X69.2066 Y108.8088
Y108.7222 Z12.207
Y108.6388 Z12.227
Y108.5590069 Z12.26
Y108.4855 Z12.305
X69.2077 Y108.419019 Z12.361
Y108.363013 Z12.427
Y108.3188 Z12.5
Y108.2855 Z12.58
Y108.2655 Z12.664
Y108.2588 Z12.75
G0 Z23.2
X69.2066 Y108.5750055
G1 Z19.2 F1200.
Z12.75
Y108.5688 Z12.664
Y108.5480048 Z12.58
Y108.5155 Z12.5
X69.2077 Y108.479 Z12.427
Y108.4144 Z12.361
Y108.3488 Z12.305
Y108.2755 Z12.26
Y108.1955 Z12.227
Y108.1111 Z12.207
Y108.0255 Z12.2
X69.2088 Y107.4750065 F1000.
G3 X69.7599 Y106.9266 I0.55 J0.001
G2 X87.2922 Y92.1344 I0.031 J-17.75 F3600.
Y91.2188 I-2.712 J-0.458
X69.8211 Y76.4264 I-17.502 J2.958
G1 X14.8211 Y76.335
G2 X-2.7122 Y91.1222 I-0.031 J17.75
Y92.0388 I2.712 J0.458
X14.7599 Y106.835 I17.502 J-2.958
G1 X69.7599 Y106.9266
G3 X70.3088 Y107.4770057 I-0.001 J0.55 F1000.
G1 X70.3077 Y108.0277
Y108.113013 Z12.207
Y108.197017 Z12.227
Y108.2777 Z12.26
Y108.3500067 Z12.305
Y108.4166 Z12.361
Y108.4722 Z12.427
X70.3066 Y108.5177 Z12.5
Y108.557 Z12.58
Y108.579 Z12.664
Y108.5777 Z12.75
G0 Z23.2
X70.3077 Y108.268
G1 Z16.2 F1200.
Z9.75
Y108.2677 Z9.664
Y108.2877 Z9.58
Y108.324 Z9.5
Y108.3650055 Z9.427
Y108.4210051 Z9.361
X70.3066 Y108.4877 Z9.305
Y108.568 Z9.26
Y108.646 Z9.227
Y108.7244 Z9.207
Y108.813 Z9.2
X70.3055 Y109.368 F1000.
G3 X69.7544 Y109.9090049 I-0.55 J-0.001
G1 X15.1399 Y109.8144 F3600.
X15.0777
G2 X-2.6422 Y127.5330053 I0.031 J17.75
X15.0777 Y145.3144 I17.75 J0.031
G1 X70.0777 Y145.413
G2 X87.8588 Y127.6911 I0.031 J-17.75
X70.1399 Y109.913 I-17.75 J-0.031
G1 X69.7544 Y109.9090049
G3 X69.2055 Y109.3588 I0.001 J-0.55 F1000.
G1 X69.2066 Y108.8088
Y108.7222 Z9.207
Y108.6388 Z9.227
Y108.5590069 Z9.26
Y108.4855 Z9.305
X69.2077 Y108.419019 Z9.361
Y108.363013 Z9.427
Y108.3188 Z9.5
Y108.2855 Z9.58
Y108.2655 Z9.664
Y108.2588 Z9.75
G0 Z23.2
X69.2066 Y108.5750055
G1 Z16.2 F1200.
Z9.75
Y108.5688 Z9.664
Y108.5480048 Z9.58
Y108.5155 Z9.5
X69.2077 Y108.479 Z9.427
Y108.4144 Z9.361
Y108.3488 Z9.305
Y108.2755 Z9.26
Y108.1955 Z9.227
Y108.1111 Z9.207
Y108.0255 Z9.2
X69.2088 Y107.4750065 F1000.
G3 X69.7599 Y106.9266 I0.55 J0.001
G2 X87.2922 Y92.1344 I0.031 J-17.75 F3600.
Y91.2188 I-2.712 J-0.458
X69.8211 Y76.4264 I-17.502 J2.958
G1 X14.8211 Y76.335
G2 X-2.7122 Y91.1222 I-0.031 J17.75
Y92.0388 I2.712 J0.458
X14.7599 Y106.835 I17.502 J-2.958
G1 X69.7599 Y106.9266
G3 X70.3088 Y107.4770057 I-0.001 J0.55 F1000.
G1 X70.3077 Y108.0277
Y108.113013 Z9.207
Y108.197017 Z9.227
Y108.2777 Z9.26
Y108.3500067 Z9.305
Y108.4166 Z9.361
Y108.4722 Z9.427
X70.3066 Y108.5177 Z9.5
Y108.557 Z9.58
Y108.579 Z9.664
Y108.5777 Z9.75
G0 Z23.2
X70.3077 Y108.268
G1 Z13.2 F1200.
Z6.75
Y108.2677 Z6.664
Y108.2877 Z6.58
Y108.324 Z6.5
Y108.3650055 Z6.427
Y108.4210051 Z6.361
X70.3066 Y108.4877 Z6.305
Y108.568 Z6.26
Y108.646 Z6.227
Y108.7244 Z6.207
Y108.813 Z6.2
X70.3055 Y109.368 F1000.
G3 X69.7544 Y109.9090049 I-0.55 J-0.001
G1 X15.1399 Y109.8144 F3600.
X15.0777
G2 X-2.6422 Y127.5330053 I0.031 J17.75
X15.0777 Y145.3144 I17.75 J0.031
G1 X70.0777 Y145.413
G2 X87.8588 Y127.6911 I0.031 J-17.75
X70.1399 Y109.913 I-17.75 J-0.031
G1 X69.7544 Y109.9090049
G3 X69.2055 Y109.3588 I0.001 J-0.55 F1000.
G1 X69.2066 Y108.8088
Y108.7222 Z6.207
Y108.6388 Z6.227
Y108.5590069 Z6.26
Y108.4855 Z6.305
X69.2077 Y108.419019 Z6.361
Y108.363013 Z6.427
Y108.3188 Z6.5
Y108.2855 Z6.58
Y108.2655 Z6.664
Y108.2588 Z6.75
G0 Z23.2
X69.2066 Y108.5750055
G1 Z13.2 F1200.
Z6.75
Y108.5688 Z6.664
Y108.5480048 Z6.58
Y108.5155 Z6.5
X69.2077 Y108.479 Z6.427
Y108.4144 Z6.361
Y108.3488 Z6.305
Y108.2755 Z6.26
Y108.1955 Z6.227
Y108.1111 Z6.207
Y108.0255 Z6.2
X69.2088 Y107.4750065 F1000.
G3 X69.7599 Y106.9266 I0.55 J0.001
G2 X87.2922 Y92.1344 I0.031 J-17.75 F3600.
Y91.2188 I-2.712 J-0.458
X69.8211 Y76.4264 I-17.502 J2.958
G1 X14.8211 Y76.335
G2 X-2.7122 Y91.1222 I-0.031 J17.75
Y92.0388 I2.712 J0.458
X14.7599 Y106.835 I17.502 J-2.958
G1 X69.7599 Y106.9266
G3 X70.3088 Y107.4770057 I-0.001 J0.55 F1000.
G1 X70.3077 Y108.0277
Y108.113013 Z6.207
Y108.197017 Z6.227
Y108.2777 Z6.26
Y108.3500067 Z6.305
Y108.4166 Z6.361
Y108.4722 Z6.427
X70.3066 Y108.5177 Z6.5
Y108.557 Z6.58
Y108.579 Z6.664
Y108.5777 Z6.75
G0 Z23.2
X70.3077 Y108.268
G1 Z10.2 F1200.
Z3.75
Y108.2677 Z3.664
Y108.2877 Z3.58
Y108.324 Z3.5
Y108.3650055 Z3.427
Y108.4210051 Z3.361
X70.3066 Y108.4877 Z3.305
Y108.568 Z3.26
Y108.646 Z3.227
Y108.7244 Z3.207
Y108.813 Z3.2
X70.3055 Y109.368 F1000.
G3 X69.7544 Y109.9090049 I-0.55 J-0.001
G1 X15.1399 Y109.8144 F3600.
X15.0777
G2 X-2.6422 Y127.5330053 I0.031 J17.75
X15.0777 Y145.3144 I17.75 J0.031
G1 X70.0777 Y145.413
G2 X87.8588 Y127.6911 I0.031 J-17.75
X70.1399 Y109.913 I-17.75 J-0.031
G1 X69.7544 Y109.9090049
G3 X69.2055 Y109.3588 I0.001 J-0.55 F1000.
G1 X69.2066 Y108.8088
Y108.7222 Z3.207
Y108.6388 Z3.227
Y108.5590069 Z3.26
Y108.4855 Z3.305
X69.2077 Y108.419019 Z3.361
Y108.363013 Z3.427
Y108.3188 Z3.5
Y108.2855 Z3.58
Y108.2655 Z3.664
Y108.2588 Z3.75
G0 Z23.2
X69.2066 Y108.5750055
G1 Z10.2 F1200.
Z3.75
Y108.5688 Z3.664
Y108.5480048 Z3.58
Y108.5155 Z3.5
X69.2077 Y108.479 Z3.427
Y108.4144 Z3.361
Y108.3488 Z3.305
Y108.2755 Z3.26
Y108.1955 Z3.227
Y108.1111 Z3.207
Y108.0255 Z3.2
X69.2088 Y107.4750065 F1000.
G3 X69.7599 Y106.9266 I0.55 J0.001
G2 X87.2922 Y92.1344 I0.031 J-17.75 F3600.
Y91.2188 I-2.712 J-0.458
X69.8211 Y76.4264 I-17.502 J2.958
G1 X14.8211 Y76.335
G2 X-2.7122 Y91.1222 I-0.031 J17.75
Y92.0388 I2.712 J0.458
X14.7599 Y106.835 I17.502 J-2.958
G1 X69.7599 Y106.9266
G3 X70.3088 Y107.4770057 I-0.001 J0.55 F1000.
G1 X70.3077 Y108.0277
Y108.113013 Z3.207
Y108.197017 Z3.227
Y108.2777 Z3.26
Y108.3500067 Z3.305
Y108.4166 Z3.361
Y108.4722 Z3.427
X70.3066 Y108.5177 Z3.5
Y108.557 Z3.58
Y108.579 Z3.664
Y108.5777 Z3.75
G0 Z23.2
X70.3077 Y108.268
G1 Z7.2 F1200.
Z2.15
Y108.2677 Z2.064
Y108.2877 Z1.98
Y108.324 Z1.9
Y108.3650055 Z1.827
Y108.4210051 Z1.761
X70.3066 Y108.4877 Z1.705
Y108.568 Z1.66
Y108.646 Z1.627
Y108.7244 Z1.607
Y108.813 Z1.6
X70.3055 Y109.368 F1000.
G3 X69.7544 Y109.9090049 I-0.55 J-0.001
G1 X15.1399 Y109.8144 F3600.
X15.0777
G2 X-2.6422 Y127.5330053 I0.031 J17.75
X15.0777 Y145.3144 I17.75 J0.031
G1 X70.0777 Y145.413
G2 X87.8588 Y127.6911 I0.031 J-17.75
X70.1399 Y109.913 I-17.75 J-0.031
G1 X69.7544 Y109.9090049
G3 X69.2055 Y109.3588 I0.001 J-0.55 F1000.
G1 X69.2066 Y108.8088
Y108.7222 Z1.607
Y108.6388 Z1.627
Y108.5590069 Z1.66
Y108.4855 Z1.705
X69.2077 Y108.419019 Z1.761
Y108.363013 Z1.827
Y108.3188 Z1.9
Y108.2855 Z1.98
Y108.2655 Z2.064
Y108.2588 Z2.15
G0 Z23.2
X69.2066 Y108.5750055
G1 Z7.2 F1200.
Z2.15
Y108.5688 Z2.064
Y108.5480048 Z1.98
Y108.5155 Z1.9
X69.2077 Y108.479 Z1.827
Y108.4144 Z1.761
Y108.3488 Z1.705
Y108.2755 Z1.66
Y108.1955 Z1.627
Y108.1111 Z1.607
Y108.0255 Z1.6
X69.2088 Y107.4750065 F1000.
G3 X69.7599 Y106.9266 I0.55 J0.001
G2 X87.2922 Y92.1344 I0.031 J-17.75 F3600.
Y91.2188 I-2.712 J-0.458
X69.8211 Y76.4264 I-17.502 J2.958
G1 X14.8211 Y76.335
G2 X-2.7122 Y91.1222 I-0.031 J17.75
Y92.0388 I2.712 J0.458
X14.7599 Y106.835 I17.502 J-2.958
G1 X69.7599 Y106.9266
G3 X70.3088 Y107.4770057 I-0.001 J0.55 F1000.
G1 X70.3077 Y108.0277
Y108.113013 Z1.607
Y108.197017 Z1.627
Y108.2777 Z1.66
Y108.3500067 Z1.705
Y108.4166 Z1.761
Y108.4722 Z1.827
X70.3066 Y108.5177 Z1.9
Y108.557 Z1.98
Y108.579 Z2.064
Y108.5777 Z2.15
G0 Z23.2
X70.3077 Y108.268
G1 Z5.6 F1200.
Z0.55
Y108.2677 Z0.464
Y108.2877 Z0.38
Y108.324 Z0.3
Y108.3650055 Z0.227
Y108.4210051 Z0.161
X70.3066 Y108.4877 Z0.105
Y108.568 Z0.06
Y108.646 Z0.027
Y108.7244 Z0.007
Y108.813 Z0.
X70.3055 Y109.368 F1000.
G3 X69.7544 Y109.9090049 I-0.55 J-0.001
G1 X15.1399 Y109.8144 F3600.
X15.0777
G2 X-2.6422 Y127.5330053 I0.031 J17.75
X15.0777 Y145.3144 I17.75 J0.031
G1 X70.0777 Y145.413
G2 X87.8588 Y127.6911 I0.031 J-17.75
X70.1399 Y109.913 I-17.75 J-0.031
G1 X69.7544 Y109.9090049
G3 X69.2055 Y109.3588 I0.001 J-0.55 F1000.
G1 X69.2066 Y108.8088
Y108.7222 Z0.007
Y108.6388 Z0.027
Y108.5590069 Z0.06
Y108.4855 Z0.105
X69.2077 Y108.419019 Z0.161
Y108.363013 Z0.227
Y108.3188 Z0.3
Y108.2855 Z0.38
Y108.2655 Z0.464
Y108.2588 Z0.55
G0 Z23.2
X69.2066 Y108.5750055
G1 Z5.6 F1200.
Z0.55
Y108.5688 Z0.464
Y108.5480048 Z0.38
Y108.5155 Z0.3
X69.2077 Y108.479 Z0.227
Y108.4144 Z0.161
Y108.3488 Z0.105
Y108.2755 Z0.06
Y108.1955 Z0.027
Y108.1111 Z0.007
Y108.0255 Z0.
X69.2088 Y107.4750065 F1000.
G3 X69.7599 Y106.9266 I0.55 J0.001
G2 X87.2922 Y92.1344 I0.031 J-17.75 F3600.
Y91.2188 I-2.712 J-0.458
X69.8211 Y76.4264 I-17.502 J2.958
G1 X14.8211 Y76.335
G2 X-2.7122 Y91.1222 I-0.031 J17.75
Y92.0388 I2.712 J0.458
X14.7599 Y106.835 I17.502 J-2.958
G1 X69.7599 Y106.9266
G3 X70.3088 Y107.4770057 I-0.001 J0.55 F1000.
G1 X70.3077 Y108.0277
Y108.113013 Z0.007
Y108.197017 Z0.027
Y108.2777 Z0.06
Y108.3500067 Z0.105
Y108.4166 Z0.161
Y108.472

(2D CONTOUR4 2)
M5
M9
M1
T162 M6
S12000 M3
G54
M8
G0 X170.8777 Y29.188
Z33.2
Z23.2
G1 Z22.2 F1200.
Z15.75
Y29.1877 Z15.664
Y29.2077 Z15.58
Y29.244 Z15.5
Y29.2855 Z15.427
Y29.3411 Z15.361
X170.8766 Y29.4077 Z15.305
Y29.488 Z15.26
Y29.566 Z15.227
Y29.6444 Z15.207
Y29.733 Z15.2
X170.8755 Y30.288 F1000.
G3 X170.3244 Y30.8299 I-0.55 J-0.001
G1 X115.7099 Y30.7344 F3600.
X115.6477
G2 X97.9282 Y48.4533 I0.031 J17.75
X115.6477 Y66.2344 I17.75 J0.031
G1 X170.6477 Y66.333
G2 X188.428018 Y48.6111 I0.031 J-17.75
X170.7099 Y30.833 I-17.75 J-0.031
G1 X170.3244 Y30.8299
G3 X169.7755 Y30.2788 I0.001 J-0.55 F1000.
G1 X169.7766 Y29.7288
Y29.6422 Z15.207
Y29.5588 Z15.227
Y29.4799 Z15.26
Y29.4055 Z15.305
X169.777017 Y29.3399 Z15.361
Y29.2833 Z15.427
Y29.2388 Z15.5
Y29.2055 Z15.58
Y29.1855 Z15.664
Y29.1788 Z15.75
G0 Z23.2
X169.7766 Y29.4955
G1 Z22.2 F1200.
Z15.75
Y29.4888 Z15.664
Y29.4688 Z15.58
Y29.4355 Z15.5
X169.777017 Y29.399 Z15.427
Y29.3344 Z15.361
Y29.2688 Z15.305
Y29.1955 Z15.26
Y29.1155 Z15.227
Y29.0311 Z15.207
Y28.9455 Z15.2
X169.7788 Y28.3955 F1000.
G3 X170.329019 Y27.8466 I0.55 J0.001
G2 X187.8622 Y13.0544 I0.031 J-17.75 F3600.
Y12.1388 I-2.712 J-0.458
X170.390991 Y-2.6544 I-17.502 J2.958
G1 X115.3911 Y-2.755
G2 X97.8582 Y12.0422 I-0.031 J17.75
Y12.9588 I2.712 J0.458
X115.3299 Y27.755 I17.502 J-2.958
G1 X170.329019 Y27.8466
G3 X170.877998 Y28.3977 I-0.001 J0.55 F1000.
G1 X170.8777 Y28.9477
Y29.0333 Z15.207
Y29.1177 Z15.227
Y29.1977 Z15.26
Y29.277 Z15.305
Y29.3366 Z15.361
Y29.3922 Z15.427
X170.8766 Y29.4377 Z15.5
Y29.477 Z15.58
Y29.499 Z15.664
Y29.4977 Z15.75
G0 Z23.2
X170.8777 Y29.188
G1 Z19.2 F1200.
Z12.75
Y29.1877 Z12.664
Y29.2077 Z12.58
Y29.244 Z12.5
Y29.2855 Z12.427
Y29.3411 Z12.361
X170.8766 Y29.4077 Z12.305
Y29.488 Z12.26
Y29.566 Z12.227
Y29.6444 Z12.207
Y29.733 Z12.2
X170.8755 Y30.288 F1000.
G3 X170.3244 Y30.8299 I-0.55 J-0.001
G1 X115.7099 Y30.7344 F3600.
X115.6477
G2 X97.9282 Y48.4533 I0.031 J17.75
X115.6477 Y66.2344 I17.75 J0.031
G1 X170.6477 Y66.333
G2 X188.428018 Y48.6111 I0.031 J-17.75
X170.7099 Y30.833 I-17.75 J-0.031
G1 X170.3244 Y30.8299
G3 X169.7755 Y30.2788 I0.001 J-0.55 F1000.
G1 X169.7766 Y29.7288
Y29.6422 Z12.207
Y29.5588 Z12.227
Y29.4799 Z12.26
Y29.4055 Z12.305
X169.777017 Y29.3399 Z12.361
Y29.2833 Z12.427
Y29.2388 Z12.5
Y29.2055 Z12.58
Y29.1855 Z12.664
Y29.1788 Z12.75
G0 Z23.2
X169.7766 Y29.4955
G1 Z19.2 F1200.
Z12.75
Y29.4888 Z12.664
Y29.4688 Z12.58
Y29.4355 Z12.5
X169.777017 Y29.399 Z12.427
Y29.3344 Z12.361
Y29.2688 Z12.305
Y29.1955 Z12.26
Y29.1155 Z12.227
Y29.0311 Z12.207
Y28.9455 Z12.2
X169.7788 Y28.3955 F1000.
G3 X170.329019 Y27.8466 I0.55 J0.001
G2 X187.8622 Y13.0544 I0.031 J-17.75 F3600.
Y12.1388 I-2.712 J-0.458
X170.390991 Y-2.6544 I-17.502 J2.958
G1 X115.3911 Y-2.755
G2 X97.8582 Y12.0422 I-0.031 J17.75
Y12.9588 I2.712 J0.458
X115.3299 Y27.755 I17.502 J-2.958
G1 X170.329019 Y27.8466
G3 X170.877998 Y28.3977 I-0.001 J0.55 F1000.
G1 X170.8777 Y28.9477
Y29.0333 Z12.207
Y29.1177 Z12.227
Y29.1977 Z12.26
Y29.277 Z12.305
Y29.3366 Z12.361
Y29.3922 Z12.427
X170.8766 Y29.4377 Z12.5
Y29.477 Z12.58
Y29.499 Z12.664
Y29.4977 Z12.75
G0 Z23.2
X170.8777 Y29.188
G1 Z16.2 F1200.
Z9.75
Y29.1877 Z9.664
Y29.2077 Z9.58
Y29.244 Z9.5
Y29.2855 Z9.427
Y29.3411 Z9.361
X170.8766 Y29.4077 Z9.305
Y29.488 Z9.26
Y29.566 Z9.227
Y29.6444 Z9.207
Y29.733 Z9.2
X170.8755 Y30.288 F1000.
G3 X170.3244 Y30.8299 I-0.55 J-0.001
G1 X115.7099 Y30.7344 F3600.
X115.6477
G2 X97.9282 Y48.4533 I0.031 J17.75
X115.6477 Y66.2344 I17.75 J0.031
G1 X170.6477 Y66.333
G2 X188.428018 Y48.6111 I0.031 J-17.75
X170.7099 Y30.833 I-17.75 J-0.031
G1 X170.3244 Y30.8299
G3 X169.7755 Y30.2788 I0.001 J-0.55 F1000.
G1 X169.7766 Y29.7288
Y29.6422 Z9.207
Y29.5588 Z9.227
Y29.4799 Z9.26
Y29.4055 Z9.305
X169.777017 Y29.3399 Z9.361
Y29.2833 Z9.427
Y29.2388 Z9.5
Y29.2055 Z9.58
Y29.1855 Z9.664
Y29.1788 Z9.75
G0 Z23.2
X169.7766 Y29.4955
G1 Z16.2 F1200.
Z9.75
Y29.4888 Z9.664
Y29.4688 Z9.58
Y29.4355 Z9.5
X169.777017 Y29.399 Z9.427
Y29.3344 Z9.361
Y29.2688 Z9.305
Y29.1955 Z9.26
Y29.1155 Z9.227
Y29.0311 Z9.207
Y28.9455 Z9.2
X169.7788 Y28.3955 F1000.
G3 X170.329019 Y27.8466 I0.55 J0.001
G2 X187.8622 Y13.0544 I0.031 J-17.75 F3600.
Y12.1388 I-2.712 J-0.458
X170.390991 Y-2.6544 I-17.502 J2.958
G1 X115.3911 Y-2.755
G2 X97.8582 Y12.0422 I-0.031 J17.75
Y12.9588 I2.712 J0.458
X115.3299 Y27.755 I17.502 J-2.958
G1 X170.329019 Y27.8466
G3 X170.877998 Y28.3977 I-0.001 J0.55 F1000.
G1 X170.8777 Y28.9477
Y29.0333 Z9.207
Y29.1177 Z9.227
Y29.1977 Z9.26
Y29.277 Z9.305
Y29.3366 Z9.361
Y29.3922 Z9.427
X170.8766 Y29.4377 Z9.5
Y29.477 Z9.58
Y29.499 Z9.664
Y29.4977 Z9.75
G0 Z23.2
X170.8777 Y29.188
G1 Z13.2 F1200.
Z6.75
Y29.1877 Z6.664
Y29.2077 Z6.58
Y29.244 Z6.5
Y29.2855 Z6.427
Y29.3411 Z6.361
X170.8766 Y29.4077 Z6.305
Y29.488 Z6.26
Y29.566 Z6.227
Y29.6444 Z6.207
Y29.733 Z6.2
X170.8755 Y30.288 F1000.
G3 X170.3244 Y30.8299 I-0.55 J-0.001
G1 X115.7099 Y30.7344 F3600.
X115.6477
G2 X97.9282 Y48.4533 I0.031 J17.75
X115.6477 Y66.2344 I17.75 J0.031
G1 X170.6477 Y66.333
G2 X188.428018 Y48.6111 I0.031 J-17.75
X170.7099 Y30.833 I-17.75 J-0.031
G1 X170.3244 Y30.8299
G3 X169.7755 Y30.2788 I0.001 J-0.55 F1000.
G1 X169.7766 Y29.7288
Y29.6422 Z6.207
Y29.5588 Z6.227
Y29.4799 Z6.26
Y29.4055 Z6.305
X169.777017 Y29.3399 Z6.361
Y29.2833 Z6.427
Y29.2388 Z6.5
Y29.2055 Z6.58
Y29.1855 Z6.664
Y29.1788 Z6.75
G0 Z23.2
X169.7766 Y29.4955
G1 Z13.2 F1200.
Z6.75
Y29.4888 Z6.664
Y29.4688 Z6.58
Y29.4355 Z6.5
X169.777017 Y29.399 Z6.427
Y29.3344 Z6.361
Y29.2688 Z6.305
Y29.1955 Z6.26
Y29.1155 Z6.227
Y29.0311 Z6.207
Y28.9455 Z6.2
X169.7788 Y28.3955 F1000.
G3 X170.329019 Y27.8466 I0.55 J0.001
G2 X187.8622 Y13.0544 I0.031 J-17.75 F3600.
Y12.1388 I-2.712 J-0.458
X170.390991 Y-2.6544 I-17.502 J2.958
G1 X115.3911 Y-2.755
G2 X97.8582 Y12.0422 I-0.031 J17.75
Y12.9588 I2.712 J0.458
X115.3299 Y27.755 I17.502 J-2.958
G1 X170.329019 Y27.8466
G3 X170.877998 Y28.3977 I-0.001 J0.55 F1000.
G1 X170.8777 Y28.9477
Y29.0333 Z6.207
Y29.1177 Z6.227
Y29.1977 Z6.26
Y29.277 Z6.305
Y29.3366 Z6.361
Y29.3922 Z6.427
X170.8766 Y29.4377 Z6.5
Y29.477 Z6.58
Y29.499 Z6.664
Y29.4977 Z6.75
G0 Z23.2
X170.8777 Y29.188
G1 Z10.2 F1200.
Z3.75
Y29.1877 Z3.664
Y29.2077 Z3.58
Y29.244 Z3.5
Y29.2855 Z3.427
Y29.3411 Z3.361
X170.8766 Y29.4077 Z3.305
Y29.488 Z3.26
Y29.566 Z3.227
Y29.6444 Z3.207
Y29.733 Z3.2
X170.8755 Y30.288 F1000.
G3 X170.3244 Y30.8299 I-0.55 J-0.001
G1 X115.7099 Y30.7344 F3600.
X115.6477
G2 X97.9282 Y48.4533 I0.031 J17.75
X115.6477 Y66.2344 I17.75 J0.031
G1 X170.6477 Y66.333
G2 X188.428018 Y48.6111 I0.031 J-17.75
X170.7099 Y30.833 I-17.75 J-0.031
G1 X170.3244 Y30.8299
G3 X169.7755 Y30.2788 I0.001 J-0.55 F1000.
G1 X169.7766 Y29.7288
Y29.6422 Z3.207
Y29.5588 Z3.227
Y29.4799 Z3.26
Y29.4055 Z3.305
X169.777017 Y29.3399 Z3.361
Y29.2833 Z3.427
Y29.2388 Z3.5
Y29.2055 Z3.58
Y29.1855 Z3.664
Y29.1788 Z3.75
G0 Z23.2
X169.7766 Y29.4955
G1 Z10.2 F1200.
Z3.75
Y29.4888 Z3.664
Y29.4688 Z3.58
Y29.4355 Z3.5
X169.777017 Y29.399 Z3.427
Y29.3344 Z3.361
Y29.2688 Z3.305
Y29.1955 Z3.26
Y29.1155 Z3.227
Y29.0311 Z3.207
Y28.9455 Z3.2
X169.7788 Y28.3955 F1000.
G3 X170.329019 Y27.8466 I0.55 J0.001
G2 X187.8622 Y13.0544 I0.031 J-17.75 F3600.
Y12.1388 I-2.712 J-0.458
X170.390991 Y-2.6544 I-17.502 J2.958
G1 X115.3911 Y-2.755
G2 X97.8582 Y12.0422 I-0.031 J17.75
Y12.9588 I2.712 J0.458
X115.3299 Y27.755 I17.502 J-2.958
G1 X170.329019 Y27.8466
G3 X170.877998 Y28.3977 I-0.001 J0.55 F1000.
G1 X170.8777 Y28.9477
Y29.0333 Z3.207
Y29.1177 Z3.227
Y29.1977 Z3.26
Y29.277 Z3.305
Y29.3366 Z3.361
Y29.3922 Z3.427
X170.8766 Y29.4377 Z3.5
Y29.477 Z3.58
Y29.499 Z3.664
Y29.4977 Z3.75
G0 Z23.2
X170.8777 Y29.188
G1 Z7.2 F1200.
Z2.15
Y29.1877 Z2.064
Y29.2077 Z1.98
Y29.244 Z1.9
Y29.2855 Z1.827
Y29.3411 Z1.761
X170.8766 Y29.4077 Z1.705
Y29.488 Z1.66
Y29.566 Z1.627
Y29.6444 Z1.607
Y29.733 Z1.6
X170.8755 Y30.288 F1000.
G3 X170.3244 Y30.8299 I-0.55 J-0.001
G1 X115.7099 Y30.7344 F3600.
X115.6477
G2 X97.9282 Y48.4533 I0.031 J17.75
X115.6477 Y66.2344 I17.75 J0.031
G1 X170.6477 Y66.333
G2 X188.428018 Y48.6111 I0.031 J-17.75
X170.7099 Y30.833 I-17.75 J-0.031
G1 X170.3244 Y30.8299
G3 X169.7755 Y30.2788 I0.001 J-0.55 F1000.
G1 X169.7766 Y29.7288
Y29.6422 Z1.607
Y29.5588 Z1.627
Y29.4799 Z1.66
Y29.4055 Z1.705
X169.777017 Y29.3399 Z1.761
Y29.2833 Z1.827
Y29.2388 Z1.9
Y29.2055 Z1.98
Y29.1855 Z2.064
Y29.1788 Z2.15
G0 Z23.2
X169.7766 Y29.4955
G1 Z7.2 F1200.
Z2.15
Y29.4888 Z2.064
Y29.4688 Z1.98
Y29.4355 Z1.9
X169.777017 Y29.399 Z1.827
Y29.3344 Z1.761
Y29.2688 Z1.705
Y29.1955 Z1.66
Y29.1155 Z1.627
Y29.0311 Z1.607
Y28.9455 Z1.6
X169.7788 Y28.3955 F1000.
G3 X170.329019 Y27.8466 I0.55 J0.001
G2 X187.8622 Y13.0544 I0.031 J-17.75 F3600.
Y12.1388 I-2.712 J-0.458
X170.390991 Y-2.6544 I-17.502 J2.958
G1 X115.3911 Y-2.755
G2 X97.8582 Y12.0422 I-0.031 J17.75
Y12.9588 I2.712 J0.458
X115.3299 Y27.755 I17.502 J-2.958
G1 X170.329019 Y27.8466
G3 X170.877998 Y28.3977 I-0.001 J0.55 F1000.
G1 X170.8777 Y28.9477
Y29.0333 Z1.607
Y29.1177 Z1.627
Y29.1977 Z1.66
Y29.277 Z1.705
Y29.3366 Z1.761
Y29.3922 Z1.827
X170.8766 Y29.4377 Z1.9
Y29.477 Z1.98
Y29.499 Z2.064
Y29.4977 Z2.15
G0 Z23.2
X170.8777 Y29.188
G1 Z5.6 F1200.
Z0.55
Y29.1877 Z0.464
Y29.2077 Z0.38
Y29.244 Z0.3
Y29.2855 Z0.227
Y29.3411 Z0.161
X170.8766 Y29.4077 Z0.105
Y29.488 Z0.06
Y29.566 Z0.027
Y29.6444 Z0.007
Y29.733 Z0.
X170.8755 Y30.288 F1000.
G3 X170.3244 Y30.8299 I-0.55 J-0.001
G1 X115.7099 Y30.7344 F3600.
X115.6477
G2 X97.9282 Y48.4533 I0.031 J17.75
X115.6477 Y66.2344 I17.75 J0.031
G1 X170.6477 Y66.333
G2 X188.428018 Y48.6111 I0.031 J-17.75
X170.7099 Y30.833 I-17.75 J-0.031
G1 X170.3244 Y30.8299
G3 X169.7755 Y30.2788 I0.001 J-0.55 F1000.
G1 X169.7766 Y29.7288
Y29.6422 Z0.007
Y29.5588 Z0.027
Y29.4799 Z0.06
Y29.4055 Z0.105
X169.777017 Y29.3399 Z0.161
Y29.2833 Z0.227
Y29.2388 Z0.3
Y29.2055 Z0.38
Y29.1855 Z0.464
Y29.1788 Z0.55
G0 Z23.2
X169.7766 Y29.4955
G1 Z5.6 F1200.
Z0.55
Y29.4888 Z0.464
Y29.4688 Z0.38
Y29.4355 Z0.3
X169.777017 Y29.399 Z0.227
Y29.3344 Z0.161
Y29.2688 Z0.105
Y29.1955 Z0.06
Y29.1155 Z0.027
Y29.0311 Z0.007
Y28.9455 Z0.
X169.7788 Y28.3955 F1000.
G3 X170.329019 Y27.8466 I0.55 J0.001
G2 X187.8622 Y13.0544 I0.031 J-17.75 F3600.
Y12.1388 I-2.712 J-0.458
X170.390991 Y-2.6544 I-17.502 J2.958
G1 X115.3911 Y-2.755
G2 X97.8582 Y12.0422 I-0.031 J17.75
Y12.9588 I2.712 J0.458
X115.3299 Y27.755 I17.502 J-2.958
G1 X170.329019 Y27.8466
G3 X170.877998 Y28.3977 I-0.001 J0.55 F1000.
G1 X170.8777 Y28.9477
Y29.0333 Z0.007
Y29.1177 Z0.027
Y29.1977 Z0.06
Y29.277 Z0.105
Y29.3366 Z0.161
Y29.392

(2D CONTOUR4 2)
M5
M9
M1
T162 M6
S12000 M3
G54
M8
G0 X170.8777 Y108.268
Z33.2
Z23.2
G1 Z22.2 F1200.
Z15.75
Y108.2677 Z15.664
Y108.2877 Z15.58
Y108.324 Z15.5
Y108.3650055 Z15.427
Y108.4210051 Z15.361
X170.8766 Y108.4877 Z15.305
Y108.568 Z15.26
Y108.646 Z15.227
Y108.7244 Z15.207
Y108.813 Z15.2
X170.8755 Y109.368 F1000.
G3 X170.3244 Y109.9090049 I-0.55 J-0.001
G1 X115.7099 Y109.8144 F3600.
X115.6477
G2 X97.9282 Y127.5330053 I0.031 J17.75
X115.6477 Y145.3144 I17.75 J0.031
G1 X170.6477 Y145.413
G2 X188.428018 Y127.6911 I0.031 J-17.75
X170.7099 Y109.913 I-17.75 J-0.031
G1 X170.3244 Y109.9090049
G3 X169.7755 Y109.3588 I0.001 J-0.55 F1000.
G1 X169.7766 Y108.8088
Y108.7222 Z15.207
Y108.6388 Z15.227
Y108.5590069 Z15.26
Y108.4855 Z15.305
X169.777017 Y108.419019 Z15.361
Y108.363013 Z15.427
Y108.3188 Z15.5
Y108.2855 Z15.58
Y108.2655 Z15.664
Y108.2588 Z15.75
G0 Z23.2
X169.7766 Y108.5750055
G1 Z22.2 F1200.
Z15.75
Y108.5688 Z15.664
Y108.5480048 Z15.58
Y108.5155 Z15.5
X169.777017 Y108.479 Z15.427
Y108.4144 Z15.361
Y108.3488 Z15.305
Y108.2755 Z15.26
Y108.1955 Z15.227
Y108.1111 Z15.207
Y108.0255 Z15.2
X169.7788 Y107.4750065 F1000.
G3 X170.329019 Y106.9266 I0.55 J0.001
G2 X187.8622 Y92.1344 I0.031 J-17.75 F3600.
Y91.2188 I-2.712 J-0.458
X170.390991 Y76.4264 I-17.502 J2.958
G1 X115.3911 Y76.335
G2 X97.8582 Y91.1222 I-0.031 J17.75
Y92.0388 I2.712 J0.458
X115.3299 Y106.835 I17.502 J-2.958
G1 X170.329019 Y106.9266
G3 X170.877998 Y107.4770057 I-0.001 J0.55 F1000.
G1 X170.8777 Y108.0277
Y108.113013 Z15.207
Y108.197017 Z15.227
Y108.2777 Z15.26
Y108.3500067 Z15.305
Y108.4166 Z15.361
Y108.4722 Z15.427
X170.8766 Y108.5177 Z15.5
Y108.557 Z15.58
Y108.579 Z15.664
Y108.5777 Z15.75
G0 Z23.2
X170.8777 Y108.268
G1 Z19.2 F1200.
Z12.75
Y108.2677 Z12.664
Y108.2877 Z12.58
Y108.324 Z12.5
Y108.3650055 Z12.427
Y108.4210051 Z12.361
X170.8766 Y108.4877 Z12.305
Y108.568 Z12.26
Y108.646 Z12.227
Y108.7244 Z12.207
Y108.813 Z12.2
X170.8755 Y109.368 F1000.
G3 X170.3244 Y109.9090049 I-0.55 J-0.001
G1 X115.7099 Y109.8144 F3600.
X115.6477
G2 X97.9282 Y127.5330053 I0.031 J17.75
X115.6477 Y145.3144 I17.75 J0.031
G1 X170.6477 Y145.413
G2 X188.428018 Y127.6911 I0.031 J-17.75
X170.7099 Y109.913 I-17.75 J-0.031
G1 X170.3244 Y109.9090049
G3 X169.7755 Y109.3588 I0.001 J-0.55 F1000.
G1 X169.7766 Y108.8088
Y108.7222 Z12.207
Y108.6388 Z12.227
Y108.5590069 Z12.26
Y108.4855 Z12.305
X169.777017 Y108.419019 Z12.361
Y108.363013 Z12.427
Y108.3188 Z12.5
Y108.2855 Z12.58
Y108.2655 Z12.664
Y108.2588 Z12.75
G0 Z23.2
X169.7766 Y108.5750055
G1 Z19.2 F1200.
Z12.75
Y108.5688 Z12.664
Y108.5480048 Z12.58
Y108.5155 Z12.5
X169.777017 Y108.479 Z12.427
Y108.4144 Z12.361
Y108.3488 Z12.305
Y108.2755 Z12.26
Y108.1955 Z12.227
Y108.1111 Z12.207
Y108.0255 Z12.2
X169.7788 Y107.4750065 F1000.
G3 X170.329019 Y106.9266 I0.55 J0.001
G2 X187.8622 Y92.1344 I0.031 J-17.75 F3600.
Y91.2188 I-2.712 J-0.458
X170.390991 Y76.4264 I-17.502 J2.958
G1 X115.3911 Y76.335
G2 X97.8582 Y91.1222 I-0.031 J17.75
Y92.0388 I2.712 J0.458
X115.3299 Y106.835 I17.502 J-2.958
G1 X170.329019 Y106.9266
G3 X170.877998 Y107.4770057 I-0.001 J0.55 F1000.
G1 X170.8777 Y108.0277
Y108.113013 Z12.207
Y108.197017 Z12.227
Y108.2777 Z12.26
Y108.3500067 Z12.305
Y108.4166 Z12.361
Y108.4722 Z12.427
X170.8766 Y108.5177 Z12.5
Y108.557 Z12.58
Y108.579 Z12.664
Y108.5777 Z12.75
G0 Z23.2
X170.8777 Y108.268
G1 Z16.2 F1200.
Z9.75
Y108.2677 Z9.664
Y108.2877 Z9.58
Y108.324 Z9.5
Y108.3650055 Z9.427
Y108.4210051 Z9.361
X170.8766 Y108.4877 Z9.305
Y108.568 Z9.26
Y108.646 Z9.227
Y108.7244 Z9.207
Y108.813 Z9.2
X170.8755 Y109.368 F1000.
G3 X170.3244 Y109.9090049 I-0.55 J-0.001
G1 X115.7099 Y109.8144 F3600.
X115.6477
G2 X97.9282 Y127.5330053 I0.031 J17.75
X115.6477 Y145.3144 I17.75 J0.031
G1 X170.6477 Y145.413
G2 X188.428018 Y127.6911 I0.031 J-17.75
X170.7099 Y109.913 I-17.75 J-0.031
G1 X170.3244 Y109.9090049
G3 X169.7755 Y109.3588 I0.001 J-0.55 F1000.
G1 X169.7766 Y108.8088
Y108.7222 Z9.207
Y108.6388 Z9.227
Y108.5590069 Z9.26
Y108.4855 Z9.305
X169.777017 Y108.419019 Z9.361
Y108.363013 Z9.427
Y108.3188 Z9.5
Y108.2855 Z9.58
Y108.2655 Z9.664
Y108.2588 Z9.75
G0 Z23.2
X169.7766 Y108.5750055
G1 Z16.2 F1200.
Z9.75
Y108.5688 Z9.664
Y108.5480048 Z9.58
Y108.5155 Z9.5
X169.777017 Y108.479 Z9.427
Y108.4144 Z9.361
Y108.3488 Z9.305
Y108.2755 Z9.26
Y108.1955 Z9.227
Y108.1111 Z9.207
Y108.0255 Z9.2
X169.7788 Y107.4750065 F1000.
G3 X170.329019 Y106.9266 I0.55 J0.001
G2 X187.8622 Y92.1344 I0.031 J-17.75 F3600.
Y91.2188 I-2.712 J-0.458
X170.390991 Y76.4264 I-17.502 J2.958
G1 X115.3911 Y76.335
G2 X97.8582 Y91.1222 I-0.031 J17.75
Y92.0388 I2.712 J0.458
X115.3299 Y106.835 I17.502 J-2.958
G1 X170.329019 Y106.9266
G3 X170.877998 Y107.4770057 I-0.001 J0.55 F1000.
G1 X170.8777 Y108.0277
Y108.113013 Z9.207
Y108.197017 Z9.227
Y108.2777 Z9.26
Y108.3500067 Z9.305
Y108.4166 Z9.361
Y108.4722 Z9.427
X170.8766 Y108.5177 Z9.5
Y108.557 Z9.58
Y108.579 Z9.664
Y108.5777 Z9.75
G0 Z23.2
X170.8777 Y108.268
G1 Z13.2 F1200.
Z6.75
Y108.2677 Z6.664
Y108.2877 Z6.58
Y108.324 Z6.5
Y108.3650055 Z6.427
Y108.4210051 Z6.361
X170.8766 Y108.4877 Z6.305
Y108.568 Z6.26
Y108.646 Z6.227
Y108.7244 Z6.207
Y108.813 Z6.2
X170.8755 Y109.368 F1000.
G3 X170.3244 Y109.9090049 I-0.55 J-0.001
G1 X115.7099 Y109.8144 F3600.
X115.6477
G2 X97.9282 Y127.5330053 I0.031 J17.75
X115.6477 Y145.3144 I17.75 J0.031
G1 X170.6477 Y145.413
G2 X188.428018 Y127.6911 I0.031 J-17.75
X170.7099 Y109.913 I-17.75 J-0.031
G1 X170.3244 Y109.9090049
G3 X169.7755 Y109.3588 I0.001 J-0.55 F1000.
G1 X169.7766 Y108.8088
Y108.7222 Z6.207
Y108.6388 Z6.227
Y108.5590069 Z6.26
Y108.4855 Z6.305
X169.777017 Y108.419019 Z6.361
Y108.363013 Z6.427
Y108.3188 Z6.5
Y108.2855 Z6.58
Y108.2655 Z6.664
Y108.2588 Z6.75
G0 Z23.2
X169.7766 Y108.5750055
G1 Z13.2 F1200.
Z6.75
Y108.5688 Z6.664
Y108.5480048 Z6.58
Y108.5155 Z6.5
X169.777017 Y108.479 Z6.427
Y108.4144 Z6.361
Y108.3488 Z6.305
Y108.2755 Z6.26
Y108.1955 Z6.227
Y108.1111 Z6.207
Y108.0255 Z6.2
X169.7788 Y107.4750065 F1000.
G3 X170.329019 Y106.9266 I0.55 J0.001
G2 X187.8622 Y92.1344 I0.031 J-17.75 F3600.
Y91.2188 I-2.712 J-0.458
X170.390991 Y76.4264 I-17.502 J2.958
G1 X115.3911 Y76.335
G2 X97.8582 Y91.1222 I-0.031 J17.75
Y92.0388 I2.712 J0.458
X115.3299 Y106.835 I17.502 J-2.958
G1 X170.329019 Y106.9266
G3 X170.877998 Y107.4770057 I-0.001 J0.55 F1000.
G1 X170.8777 Y108.0277
Y108.113013 Z6.207
Y108.197017 Z6.227
Y108.2777 Z6.26
Y108.3500067 Z6.305
Y108.4166 Z6.361
Y108.4722 Z6.427
X170.8766 Y108.5177 Z6.5
Y108.557 Z6.58
Y108.579 Z6.664
Y108.5777 Z6.75
G0 Z23.2
X170.8777 Y108.268
G1 Z10.2 F1200.
Z3.75
Y108.2677 Z3.664
Y108.2877 Z3.58
Y108.324 Z3.5
Y108.3650055 Z3.427
Y108.4210051 Z3.361
X170.8766 Y108.4877 Z3.305
Y108.568 Z3.26
Y108.646 Z3.227
Y108.7244 Z3.207
Y108.813 Z3.2
X170.8755 Y109.368 F1000.
G3 X170.3244 Y109.9090049 I-0.55 J-0.001
G1 X115.7099 Y109.8144 F3600.
X115.6477
G2 X97.9282 Y127.5330053 I0.031 J17.75
X115.6477 Y145.3144 I17.75 J0.031
G1 X170.6477 Y145.413
G2 X188.428018 Y127.6911 I0.031 J-17.75
X170.7099 Y109.913 I-17.75 J-0.031
G1 X170.3244 Y109.9090049
G3 X169.7755 Y109.3588 I0.001 J-0.55 F1000.
G1 X169.7766 Y108.8088
Y108.7222 Z3.207
Y108.6388 Z3.227
Y108.5590069 Z3.26
Y108.4855 Z3.305
X169.777017 Y108.419019 Z3.361
Y108.363013 Z3.427
Y108.3188 Z3.5
Y108.2855 Z3.58
Y108.2655 Z3.664
Y108.2588 Z3.75
G0 Z23.2
X169.7766 Y108.5750055
G1 Z10.2 F1200.
Z3.75
Y108.5688 Z3.664
Y108.5480048 Z3.58
Y108.5155 Z3.5
X169.777017 Y108.479 Z3.427
Y108.4144 Z3.361
Y108.3488 Z3.305
Y108.2755 Z3.26
Y108.1955 Z3.227
Y108.1111 Z3.207
Y108.0255 Z3.2
X169.7788 Y107.4750065 F1000.
G3 X170.329019 Y106.9266 I0.55 J0.001
G2 X187.8622 Y92.1344 I0.031 J-17.75 F3600.
Y91.2188 I-2.712 J-0.458
X170.390991 Y76.4264 I-17.502 J2.958
G1 X115.3911 Y76.335
G2 X97.8582 Y91.1222 I-0.031 J17.75
Y92.0388 I2.712 J0.458
X115.3299 Y106.835 I17.502 J-2.958
G1 X170.329019 Y106.9266
G3 X170.877998 Y107.4770057 I-0.001 J0.55 F1000.
G1 X170.8777 Y108.0277
Y108.113013 Z3.207
Y108.197017 Z3.227
Y108.2777 Z3.26
Y108.3500067 Z3.305
Y108.4166 Z3.361
Y108.4722 Z3.427
X170.8766 Y108.5177 Z3.5
Y108.557 Z3.58
Y108.579 Z3.664
Y108.5777 Z3.75
G0 Z23.2
X170.8777 Y108.268
G1 Z7.2 F1200.
Z2.15
Y108.2677 Z2.064
Y108.2877 Z1.98
Y108.324 Z1.9
Y108.3650055 Z1.827
Y108.4210051 Z1.761
X170.8766 Y108.4877 Z1.705
Y108.568 Z1.66
Y108.646 Z1.627
Y108.7244 Z1.607
Y108.813 Z1.6
X170.8755 Y109.368 F1000.
G3 X170.3244 Y109.9090049 I-0.55 J-0.001
G1 X115.7099 Y109.8144 F3600.
X115.6477
G2 X97.9282 Y127.5330053 I0.031 J17.75
X115.6477 Y145.3144 I17.75 J0.031
G1 X170.6477 Y145.413
G2 X188.428018 Y127.6911 I0.031 J-17.75
X170.7099 Y109.913 I-17.75 J-0.031
G1 X170.3244 Y109.9090049
G3 X169.7755 Y109.3588 I0.001 J-0.55 F1000.
G1 X169.7766 Y108.8088
Y108.7222 Z1.607
Y108.6388 Z1.627
Y108.5590069 Z1.66
Y108.4855 Z1.705
X169.777017 Y108.419019 Z1.761
Y108.363013 Z1.827
Y108.3188 Z1.9
Y108.2855 Z1.98
Y108.2655 Z2.064
Y108.2588 Z2.15
G0 Z23.2
X169.7766 Y108.5750055
G1 Z7.2 F1200.
Z2.15
Y108.5688 Z2.064
Y108.5480048 Z1.98
Y108.5155 Z1.9
X169.777017 Y108.479 Z1.827
Y108.4144 Z1.761
Y108.3488 Z1.705
Y108.2755 Z1.66
Y108.1955 Z1.627
Y108.1111 Z1.607
Y108.0255 Z1.6
X169.7788 Y107.4750065 F1000.
G3 X170.329019 Y106.9266 I0.55 J0.001
G2 X187.8622 Y92.1344 I0.031 J-17.75 F3600.
Y91.2188 I-2.712 J-0.458
X170.390991 Y76.4264 I-17.502 J2.958
G1 X115.3911 Y76.335
G2 X97.8582 Y91.1222 I-0.031 J17.75
Y92.0388 I2.712 J0.458
X115.3299 Y106.835 I17.502 J-2.958
G1 X170.329019 Y106.9266
G3 X170.877998 Y107.4770057 I-0.001 J0.55 F1000.
G1 X170.8777 Y108.0277
Y108.113013 Z1.607
Y108.197017 Z1.627
Y108.2777 Z1.66
Y108.3500067 Z1.705
Y108.4166 Z1.761
Y108.4722 Z1.827
X170.8766 Y108.5177 Z1.9
Y108.557 Z1.98
Y108.579 Z2.064
Y108.5777 Z2.15
G0 Z23.2
X170.8777 Y108.268
G1 Z5.6 F1200.
Z0.55
Y108.2677 Z0.464
Y108.2877 Z0.38
Y108.324 Z0.3
Y108.3650055 Z0.227
Y108.4210051 Z0.161
X170.8766 Y108.4877 Z0.105
Y108.568 Z0.06
Y108.646 Z0.027
Y108.7244 Z0.007
Y108.813 Z0.
X170.8755 Y109.368 F1000.
G3 X170.3244 Y109.9090049 I-0.55 J-0.001
G1 X115.7099 Y109.8144 F3600.
X115.6477
G2 X97.9282 Y127.5330053 I0.031 J17.75
X115.6477 Y145.3144 I17.75 J0.031
G1 X170.6477 Y145.413
G2 X188.428018 Y127.6911 I0.031 J-17.75
X170.7099 Y109.913 I-17.75 J-0.031
G1 X170.3244 Y109.9090049
G3 X169.7755 Y109.3588 I0.001 J-0.55 F1000.
G1 X169.7766 Y108.8088
Y108.7222 Z0.007
Y108.6388 Z0.027
Y108.5590069 Z0.06
Y108.4855 Z0.105
X169.777017 Y108.419019 Z0.161
Y108.363013 Z0.227
Y108.3188 Z0.3
Y108.2855 Z0.38
Y108.2655 Z0.464
Y108.2588 Z0.55
G0 Z23.2
X169.7766 Y108.5750055
G1 Z5.6 F1200.
Z0.55
Y108.5688 Z0.464
Y108.5480048 Z0.38
Y108.5155 Z0.3
X169.777017 Y108.479 Z0.227
Y108.4144 Z0.161
Y108.3488 Z0.105
Y108.2755 Z0.06
Y108.1955 Z0.027
Y108.1111 Z0.007
Y108.0255 Z0.
X169.7788 Y107.4750065 F1000.
G3 X170.329019 Y106.9266 I0.55 J0.001
G2 X187.8622 Y92.1344 I0.031 J-17.75 F3600.
Y91.2188 I-2.712 J-0.458
X170.390991 Y76.4264 I-17.502 J2.958
G1 X115.3911 Y76.335
G2 X97.8582 Y91.1222 I-0.031 J17.75
Y92.0388 I2.712 J0.458
X115.3299 Y106.835 I17.502 J-2.958
G1 X170.329019 Y106.9266
G3 X170.877998 Y107.4770057 I-0.001 J0.55 F1000.
G1 X170.8777 Y108.0277
Y108.113013 Z0.007
Y108.197017 Z0.027
Y108.2777 Z0.06
Y108.3500067 Z0.105
Y108.4166 Z0.161
Y108.472

M9
G28 G91 Z0.
G90
G28 G91 X0. Y0.
G90
M30


