(2018-01-26 EARMUFFS)
(2018-01-26 EARMUFFS)
(T24  D=4. CR=0. TAPER=118DEG - ZMIN=-2.702 - DRILL)
(T162  D=5.5 CR=0. - ZMIN=0. - FLAT END MILL)
G90 G94 G91.1 G40 G49 G17
G21
G28 G91 Z0.
G90

(2D CONOUR4 2)
T162
G0 X75.322 Y85.113
Z33.2
Z23.2
G1 Z22.2 F1200.
Z15.75
X75.329 Y85.115 Z15.664
X75.347 Y85.123 Z15.58
X75.378 Y85.136 Z15.5
X75.419 Y85.153 Z15.427
X75.471 Y85.174 Z15.361
X75.532 Y85.199 Z15.305
X75.6 Y85.227 Z15.26
X75.674 Y85.258 Z15.227
X75.751 Y85.29 Z15.207
X75.831 Y85.322 Z15.2
X76.339 Y85.532 F1000.
G3 X76.638 Y86.25 I-0.21 J0.509
G2 X78.864 Y99.541 I11.788 J4.858 F3600.
X157.99 I39.563 J-34.891
X148.427 Y78.358 I-9.563 J-8.433
G1 X88.427
G2 X76.638 Y86.25 I0. J12.75
G3 X75.92 Y86.549 I-0.509 J-0.21 F1000.
G1 X75.412 Y86.339
X75.332 Y86.307 Z15.207
X75.255 Y86.275 Z15.227
X75.181 Y86.244 Z15.26
X75.113 Y86.216 Z15.305
X75.052 Y86.191 Z15.361
X75. Y86.17 Z15.427
X74.959 Y86.153 Z15.5
X74.928 Y86.14 Z15.58
X74.909 Y86.132 Z15.664
X74.903 Y86.13 Z15.75
G0 Z23.2
X67.492 Y88.641
G1 Z22.2 F1200.
Z15.75
X67.489 Y88.647 Z15.664
X67.479 Y88.665 Z15.58
X67.462 Y88.693 Z15.5
X67.44 Y88.732 Z15.427
X67.411 Y88.781 Z15.361
X67.378 Y88.837 Z15.305
X67.342 Y88.901 Z15.26
X67.301 Y88.97 Z15.227
X67.259 Y89.042 Z15.207
X67.216 Y89.117 Z15.2
X66.94 Y89.592 F1000.
G3 X66.188 Y89.792 I-0.476 J-0.276
G2 X0.12 Y100.508 I-26.505 J45.607 F3600.
X-2.663 Y105.753 I9.562 J8.433
Y107.129 I2.663 J0.688
X9.682 Y116.691 I12.345 J-3.188
G1 X69.683
G2 X82.028 Y107.128 I0. J-12.75
Y105.753 I-2.663 J-0.687
X79.245 Y100.508 I-12.345 J3.188
X66.188 Y89.792 I-39.563 J34.891
G3 X65.989 Y89.04 I0.276 J-0.476 F1000.
G1 X66.265 Y88.564
X66.308 Y88.49 Z15.207
X66.35 Y88.417 Z15.227
X66.39 Y88.348 Z15.26
X66.427 Y88.285 Z15.305
X66.46 Y88.228 Z15.361
X66.489 Y88.179 Z15.427
X66.511 Y88.14 Z15.5
X66.528 Y88.112 Z15.58
X66.538 Y88.094 Z15.664
X66.541 Y88.089 Z15.75
G0 Z23.2
X67.492 Y88.641
G1 Z19.2 F1200.
Z12.75
X67.489 Y88.647 Z12.664
X67.479 Y88.665 Z12.58
X67.462 Y88.693 Z12.5
X67.44 Y88.732 Z12.427
X67.411 Y88.781 Z12.361
X67.378 Y88.837 Z12.305
X67.342 Y88.901 Z12.26
X67.301 Y88.97 Z12.227
X67.259 Y89.042 Z12.207
X67.216 Y89.117 Z12.2
X66.94 Y89.592 F1000.
G3 X66.188 Y89.792 I-0.476 J-0.276
G2 X0.12 Y100.508 I-26.505 J45.607 F3600.
X-2.663 Y105.753 I9.562 J8.433
Y107.129 I2.663 J0.688
X9.682 Y116.691 I12.345 J-3.188
G1 X69.683
G2 X82.028 Y107.128 I0. J-12.75
Y105.753 I-2.663 J-0.687
X79.245 Y100.508 I-12.345 J3.188
X66.188 Y89.792 I-39.563 J34.891
G3 X65.989 Y89.04 I0.276 J-0.476 F1000.
G1 X66.265 Y88.564
X66.308 Y88.49 Z12.207
X66.35 Y88.417 Z12.227
X66.39 Y88.348 Z12.26
X66.427 Y88.285 Z12.305
X66.46 Y88.228 Z12.361
X66.489 Y88.179 Z12.427
X66.511 Y88.14 Z12.5
X66.528 Y88.112 Z12.58
X66.538 Y88.094 Z12.664
X66.541 Y88.089 Z12.75
G0 Z23.2
X69.133 Y77.787
G1 Z22.2 F1200.
Z15.75
G19 G2 X69.132 Y77.237 Z15.2 J-0.55 K0.
G1 Y76.687 F1000.
G17 G3 X69.683 Y76.137 I0.55 J0.
G2 X82.028 Y66.575 I0. J-12.75 F3600.
Y65.2 I-2.663 J-0.688
X79.245 Y59.954 I-12.345 J3.187
X0.12 I-39.563 J34.891
X-2.663 Y65.2 I9.563 J8.433
Y66.575 I2.663 J0.687
X9.682 Y76.137 I12.345 J-3.188
G1 X69.683
G3 X70.232 Y76.687 I0. J0.55 F1000.
G1 Y77.237
G19 G3 Y77.787 Z15.75 J0. K0.55
G0 Z23.2
X75.322 Y44.559
G1 Z22.2 F1200.
Z15.75
X75.329 Y44.561 Z15.664
X75.347 Y44.569 Z15.58
X75.378 Y44.582 Z15.5
X75.419 Y44.599 Z15.427
X75.471 Y44.62 Z15.361
X75.532 Y44.645 Z15.305
X75.6 Y44.673 Z15.26
X75.674 Y44.704 Z15.227
X75.751 Y44.736 Z15.207
X75.831 Y44.768 Z15.2
X76.339 Y44.978 F1000.
G17 G3 X76.638 Y45.696 I-0.21 J0.509
G2 X78.864 Y58.987 I11.788 J4.858 F3600.
X157.99 I39.563 J-34.891
X148.427 Y37.804 I-9.563 J-8.433
G1 X88.427
G2 X76.638 Y45.696 I0. J12.75
G3 X75.92 Y45.995 I-0.509 J-0.21 F1000.
G1 X75.412 Y45.785
X75.332 Y45.753 Z15.207
X75.255 Y45.721 Z15.227
X75.181 Y45.69 Z15.26
X75.113 Y45.662 Z15.305
X75.052 Y45.637 Z15.361
X75. Y45.616 Z15.427
X74.959 Y45.599 Z15.5
X74.928 Y45.586 Z15.58
X74.909 Y45.578 Z15.664
X74.903 Y45.576 Z15.75
G0 Z23.2
X69.265 Y37.238
G1 Z22.2 F1200.
Z15.75
Y37.231 Z15.664
Y37.211 Z15.58
Y37.178 Z15.5
X69.264 Y37.133 Z15.427
Y37.077 Z15.361
X69.263 Y37.011 Z15.305
Y36.938 Z15.26
X69.262 Y36.858 Z15.227
X69.261 Y36.774 Z15.207
X69.26 Y36.688 Z15.2
X69.255 Y36.138 F1000.
G3 X69.8 Y35.583 I0.55 J-0.005
G2 X82.028 Y26.021 I-0.118 J-12.749 F3600.
Y24.646 I-2.663 J-0.687
X79.245 Y19.4 I-12.345 J3.187
X0.12 I-39.563 J34.891
X-2.663 Y24.646 I9.563 J8.433
Y26.021 I2.663 J0.687
X9.682 Y35.583 I12.345 J-3.188
G1 X69.683
X69.8
G3 X70.355 Y36.128 I0.005 J0.55 F1000.
G1 X70.36 Y36.678
X70.361 Y36.764 Z15.207
X70.362 Y36.848 Z15.227
Y36.927 Z15.26
X70.363 Y37.001 Z15.305
X70.364 Y37.067 Z15.361
Y37.123 Z15.427
X70.365 Y37.168 Z15.5
Y37.201 Z15.58
Y37.221 Z15.664
Y37.228 Z15.75
G0 Z23.2
X67.492 Y48.087
G1 Z19.2 F1200.
Z12.75
X67.489 Y48.093 Z12.664
X67.479 Y48.111 Z12.58
X67.462 Y48.139 Z12.5
X67.44 Y48.178 Z12.427
X67.411 Y48.227 Z12.361
X67.379 Y48.283 Z12.305
X67.342 Y48.347 Z12.26
X67.301 Y48.416 Z12.227
X67.259 Y48.488 Z12.207
X67.216 Y48.563 Z12.2
X66.94 Y49.038 F1000.
G3 X66.188 Y49.238 I-0.476 J-0.276
G2 X0.12 Y59.954 I-26.505 J45.607 F3600.
X-2.663 Y65.2 I9.563 J8.433
Y66.575 I2.663 J0.687
X9.682 Y76.137 I12.345 J-3.188
G1 X69.683
G2 X82.028 Y66.575 I0. J-12.75
Y65.2 I-2.663 J-0.688
X79.245 Y59.954 I-12.345 J3.187
X66.188 Y49.238 I-39.563 J34.891
G3 X65.989 Y48.486 I0.276 J-0.476 F1000.
G1 X66.265 Y48.01
X66.308 Y47.936 Z12.207
X66.35 Y47.863 Z12.227
X66.39 Y47.794 Z12.26
X66.427 Y47.731 Z12.305
X66.46 Y47.674 Z12.361
X66.489 Y47.625 Z12.427
X66.511 Y47.586 Z12.5
X66.528 Y47.558 Z12.58
X66.538 Y47.54 Z12.664
X66.541 Y47.535 Z12.75
G0 Z23.2
X87.628 Y28.388
G1 Z22.2 F1200.
Z15.75
X87.631 Y28.382 Z15.664
X87.643 Y28.365 Z15.58
X87.661 Y28.338 Z15.5
X87.686 Y28.3 Z15.427
X87.717 Y28.254 Z15.361
X87.754 Y28.199 Z15.305
X87.795 Y28.138 Z15.26
X87.839 Y28.072 Z15.227
X87.886 Y28.003 Z15.207
X87.934 Y27.931 Z15.2
X88.241 Y27.475 F1000.
G3 X89.004 Y27.325 I0.456 J0.307
G2 X157.99 Y18.433 I29.422 J-43.782 F3600.
X148.427 Y-2.75 I-9.563 J-8.433
G1 X88.427
G2 X78.864 Y18.433 I0. J12.75
X89.004 Y27.325 I39.563 J-34.891
G3 X89.154 Y28.088 I-0.307 J0.456 F1000.
G1 X88.847 Y28.545
X88.799 Y28.616 Z15.207
X88.752 Y28.686 Z15.227
X88.708 Y28.752 Z15.26
X88.667 Y28.813 Z15.305
X88.63 Y28.867 Z15.361
X88.599 Y28.914 Z15.427
X88.574 Y28.951 Z15.5
X88.556 Y28.979 Z15.58
X88.544 Y28.996 Z15.664
X88.541 Y29.001 Z15.75
G0 Z23.2
X87.628 Y28.388
G1 Z19.2 F1200.
Z12.75
X87.631 Y28.382 Z12.664
X87.643 Y28.365 Z12.58
X87.661 Y28.338 Z12.5
X87.686 Y28.3 Z12.427
X87.717 Y28.254 Z12.361
X87.754 Y28.199 Z12.305
X87.795 Y28.138 Z12.26
X87.839 Y28.072 Z12.227
X87.886 Y28.003 Z12.207
X87.934 Y27.931 Z12.2
X88.241 Y27.475 F1000.
G3 X89.004 Y27.325 I0.456 J0.307
G2 X157.99 Y18.433 I29.422 J-43.782 F3600.
X148.427 Y-2.75 I-9.563 J-8.433
G1 X88.427
G2 X78.864 Y18.433 I0. J12.75
X89.004 Y27.325 I39.563 J-34.891
G3 X89.154 Y28.088 I-0.307 J0.456 F1000.
G1 X88.847 Y28.545
X88.799 Y28.616 Z12.207
X88.752 Y28.686 Z12.227
X88.708 Y28.752 Z12.26
X88.667 Y28.813 Z12.305
X88.63 Y28.867 Z12.361
X88.599 Y28.914 Z12.427
X88.574 Y28.951 Z12.5
X88.556 Y28.979 Z12.58
X88.544 Y28.996 Z12.664
X88.541 Y29.001 Z12.75
G0 Z23.2
X69.265 Y37.238
G1 Z19.2 F1200.
Z12.75
Y37.231 Z12.664
Y37.211 Z12.58
Y37.178 Z12.5
X69.264 Y37.133 Z12.427
Y37.077 Z12.361
X69.263 Y37.011 Z12.305
Y36.938 Z12.26
X69.262 Y36.858 Z12.227
X69.261 Y36.774 Z12.207
X69.26 Y36.688 Z12.2
X69.255 Y36.138 F1000.
G3 X69.8 Y35.583 I0.55 J-0.005
G2 X82.028 Y26.021 I-0.118 J-12.749 F3600.
Y24.646 I-2.663 J-0.687
X79.245 Y19.4 I-12.345 J3.187
X0.12 I-39.563 J34.891
X-2.663 Y24.646 I9.563 J8.433
Y26.021 I2.663 J0.687
X9.682 Y35.583 I12.345 J-3.188
G1 X69.683
X69.8
G3 X70.355 Y36.128 I0.005 J0.55 F1000.
G1 X70.36 Y36.678
X70.361 Y36.764 Z12.207
X70.362 Y36.848 Z12.227
Y36.927 Z12.26
X70.363 Y37.001 Z12.305
X70.364 Y37.067 Z12.361
Y37.123 Z12.427
X70.365 Y37.168 Z12.5
Y37.201 Z12.58
Y37.221 Z12.664
Y37.228 Z12.75
G0 Z23.2
X69.265 Y37.238
G1 Z16.2 F1200.
Z9.75
Y37.231 Z9.664
Y37.211 Z9.58
Y37.178 Z9.5
X69.264 Y37.133 Z9.427
Y37.077 Z9.361
X69.263 Y37.011 Z9.305
Y36.938 Z9.26
X69.262 Y36.858 Z9.227
X69.261 Y36.774 Z9.207
X69.26 Y36.688 Z9.2
X69.255 Y36.138 F1000.
G3 X69.8 Y35.583 I0.55 J-0.005
G2 X82.028 Y26.021 I-0.118 J-12.749 F3600.
Y24.646 I-2.663 J-0.687
X79.245 Y19.4 I-12.345 J3.187
X0.12 I-39.563 J34.891
X-2.663 Y24.646 I9.563 J8.433
Y26.021 I2.663 J0.687
X9.682 Y35.583 I12.345 J-3.188
G1 X69.683
X69.8
G3 X70.355 Y36.128 I0.005 J0.55 F1000.
G1 X70.36 Y36.678
X70.361 Y36.764 Z9.207
X70.362 Y36.848 Z9.227
Y36.927 Z9.26
X70.363 Y37.001 Z9.305
X70.364 Y37.067 Z9.361
Y37.123 Z9.427
X70.365 Y37.168 Z9.5
Y37.201 Z9.58
Y37.221 Z9.664
Y37.228 Z9.75
G0 Z23.2
X75.322 Y44.559
G1 Z19.2 F1200.
Z12.75
X75.329 Y44.561 Z12.664
X75.347 Y44.569 Z12.58
X75.378 Y44.582 Z12.5
X75.419 Y44.599 Z12.427
X75.471 Y44.62 Z12.361
X75.532 Y44.645 Z12.305
X75.6 Y44.673 Z12.26
X75.674 Y44.704 Z12.227
X75.751 Y44.736 Z12.207
X75.831 Y44.768 Z12.2
X76.339 Y44.978 F1000.
G3 X76.638 Y45.696 I-0.21 J0.509
G2 X78.864 Y58.987 I11.788 J4.858 F3600.
X157.99 I39.563 J-34.891
X148.427 Y37.804 I-9.563 J-8.433
G1 X88.427
G2 X76.638 Y45.696 I0. J12.75
G3 X75.92 Y45.995 I-0.509 J-0.21 F1000.
G1 X75.412 Y45.785
X75.332 Y45.753 Z12.207
X75.255 Y45.721 Z12.227
X75.181 Y45.69 Z12.26
X75.113 Y45.662 Z12.305
X75.052 Y45.637 Z12.361
X75. Y45.616 Z12.427
X74.959 Y45.599 Z12.5
X74.928 Y45.586 Z12.58
X74.909 Y45.578 Z12.664
X74.903 Y45.576 Z12.75
G0 Z23.2
X67.492 Y48.087
G1 Z16.2 F1200.
Z9.75
X67.489 Y48.093 Z9.664
X67.479 Y48.111 Z9.58
X67.462 Y48.139 Z9.5
X67.44 Y48.178 Z9.427
X67.411 Y48.227 Z9.361
X67.379 Y48.283 Z9.305
X67.342 Y48.347 Z9.26
X67.301 Y48.416 Z9.227
X67.259 Y48.488 Z9.207
X67.216 Y48.563 Z9.2
X66.94 Y49.038 F1000.
G3 X66.188 Y49.238 I-0.476 J-0.276
G2 X0.12 Y59.954 I-26.505 J45.607 F3600.
X-2.663 Y65.2 I9.563 J8.433
Y66.575 I2.663 J0.687
X9.682 Y76.137 I12.345 J-3.188
G1 X69.683
G2 X82.028 Y66.575 I0. J-12.75
Y65.2 I-2.663 J-0.688
X79.245 Y59.954 I-12.345 J3.187
X66.188 Y49.238 I-39.563 J34.891
G3 X65.989 Y48.486 I0.276 J-0.476 F1000.
G1 X66.265 Y48.01
X66.308 Y47.936 Z9.207
X66.35 Y47.863 Z9.227
X66.39 Y47.794 Z9.26
X66.427 Y47.731 Z9.305
X66.46 Y47.674 Z9.361
X66.489 Y47.625 Z9.427
X66.511 Y47.586 Z9.5
X66.528 Y47.558 Z9.58
X66.538 Y47.54 Z9.664
X66.541 Y47.535 Z9.75
G0 Z23.2
X87.628 Y28.388
G1 Z16.2 F1200.
Z9.75
X87.631 Y28.382 Z9.664
X87.643 Y28.365 Z9.58
X87.661 Y28.338 Z9.5
X87.686 Y28.3 Z9.427
X87.717 Y28.254 Z9.361
X87.754 Y28.199 Z9.305
X87.795 Y28.138 Z9.26
X87.839 Y28.072 Z9.227
X87.886 Y28.003 Z9.207
X87.934 Y27.931 Z9.2
X88.241 Y27.475 F1000.
G3 X89.004 Y27.325 I0.456 J0.307
G2 X157.99 Y18.433 I29.422 J-43.782 F3600.
X148.427 Y-2.75 I-9.563 J-8.433
G1 X88.427
G2 X78.864 Y18.433 I0. J12.75
X89.004 Y27.325 I39.563 J-34.891
G3 X89.154 Y28.088 I-0.307 J0.456 F1000.
G1 X88.847 Y28.545
X88.799 Y28.616 Z9.207
X88.752 Y28.686 Z9.227
X88.708 Y28.752 Z9.26
X88.667 Y28.813 Z9.305
X88.63 Y28.867 Z9.361
X88.599 Y28.914 Z9.427
X88.574 Y28.951 Z9.5
X88.556 Y28.979 Z9.58
X88.544 Y28.996 Z9.664
X88.541 Y29.001 Z9.75
G0 Z23.2
X69.265 Y37.238
G1 Z13.2 F1200.
Z6.75
Y37.231 Z6.664
Y37.211 Z6.58
Y37.178 Z6.5
X69.264 Y37.133 Z6.427
Y37.077 Z6.361
X69.263 Y37.011 Z6.305
Y36.938 Z6.26
X69.262 Y36.858 Z6.227
X69.261 Y36.774 Z6.207
X69.26 Y36.688 Z6.2
X69.255 Y36.138 F1000.
G3 X69.8 Y35.583 I0.55 J-0.005
G2 X82.028 Y26.021 I-0.118 J-12.749 F3600.
Y24.646 I-2.663 J-0.687
X79.245 Y19.4 I-12.345 J3.187
X0.12 I-39.563 J34.891
X-2.663 Y24.646 I9.563 J8.433
Y26.021 I2.663 J0.687
X9.682 Y35.583 I12.345 J-3.188
G1 X69.683
X69.8
G3 X70.355 Y36.128 I0.005 J0.55 F1000.
G1 X70.36 Y36.678
X70.361 Y36.764 Z6.207
X70.362 Y36.848 Z6.227
Y36.927 Z6.26
X70.363 Y37.001 Z6.305
X70.364 Y37.067 Z6.361
Y37.123 Z6.427
X70.365 Y37.168 Z6.5
Y37.201 Z6.58
Y37.221 Z6.664
Y37.228 Z6.75
G0 Z23.2
X75.323 Y125.667
G1 Z22.2 F1200.
Z15.75
X75.329 Y125.669 Z15.664
X75.347 Y125.677 Z15.58
X75.378 Y125.69 Z15.5
X75.42 Y125.707 Z15.427
X75.471 Y125.728 Z15.361
X75.532 Y125.753 Z15.305
X75.6 Y125.781 Z15.26
X75.674 Y125.812 Z15.227
X75.752 Y125.844 Z15.207
X75.831 Y125.876 Z15.2
X76.34 Y126.086 F1000.
G3 X76.639 Y126.804 I-0.21 J0.509
G2 X78.864 Y140.095 I11.788 J4.858 F3600.
X157.99 I39.563 J-34.891
X148.427 Y118.912 I-9.563 J-8.433
G1 X118.267
X88.427
G2 X76.639 Y126.804 I0. J12.75
G3 X75.92 Y127.103 I-0.509 J-0.21 F1000.
G1 X75.412 Y126.893
X75.332 Y126.861 Z15.207
X75.255 Y126.829 Z15.227
X75.181 Y126.798 Z15.26
X75.113 Y126.77 Z15.305
X75.052 Y126.745 Z15.361
X75.001 Y126.724 Z15.427
X74.959 Y126.707 Z15.5
X74.928 Y126.694 Z15.58
X74.91 Y126.686 Z15.664
X74.903 Y126.684 Z15.75
G0 Z23.2
X67.492 Y129.195
G1 Z22.2 F1200.
Z15.75
X67.489 Y129.201 Z15.664
X67.479 Y129.219 Z15.58
X67.462 Y129.247 Z15.5
X67.44 Y129.286 Z15.427
X67.411 Y129.335 Z15.361
X67.378 Y129.391 Z15.305
X67.341 Y129.455 Z15.26
X67.301 Y129.524 Z15.227
X67.259 Y129.596 Z15.207
X67.216 Y129.671 Z15.2
X66.94 Y130.146 F1000.
G3 X66.188 Y130.346 I-0.476 J-0.276
G2 X0.12 Y141.062 I-26.505 J45.607 F3600.
X-2.663 Y146.307 I9.562 J8.433
Y147.682 I2.663 J0.688
X9.682 Y157.245 I12.345 J-3.188
G1 X69.683
G2 X82.028 Y147.682 I0. J-12.75
Y146.307 I-2.663 J-0.688
X79.245 Y141.062 I-12.345 J3.188
X66.188 Y130.346 I-39.563 J34.891
G3 X65.989 Y129.594 I0.276 J-0.476 F1000.
G1 X66.265 Y129.118
X66.308 Y129.044 Z15.207
X66.35 Y128.971 Z15.227
X66.39 Y128.902 Z15.26
X66.427 Y128.839 Z15.305
X66.46 Y128.782 Z15.361
X66.489 Y128.733 Z15.427
X66.511 Y128.694 Z15.5
X66.528 Y128.666 Z15.58
X66.538 Y128.648 Z15.664
X66.541 Y128.643 Z15.75
G0 Z23.2
X67.492 Y129.195
G1 Z19.2 F1200.
Z12.75
X67.489 Y129.201 Z12.664
X67.479 Y129.219 Z12.58
X67.462 Y129.247 Z12.5
X67.44 Y129.286 Z12.427
X67.411 Y129.335 Z12.361
X67.378 Y129.391 Z12.305
X67.341 Y129.455 Z12.26
X67.301 Y129.524 Z12.227
X67.259 Y129.596 Z12.207
X67.216 Y129.671 Z12.2
X66.94 Y130.146 F1000.
G3 X66.188 Y130.346 I-0.476 J-0.276
G2 X0.12 Y141.062 I-26.505 J45.607 F3600.
X-2.663 Y146.307 I9.562 J8.433
Y147.682 I2.663 J0.688
X9.682 Y157.245 I12.345 J-3.188
G1 X69.683
G2 X82.028 Y147.682 I0. J-12.75
Y146.307 I-2.663 J-0.688
X79.245 Y141.062 I-12.345 J3.188
X66.188 Y130.346 I-39.563 J34.891
G3 X65.989 Y129.594 I0.276 J-0.476 F1000.
G1 X66.265 Y129.118
X66.308 Y129.044 Z12.207
X66.35 Y128.971 Z12.227
X66.39 Y128.902 Z12.26
X66.427 Y128.839 Z12.305
X66.46 Y128.782 Z12.361
X66.489 Y128.733 Z12.427
X66.511 Y128.694 Z12.5
X66.528 Y128.666 Z12.58
X66.538 Y128.648 Z12.664
X66.541 Y128.643 Z12.75
G0 Z23.2
X75.323 Y125.667
G1 Z19.2 F1200.
Z12.75
X75.329 Y125.669 Z12.664
X75.347 Y125.677 Z12.58
X75.378 Y125.69 Z12.5
X75.42 Y125.707 Z12.427
X75.471 Y125.728 Z12.361
X75.532 Y125.753 Z12.305
X75.6 Y125.781 Z12.26
X75.674 Y125.812 Z12.227
X75.752 Y125.844 Z12.207
X75.831 Y125.876 Z12.2
X76.34 Y126.086 F1000.
G3 X76.639 Y126.804 I-0.21 J0.509
G2 X78.864 Y140.095 I11.788 J4.858 F3600.
X157.99 I39.563 J-34.891
X148.427 Y118.912 I-9.563 J-8.433
G1 X118.267
X88.427
G2 X76.639 Y126.804 I0. J12.75
G3 X75.92 Y127.103 I-0.509 J-0.21 F1000.
G1 X75.412 Y126.893
X75.332 Y126.861 Z12.207
X75.255 Y126.829 Z12.227
X75.181 Y126.798 Z12.26
X75.113 Y126.77 Z12.305
X75.052 Y126.745 Z12.361
X75.001 Y126.724 Z12.427
X74.959 Y126.707 Z12.5
X74.928 Y126.694 Z12.58
X74.91 Y126.686 Z12.664
X74.903 Y126.684 Z12.75
G0 Z23.2
X67.492 Y129.195
G1 Z16.2 F1200.
Z9.75
X67.489 Y129.201 Z9.664
X67.479 Y129.219 Z9.58
X67.462 Y129.247 Z9.5
X67.44 Y129.286 Z9.427
X67.411 Y129.335 Z9.361
X67.378 Y129.391 Z9.305
X67.341 Y129.455 Z9.26
X67.301 Y129.524 Z9.227
X67.259 Y129.596 Z9.207
X67.216 Y129.671 Z9.2
X66.94 Y130.146 F1000.
G3 X66.188 Y130.346 I-0.476 J-0.276
G2 X0.12 Y141.062 I-26.505 J45.607 F3600.
X-2.663 Y146.307 I9.562 J8.433
Y147.682 I2.663 J0.688
X9.682 Y157.245 I12.345 J-3.188
G1 X69.683
G2 X82.028 Y147.682 I0. J-12.75
Y146.307 I-2.663 J-0.688
X79.245 Y141.062 I-12.345 J3.188
X66.188 Y130.346 I-39.563 J34.891
G3 X65.989 Y129.594 I0.276 J-0.476 F1000.
G1 X66.265 Y129.118
X66.308 Y129.044 Z9.207
X66.35 Y128.971 Z9.227
X66.39 Y128.902 Z9.26
X66.427 Y128.839 Z9.305
X66.46 Y128.782 Z9.361
X66.489 Y128.733 Z9.427
X66.511 Y128.694 Z9.5
X66.528 Y128.666 Z9.58
X66.538 Y128.648 Z9.664
X66.541 Y128.643 Z9.75
G0 Z23.2
X75.322 Y85.113
G1 Z19.2 F1200.
Z12.75
X75.329 Y85.115 Z12.664
X75.347 Y85.123 Z12.58
X75.378 Y85.136 Z12.5
X75.419 Y85.153 Z12.427
X75.471 Y85.174 Z12.361
X75.532 Y85.199 Z12.305
X75.6 Y85.227 Z12.26
X75.674 Y85.258 Z12.227
X75.751 Y85.29 Z12.207
X75.831 Y85.322 Z12.2
X76.339 Y85.532 F1000.
G3 X76.638 Y86.25 I-0.21 J0.509
G2 X78.864 Y99.541 I11.788 J4.858 F3600.
X157.99 I39.563 J-34.891
X148.427 Y78.358 I-9.563 J-8.433
G1 X88.427
G2 X76.638 Y86.25 I0. J12.75
G3 X75.92 Y86.549 I-0.509 J-0.21 F1000.
G1 X75.412 Y86.339
X75.332 Y86.307 Z12.207
X75.255 Y86.275 Z12.227
X75.181 Y86.244 Z12.26
X75.113 Y86.216 Z12.305
X75.052 Y86.191 Z12.361
X75. Y86.17 Z12.427
X74.959 Y86.153 Z12.5
X74.928 Y86.14 Z12.58
X74.909 Y86.132 Z12.664
X74.903 Y86.13 Z12.75
G0 Z23.2
X75.322 Y85.113
G1 Z16.2 F1200.
Z9.75
X75.329 Y85.115 Z9.664
X75.347 Y85.123 Z9.58
X75.378 Y85.136 Z9.5
X75.419 Y85.153 Z9.427
X75.471 Y85.174 Z9.361
X75.532 Y85.199 Z9.305
X75.6 Y85.227 Z9.26
X75.674 Y85.258 Z9.227
X75.751 Y85.29 Z9.207
X75.831 Y85.322 Z9.2
X76.339 Y85.532 F1000.
G3 X76.638 Y86.25 I-0.21 J0.509
G2 X78.864 Y99.541 I11.788 J4.858 F3600.
X157.99 I39.563 J-34.891
X148.427 Y78.358 I-9.563 J-8.433
G1 X88.427
G2 X76.638 Y86.25 I0. J12.75
G3 X75.92 Y86.549 I-0.509 J-0.21 F1000.
G1 X75.412 Y86.339
X75.332 Y86.307 Z9.207
X75.255 Y86.275 Z9.227
X75.181 Y86.244 Z9.26
X75.113 Y86.216 Z9.305
X75.052 Y86.191 Z9.361
X75. Y86.17 Z9.427
X74.959 Y86.153 Z9.5
X74.928 Y86.14 Z9.58
X74.909 Y86.132 Z9.664
X74.903 Y86.13 Z9.75
G0 Z23.2
X67.492 Y88.641
G1 Z16.2 F1200.
Z9.75
X67.489 Y88.647 Z9.664
X67.479 Y88.665 Z9.58
X67.462 Y88.693 Z9.5
X67.44 Y88.732 Z9.427
X67.411 Y88.781 Z9.361
X67.378 Y88.837 Z9.305
X67.342 Y88.901 Z9.26
X67.301 Y88.97 Z9.227
X67.259 Y89.042 Z9.207
X67.216 Y89.117 Z9.2
X66.94 Y89.592 F1000.
G3 X66.188 Y89.792 I-0.476 J-0.276
G2 X0.12 Y100.508 I-26.505 J45.607 F3600.
X-2.663 Y105.753 I9.562 J8.433
Y107.129 I2.663 J0.688
X9.682 Y116.691 I12.345 J-3.188
G1 X69.683
G2 X82.028 Y107.128 I0. J-12.75
Y105.753 I-2.663 J-0.687
X79.245 Y100.508 I-12.345 J3.188
X66.188 Y89.792 I-39.563 J34.891
G3 X65.989 Y89.04 I0.276 J-0.476 F1000.
G1 X66.265 Y88.564
X66.308 Y88.49 Z9.207
X66.35 Y88.417 Z9.227
X66.39 Y88.348 Z9.26
X66.427 Y88.285 Z9.305
X66.46 Y88.228 Z9.361
X66.489 Y88.179 Z9.427
X66.511 Y88.14 Z9.5
X66.528 Y88.112 Z9.58
X66.538 Y88.094 Z9.664
X66.541 Y88.089 Z9.75
G0 Z23.2
X67.492 Y88.641
G1 Z13.2 F1200.
Z6.75
X67.489 Y88.647 Z6.664
X67.479 Y88.665 Z6.58
X67.462 Y88.693 Z6.5
X67.44 Y88.732 Z6.427
X67.411 Y88.781 Z6.361
X67.378 Y88.837 Z6.305
X67.342 Y88.901 Z6.26
X67.301 Y88.97 Z6.227
X67.259 Y89.042 Z6.207
X67.216 Y89.117 Z6.2
X66.94 Y89.592 F1000.
G3 X66.188 Y89.792 I-0.476 J-0.276
G2 X0.12 Y100.508 I-26.505 J45.607 F3600.
X-2.663 Y105.753 I9.562 J8.433
Y107.129 I2.663 J0.688
X9.682 Y116.691 I12.345 J-3.188
G1 X69.683
G2 X82.028 Y107.128 I0. J-12.75
Y105.753 I-2.663 J-0.687
X79.245 Y100.508 I-12.345 J3.188
X66.188 Y89.792 I-39.563 J34.891
G3 X65.989 Y89.04 I0.276 J-0.476 F1000.
G1 X66.265 Y88.564
X66.308 Y88.49 Z6.207
X66.35 Y88.417 Z6.227
X66.39 Y88.348 Z6.26
X66.427 Y88.285 Z6.305
X66.46 Y88.228 Z6.361
X66.489 Y88.179 Z6.427
X66.511 Y88.14 Z6.5
X66.528 Y88.112 Z6.58
X66.538 Y88.094 Z6.664
X66.541 Y88.089 Z6.75
G0 Z23.2
X75.322 Y44.559
G1 Z16.2 F1200.
Z9.75
X75.329 Y44.561 Z9.664
X75.347 Y44.569 Z9.58
X75.378 Y44.582 Z9.5
X75.419 Y44.599 Z9.427
X75.471 Y44.62 Z9.361
X75.532 Y44.645 Z9.305
X75.6 Y44.673 Z9.26
X75.674 Y44.704 Z9.227
X75.751 Y44.736 Z9.207
X75.831 Y44.768 Z9.2
X76.339 Y44.978 F1000.
G3 X76.638 Y45.696 I-0.21 J0.509
G2 X78.864 Y58.987 I11.788 J4.858 F3600.
X157.99 I39.563 J-34.891
X148.427 Y37.804 I-9.563 J-8.433
G1 X88.427
G2 X76.638 Y45.696 I0. J12.75
G3 X75.92 Y45.995 I-0.509 J-0.21 F1000.
G1 X75.412 Y45.785
X75.332 Y45.753 Z9.207
X75.255 Y45.721 Z9.227
X75.181 Y45.69 Z9.26
X75.113 Y45.662 Z9.305
X75.052 Y45.637 Z9.361
X75. Y45.616 Z9.427
X74.959 Y45.599 Z9.5
X74.928 Y45.586 Z9.58
X74.909 Y45.578 Z9.664
X74.903 Y45.576 Z9.75
G0 Z23.2
X75.322 Y44.559
G1 Z13.2 F1200.
Z6.75
X75.329 Y44.561 Z6.664
X75.347 Y44.569 Z6.58
X75.378 Y44.582 Z6.5
X75.419 Y44.599 Z6.427
X75.471 Y44.62 Z6.361
X75.532 Y44.645 Z6.305
X75.6 Y44.673 Z6.26
X75.674 Y44.704 Z6.227
X75.751 Y44.736 Z6.207
X75.831 Y44.768 Z6.2
X76.339 Y44.978 F1000.
G3 X76.638 Y45.696 I-0.21 J0.509
G2 X78.864 Y58.987 I11.788 J4.858 F3600.
X157.99 I39.563 J-34.891
X148.427 Y37.804 I-9.563 J-8.433
G1 X88.427
G2 X76.638 Y45.696 I0. J12.75
G3 X75.92 Y45.995 I-0.509 J-0.21 F1000.
G1 X75.412 Y45.785
X75.332 Y45.753 Z6.207
X75.255 Y45.721 Z6.227
X75.181 Y45.69 Z6.26
X75.113 Y45.662 Z6.305
X75.052 Y45.637 Z6.361
X75. Y45.616 Z6.427
X74.959 Y45.599 Z6.5
X74.928 Y45.586 Z6.58
X74.909 Y45.578 Z6.664
X74.903 Y45.576 Z6.75
G0 Z23.2
X67.492 Y48.087
G1 Z13.2 F1200.
Z6.75
X67.489 Y48.093 Z6.664
X67.479 Y48.111 Z6.58
X67.462 Y48.139 Z6.5
X67.44 Y48.178 Z6.427
X67.411 Y48.227 Z6.361
X67.379 Y48.283 Z6.305
X67.342 Y48.347 Z6.26
X67.301 Y48.416 Z6.227
X67.259 Y48.488 Z6.207
X67.216 Y48.563 Z6.2
X66.94 Y49.038 F1000.
G3 X66.188 Y49.238 I-0.476 J-0.276
G2 X0.12 Y59.954 I-26.505 J45.607 F3600.
X-2.663 Y65.2 I9.563 J8.433
Y66.575 I2.663 J0.687
X9.682 Y76.137 I12.345 J-3.188
G1 X69.683
G2 X82.028 Y66.575 I0. J-12.75
Y65.2 I-2.663 J-0.688
X79.245 Y59.954 I-12.345 J3.187
X66.188 Y49.238 I-39.563 J34.891
G3 X65.989 Y48.486 I0.276 J-0.476 F1000.
G1 X66.265 Y48.01
X66.308 Y47.936 Z6.207
X66.35 Y47.863 Z6.227
X66.39 Y47.794 Z6.26
X66.427 Y47.731 Z6.305
X66.46 Y47.674 Z6.361
X66.489 Y47.625 Z6.427
X66.511 Y47.586 Z6.5
X66.528 Y47.558 Z6.58
X66.538 Y47.54 Z6.664
X66.541 Y47.535 Z6.75
G0 Z23.2
X67.492 Y48.087
G1 Z10.2 F1200.
Z3.75
X67.489 Y48.093 Z3.664
X67.479 Y48.111 Z3.58
X67.462 Y48.139 Z3.5
X67.44 Y48.178 Z3.427
X67.411 Y48.227 Z3.361
X67.379 Y48.283 Z3.305
X67.342 Y48.347 Z3.26
X67.301 Y48.416 Z3.227
X67.259 Y48.488 Z3.207
X67.216 Y48.563 Z3.2
X66.94 Y49.038 F1000.
G3 X66.188 Y49.238 I-0.476 J-0.276
G2 X0.12 Y59.954 I-26.505 J45.607 F3600.
X-2.663 Y65.2 I9.563 J8.433
Y66.575 I2.663 J0.687
X9.682 Y76.137 I12.345 J-3.188
G1 X69.683
G2 X82.028 Y66.575 I0. J-12.75
Y65.2 I-2.663 J-0.688
X79.245 Y59.954 I-12.345 J3.187
X66.188 Y49.238 I-39.563 J34.891
G3 X65.989 Y48.486 I0.276 J-0.476 F1000.
G1 X66.265 Y48.01
X66.308 Y47.936 Z3.207
X66.35 Y47.863 Z3.227
X66.39 Y47.794 Z3.26
X66.427 Y47.731 Z3.305
X66.46 Y47.674 Z3.361
X66.489 Y47.625 Z3.427
X66.511 Y47.586 Z3.5
X66.528 Y47.558 Z3.58
X66.538 Y47.54 Z3.664
X66.541 Y47.535 Z3.75
G0 Z23.2
X87.628 Y28.388
G1 Z13.2 F1200.
Z6.75
X87.631 Y28.382 Z6.664
X87.643 Y28.365 Z6.58
X87.661 Y28.338 Z6.5
X87.686 Y28.3 Z6.427
X87.717 Y28.254 Z6.361
X87.754 Y28.199 Z6.305
X87.795 Y28.138 Z6.26
X87.839 Y28.072 Z6.227
X87.886 Y28.003 Z6.207
X87.934 Y27.931 Z6.2
X88.241 Y27.475 F1000.
G3 X89.004 Y27.325 I0.456 J0.307
G2 X157.99 Y18.433 I29.422 J-43.782 F3600.
X148.427 Y-2.75 I-9.563 J-8.433
G1 X88.427
G2 X78.864 Y18.433 I0. J12.75
X89.004 Y27.325 I39.563 J-34.891
G3 X89.154 Y28.088 I-0.307 J0.456 F1000.
G1 X88.847 Y28.545
X88.799 Y28.616 Z6.207
X88.752 Y28.686 Z6.227
X88.708 Y28.752 Z6.26
X88.667 Y28.813 Z6.305
X88.63 Y28.867 Z6.361
X88.599 Y28.914 Z6.427
X88.574 Y28.951 Z6.5
X88.556 Y28.979 Z6.58
X88.544 Y28.996 Z6.664
X88.541 Y29.001 Z6.75
G0 Z23.2
X87.628 Y28.388
G1 Z10.2 F1200.
Z3.75
X87.631 Y28.382 Z3.664
X87.643 Y28.365 Z3.58
X87.661 Y28.338 Z3.5
X87.686 Y28.3 Z3.427
X87.717 Y28.254 Z3.361
X87.754 Y28.199 Z3.305
X87.795 Y28.138 Z3.26
X87.839 Y28.072 Z3.227
X87.886 Y28.003 Z3.207
X87.934 Y27.931 Z3.2
X88.241 Y27.475 F1000.
G3 X89.004 Y27.325 I0.456 J0.307
G2 X157.99 Y18.433 I29.422 J-43.782 F3600.
X148.427 Y-2.75 I-9.563 J-8.433
G1 X88.427
G2 X78.864 Y18.433 I0. J12.75
X89.004 Y27.325 I39.563 J-34.891
G3 X89.154 Y28.088 I-0.307 J0.456 F1000.
G1 X88.847 Y28.545
X88.799 Y28.616 Z3.207
X88.752 Y28.686 Z3.227
X88.708 Y28.752 Z3.26
X88.667 Y28.813 Z3.305
X88.63 Y28.867 Z3.361
X88.599 Y28.914 Z3.427
X88.574 Y28.951 Z3.5
X88.556 Y28.979 Z3.58
X88.544 Y28.996 Z3.664
X88.541 Y29.001 Z3.75
G0 Z23.2
X69.265 Y37.238
G1 Z10.2 F1200.
Z3.75
Y37.231 Z3.664
Y37.211 Z3.58
Y37.178 Z3.5
X69.264 Y37.133 Z3.427
Y37.077 Z3.361
X69.263 Y37.011 Z3.305
Y36.938 Z3.26
X69.262 Y36.858 Z3.227
X69.261 Y36.774 Z3.207
X69.26 Y36.688 Z3.2
X69.255 Y36.138 F1000.
G3 X69.8 Y35.583 I0.55 J-0.005
G2 X82.028 Y26.021 I-0.118 J-12.749 F3600.
Y24.646 I-2.663 J-0.687
X79.245 Y19.4 I-12.345 J3.187
X0.12 I-39.563 J34.891
X-2.663 Y24.646 I9.563 J8.433
Y26.021 I2.663 J0.687
X9.682 Y35.583 I12.345 J-3.188
G1 X69.683
X69.8
G3 X70.355 Y36.128 I0.005 J0.55 F1000.
G1 X70.36 Y36.678
X70.361 Y36.764 Z3.207
X70.362 Y36.848 Z3.227
Y36.927 Z3.26
X70.363 Y37.001 Z3.305
X70.364 Y37.067 Z3.361
Y37.123 Z3.427
X70.365 Y37.168 Z3.5
Y37.201 Z3.58
Y37.221 Z3.664
Y37.228 Z3.75
G0 Z23.2
X69.265 Y37.238
G1 Z7.2 F1200.
Z2.15
Y37.231 Z2.064
Y37.211 Z1.98
Y37.178 Z1.9
X69.264 Y37.133 Z1.827
Y37.077 Z1.761
X69.263 Y37.011 Z1.705
Y36.938 Z1.66
X69.262 Y36.858 Z1.627
X69.261 Y36.774 Z1.607
X69.26 Y36.688 Z1.6
X69.255 Y36.138 F1000.
G3 X69.8 Y35.583 I0.55 J-0.005
G2 X82.028 Y26.021 I-0.118 J-12.749 F3600.
Y24.646 I-2.663 J-0.687
X79.245 Y19.4 I-12.345 J3.187
X0.12 I-39.563 J34.891
X-2.663 Y24.646 I9.563 J8.433
Y26.021 I2.663 J0.687
X9.682 Y35.583 I12.345 J-3.188
G1 X69.683
X69.8
G3 X70.355 Y36.128 I0.005 J0.55 F1000.
G1 X70.36 Y36.678
X70.361 Y36.764 Z1.607
X70.362 Y36.848 Z1.627
Y36.927 Z1.66
X70.363 Y37.001 Z1.705
X70.364 Y37.067 Z1.761
Y37.123 Z1.827
X70.365 Y37.168 Z1.9
Y37.201 Z1.98
Y37.221 Z2.064
Y37.228 Z2.15
G0 Z23.2
X75.323 Y125.667
G1 Z16.2 F1200.
Z9.75
X75.329 Y125.669 Z9.664
X75.347 Y125.677 Z9.58
X75.378 Y125.69 Z9.5
X75.42 Y125.707 Z9.427
X75.471 Y125.728 Z9.361
X75.532 Y125.753 Z9.305
X75.6 Y125.781 Z9.26
X75.674 Y125.812 Z9.227
X75.752 Y125.844 Z9.207
X75.831 Y125.876 Z9.2
X76.34 Y126.086 F1000.
G3 X76.639 Y126.804 I-0.21 J0.509
G2 X78.864 Y140.095 I11.788 J4.858 F3600.
X157.99 I39.563 J-34.891
X148.427 Y118.912 I-9.563 J-8.433
G1 X118.267
X88.427
G2 X76.639 Y126.804 I0. J12.75
G3 X75.92 Y127.103 I-0.509 J-0.21 F1000.
G1 X75.412 Y126.893
X75.332 Y126.861 Z9.207
X75.255 Y126.829 Z9.227
X75.181 Y126.798 Z9.26
X75.113 Y126.77 Z9.305
X75.052 Y126.745 Z9.361
X75.001 Y126.724 Z9.427
X74.959 Y126.707 Z9.5
X74.928 Y126.694 Z9.58
X74.91 Y126.686 Z9.664
X74.903 Y126.684 Z9.75
G0 Z23.2
X75.323 Y125.667
G1 Z13.2 F1200.
Z6.75
X75.329 Y125.669 Z6.664
X75.347 Y125.677 Z6.58
X75.378 Y125.69 Z6.5
X75.42 Y125.707 Z6.427
X75.471 Y125.728 Z6.361
X75.532 Y125.753 Z6.305
X75.6 Y125.781 Z6.26
X75.674 Y125.812 Z6.227
X75.752 Y125.844 Z6.207
X75.831 Y125.876 Z6.2
X76.34 Y126.086 F1000.
G3 X76.639 Y126.804 I-0.21 J0.509
G2 X78.864 Y140.095 I11.788 J4.858 F3600.
X157.99 I39.563 J-34.891
X148.427 Y118.912 I-9.563 J-8.433
G1 X118.267
X88.427
G2 X76.639 Y126.804 I0. J12.75
G3 X75.92 Y127.103 I-0.509 J-0.21 F1000.
G1 X75.412 Y126.893
X75.332 Y126.861 Z6.207
X75.255 Y126.829 Z6.227
X75.181 Y126.798 Z6.26
X75.113 Y126.77 Z6.305
X75.052 Y126.745 Z6.361
X75.001 Y126.724 Z6.427
X74.959 Y126.707 Z6.5
X74.928 Y126.694 Z6.58
X74.91 Y126.686 Z6.664
X74.903 Y126.684 Z6.75
G0 Z23.2
X67.492 Y129.195
G1 Z13.2 F1200.
Z6.75
X67.489 Y129.201 Z6.664
X67.479 Y129.219 Z6.58
X67.462 Y129.247 Z6.5
X67.44 Y129.286 Z6.427
X67.411 Y129.335 Z6.361
X67.378 Y129.391 Z6.305
X67.341 Y129.455 Z6.26
X67.301 Y129.524 Z6.227
X67.259 Y129.596 Z6.207
X67.216 Y129.671 Z6.2
X66.94 Y130.146 F1000.
G3 X66.188 Y130.346 I-0.476 J-0.276
G2 X0.12 Y141.062 I-26.505 J45.607 F3600.
X-2.663 Y146.307 I9.562 J8.433
Y147.682 I2.663 J0.688
X9.682 Y157.245 I12.345 J-3.188
G1 X69.683
G2 X82.028 Y147.682 I0. J-12.75
Y146.307 I-2.663 J-0.688
X79.245 Y141.062 I-12.345 J3.188
X66.188 Y130.346 I-39.563 J34.891
G3 X65.989 Y129.594 I0.276 J-0.476 F1000.
G1 X66.265 Y129.118
X66.308 Y129.044 Z6.207
X66.35 Y128.971 Z6.227
X66.39 Y128.902 Z6.26
X66.427 Y128.839 Z6.305
X66.46 Y128.782 Z6.361
X66.489 Y128.733 Z6.427
X66.511 Y128.694 Z6.5
X66.528 Y128.666 Z6.58
X66.538 Y128.648 Z6.664
X66.541 Y128.643 Z6.75
G0 Z23.2
X67.492 Y129.195
G1 Z10.2 F1200.
Z3.75
X67.489 Y129.201 Z3.664
X67.479 Y129.219 Z3.58
X67.462 Y129.247 Z3.5
X67.44 Y129.286 Z3.427
X67.411 Y129.335 Z3.361
X67.378 Y129.391 Z3.305
X67.341 Y129.455 Z3.26
X67.301 Y129.524 Z3.227
X67.259 Y129.596 Z3.207
X67.216 Y129.671 Z3.2
X66.94 Y130.146 F1000.
G3 X66.188 Y130.346 I-0.476 J-0.276
G2 X0.12 Y141.062 I-26.505 J45.607 F3600.
X-2.663 Y146.307 I9.562 J8.433
Y147.682 I2.663 J0.688
X9.682 Y157.245 I12.345 J-3.188
G1 X69.683
G2 X82.028 Y147.682 I0. J-12.75
Y146.307 I-2.663 J-0.688
X79.245 Y141.062 I-12.345 J3.188
X66.188 Y130.346 I-39.563 J34.891
G3 X65.989 Y129.594 I0.276 J-0.476 F1000.
G1 X66.265 Y129.118
X66.308 Y129.044 Z3.207
X66.35 Y128.971 Z3.227
X66.39 Y128.902 Z3.26
X66.427 Y128.839 Z3.305
X66.46 Y128.782 Z3.361
X66.489 Y128.733 Z3.427
X66.511 Y128.694 Z3.5
X66.528 Y128.666 Z3.58
X66.538 Y128.648 Z3.664
X66.541 Y128.643 Z3.75
G0 Z23.2
X75.322 Y85.113
G1 Z13.2 F1200.
Z6.75
X75.329 Y85.115 Z6.664
X75.347 Y85.123 Z6.58
X75.378 Y85.136 Z6.5
X75.419 Y85.153 Z6.427
X75.471 Y85.174 Z6.361
X75.532 Y85.199 Z6.305
X75.6 Y85.227 Z6.26
X75.674 Y85.258 Z6.227
X75.751 Y85.29 Z6.207
X75.831 Y85.322 Z6.2
X76.339 Y85.532 F1000.
G3 X76.638 Y86.25 I-0.21 J0.509
G2 X78.864 Y99.541 I11.788 J4.858 F3600.
X157.99 I39.563 J-34.891
X148.427 Y78.358 I-9.563 J-8.433
G1 X88.427
G2 X76.638 Y86.25 I0. J12.75
G3 X75.92 Y86.549 I-0.509 J-0.21 F1000.
G1 X75.412 Y86.339
X75.332 Y86.307 Z6.207
X75.255 Y86.275 Z6.227
X75.181 Y86.244 Z6.26
X75.113 Y86.216 Z6.305
X75.052 Y86.191 Z6.361
X75. Y86.17 Z6.427
X74.959 Y86.153 Z6.5
X74.928 Y86.14 Z6.58
X74.909 Y86.132 Z6.664
X74.903 Y86.13 Z6.75
G0 Z23.2
X75.322 Y85.113
G1 Z10.2 F1200.
Z3.75
X75.329 Y85.115 Z3.664
X75.347 Y85.123 Z3.58
X75.378 Y85.136 Z3.5
X75.419 Y85.153 Z3.427
X75.471 Y85.174 Z3.361
X75.532 Y85.199 Z3.305
X75.6 Y85.227 Z3.26
X75.674 Y85.258 Z3.227
X75.751 Y85.29 Z3.207
X75.831 Y85.322 Z3.2
X76.339 Y85.532 F1000.
G3 X76.638 Y86.25 I-0.21 J0.509
G2 X78.864 Y99.541 I11.788 J4.858 F3600.
X157.99 I39.563 J-34.891
X148.427 Y78.358 I-9.563 J-8.433
G1 X88.427
G2 X76.638 Y86.25 I0. J12.75
G3 X75.92 Y86.549 I-0.509 J-0.21 F1000.
G1 X75.412 Y86.339
X75.332 Y86.307 Z3.207
X75.255 Y86.275 Z3.227
X75.181 Y86.244 Z3.26
X75.113 Y86.216 Z3.305
X75.052 Y86.191 Z3.361
X75. Y86.17 Z3.427
X74.959 Y86.153 Z3.5
X74.928 Y86.14 Z3.58
X74.909 Y86.132 Z3.664
X74.903 Y86.13 Z3.75
G0 Z23.2
X67.492 Y88.641
G1 Z10.2 F1200.
Z3.75
X67.489 Y88.647 Z3.664
X67.479 Y88.665 Z3.58
X67.462 Y88.693 Z3.5
X67.44 Y88.732 Z3.427
X67.411 Y88.781 Z3.361
X67.378 Y88.837 Z3.305
X67.342 Y88.901 Z3.26
X67.301 Y88.97 Z3.227
X67.259 Y89.042 Z3.207
X67.216 Y89.117 Z3.2
X66.94 Y89.592 F1000.
G3 X66.188 Y89.792 I-0.476 J-0.276
G2 X0.12 Y100.508 I-26.505 J45.607 F3600.
X-2.663 Y105.753 I9.562 J8.433
Y107.129 I2.663 J0.688
X9.682 Y116.691 I12.345 J-3.188
G1 X69.683
G2 X82.028 Y107.128 I0. J-12.75
Y105.753 I-2.663 J-0.687
X79.245 Y100.508 I-12.345 J3.188
X66.188 Y89.792 I-39.563 J34.891
G3 X65.989 Y89.04 I0.276 J-0.476 F1000.
G1 X66.265 Y88.564
X66.308 Y88.49 Z3.207
X66.35 Y88.417 Z3.227
X66.39 Y88.348 Z3.26
X66.427 Y88.285 Z3.305
X66.46 Y88.228 Z3.361
X66.489 Y88.179 Z3.427
X66.511 Y88.14 Z3.5
X66.528 Y88.112 Z3.58
X66.538 Y88.094 Z3.664
X66.541 Y88.089 Z3.75
G0 Z23.2
X67.492 Y88.641
G1 Z7.2 F1200.
Z2.15
X67.489 Y88.647 Z2.064
X67.479 Y88.665 Z1.98
X67.462 Y88.693 Z1.9
X67.44 Y88.732 Z1.827
X67.411 Y88.781 Z1.761
X67.378 Y88.837 Z1.705
X67.342 Y88.901 Z1.66
X67.301 Y88.97 Z1.627
X67.259 Y89.042 Z1.607
X67.216 Y89.117 Z1.6
X66.94 Y89.592 F1000.
G3 X66.188 Y89.792 I-0.476 J-0.276
G2 X0.12 Y100.508 I-26.505 J45.607 F3600.
X-2.663 Y105.753 I9.562 J8.433
Y107.129 I2.663 J0.688
X9.682 Y116.691 I12.345 J-3.188
G1 X69.683
G2 X82.028 Y107.128 I0. J-12.75
Y105.753 I-2.663 J-0.687
X79.245 Y100.508 I-12.345 J3.188
X66.188 Y89.792 I-39.563 J34.891
G3 X65.989 Y89.04 I0.276 J-0.476 F1000.
G1 X66.265 Y88.564
X66.308 Y88.49 Z1.607
X66.35 Y88.417 Z1.627
X66.39 Y88.348 Z1.66
X66.427 Y88.285 Z1.705
X66.46 Y88.228 Z1.761
X66.489 Y88.179 Z1.827
X66.511 Y88.14 Z1.9
X66.528 Y88.112 Z1.98
X66.538 Y88.094 Z2.064
X66.541 Y88.089 Z2.15
G0 Z23.2
X75.322 Y44.559
G1 Z10.2 F1200.
Z3.75
X75.329 Y44.561 Z3.664
X75.347 Y44.569 Z3.58
X75.378 Y44.582 Z3.5
X75.419 Y44.599 Z3.427
X75.471 Y44.62 Z3.361
X75.532 Y44.645 Z3.305
X75.6 Y44.673 Z3.26
X75.674 Y44.704 Z3.227
X75.751 Y44.736 Z3.207
X75.831 Y44.768 Z3.2
X76.339 Y44.978 F1000.
G3 X76.638 Y45.696 I-0.21 J0.509
G2 X78.864 Y58.987 I11.788 J4.858 F3600.
X157.99 I39.563 J-34.891
X148.427 Y37.804 I-9.563 J-8.433
G1 X88.427
G2 X76.638 Y45.696 I0. J12.75
G3 X75.92 Y45.995 I-0.509 J-0.21 F1000.
G1 X75.412 Y45.785
X75.332 Y45.753 Z3.207
X75.255 Y45.721 Z3.227
X75.181 Y45.69 Z3.26
X75.113 Y45.662 Z3.305
X75.052 Y45.637 Z3.361
X75. Y45.616 Z3.427
X74.959 Y45.599 Z3.5
X74.928 Y45.586 Z3.58
X74.909 Y45.578 Z3.664
X74.903 Y45.576 Z3.75
G0 Z23.2
X75.322 Y44.559
G1 Z7.2 F1200.
Z2.15
X75.329 Y44.561 Z2.064
X75.347 Y44.569 Z1.98
X75.378 Y44.582 Z1.9
X75.419 Y44.599 Z1.827
X75.471 Y44.62 Z1.761
X75.532 Y44.645 Z1.705
X75.6 Y44.673 Z1.66
X75.674 Y44.704 Z1.627
X75.751 Y44.736 Z1.607
X75.831 Y44.768 Z1.6
X76.339 Y44.978 F1000.
G3 X76.638 Y45.696 I-0.21 J0.509
G2 X78.864 Y58.987 I11.788 J4.858 F3600.
X157.99 I39.563 J-34.891
X148.427 Y37.804 I-9.563 J-8.433
G1 X88.427
G2 X76.638 Y45.696 I0. J12.75
G3 X75.92 Y45.995 I-0.509 J-0.21 F1000.
G1 X75.412 Y45.785
X75.332 Y45.753 Z1.607
X75.255 Y45.721 Z1.627
X75.181 Y45.69 Z1.66
X75.113 Y45.662 Z1.705
X75.052 Y45.637 Z1.761
X75. Y45.616 Z1.827
X74.959 Y45.599 Z1.9
X74.928 Y45.586 Z1.98
X74.909 Y45.578 Z2.064
X74.903 Y45.576 Z2.15
G0 Z23.2
X67.492 Y48.087
G1 Z7.2 F1200.
Z2.15
X67.489 Y48.093 Z2.064
X67.479 Y48.111 Z1.98
X67.462 Y48.139 Z1.9
X67.44 Y48.178 Z1.827
X67.411 Y48.227 Z1.761
X67.379 Y48.283 Z1.705
X67.342 Y48.347 Z1.66
X67.301 Y48.416 Z1.627
X67.259 Y48.488 Z1.607
X67.216 Y48.563 Z1.6
X66.94 Y49.038 F1000.
G3 X66.188 Y49.238 I-0.476 J-0.276
G2 X0.12 Y59.954 I-26.505 J45.607 F3600.
X-2.663 Y65.2 I9.563 J8.433
Y66.575 I2.663 J0.687
X9.682 Y76.137 I12.345 J-3.188
G1 X69.683
G2 X82.028 Y66.575 I0. J-12.75
Y65.2 I-2.663 J-0.688
X79.245 Y59.954 I-12.345 J3.187
X66.188 Y49.238 I-39.563 J34.891
G3 X65.989 Y48.486 I0.276 J-0.476 F1000.
G1 X66.265 Y48.01
X66.308 Y47.936 Z1.607
X66.35 Y47.863 Z1.627
X66.39 Y47.794 Z1.66
X66.427 Y47.731 Z1.705
X66.46 Y47.674 Z1.761
X66.489 Y47.625 Z1.827
X66.511 Y47.586 Z1.9
X66.528 Y47.558 Z1.98
X66.538 Y47.54 Z2.064
X66.541 Y47.535 Z2.15
G0 Z23.2
X67.492 Y48.087
G1 Z5.6 F1200.
Z0.55
X67.489 Y48.093 Z0.464
X67.479 Y48.111 Z0.38
X67.462 Y48.139 Z0.3
X67.44 Y48.178 Z0.227
X67.411 Y48.227 Z0.161
X67.379 Y48.283 Z0.105
X67.342 Y48.347 Z0.06
X67.301 Y48.416 Z0.027
X67.259 Y48.488 Z0.007
X67.216 Y48.563 Z0.
X66.94 Y49.038 F1000.
G3 X66.188 Y49.238 I-0.476 J-0.276
G2 X0.12 Y59.954 I-26.505 J45.607 F3600.
X-2.663 Y65.2 I9.563 J8.433
Y66.575 I2.663 J0.687
X9.682 Y76.137 I12.345 J-3.188
G1 X69.683
G2 X82.028 Y66.575 I0. J-12.75
Y65.2 I-2.663 J-0.688
X79.245 Y59.954 I-12.345 J3.187
X66.188 Y49.238 I-39.563 J34.891
G3 X65.989 Y48.486 I0.276 J-0.476 F1000.
G1 X66.265 Y48.01
X66.308 Y47.936 Z0.007
X66.35 Y47.863 Z0.027
X66.39 Y47.794 Z0.06
X66.427 Y47.731 Z0.105
X66.46 Y47.674 Z0.161
X66.489 Y47.625 Z0.227
X66.511 Y47.586 Z0.3
X66.528 Y47.558 Z0.38
X66.538 Y47.54 Z0.464
X66.541 Y47.535 Z0.55
G0 Z23.2
X87.628 Y28.388
G1 Z7.2 F1200.
Z2.15
X87.631 Y28.382 Z2.064
X87.643 Y28.365 Z1.98
X87.661 Y28.338 Z1.9
X87.686 Y28.3 Z1.827
X87.717 Y28.254 Z1.761
X87.754 Y28.199 Z1.705
X87.795 Y28.138 Z1.66
X87.839 Y28.072 Z1.627
X87.886 Y28.003 Z1.607
X87.934 Y27.931 Z1.6
X88.241 Y27.475 F1000.
G3 X89.004 Y27.325 I0.456 J0.307
G2 X157.99 Y18.433 I29.422 J-43.782 F3600.
X148.427 Y-2.75 I-9.563 J-8.433
G1 X88.427
G2 X78.864 Y18.433 I0. J12.75
X89.004 Y27.325 I39.563 J-34.891
G3 X89.154 Y28.088 I-0.307 J0.456 F1000.
G1 X88.847 Y28.545
X88.799 Y28.616 Z1.607
X88.752 Y28.686 Z1.627
X88.708 Y28.752 Z1.66
X88.667 Y28.813 Z1.705
X88.63 Y28.867 Z1.761
X88.599 Y28.914 Z1.827
X88.574 Y28.951 Z1.9
X88.556 Y28.979 Z1.98
X88.544 Y28.996 Z2.064
X88.541 Y29.001 Z2.15
G0 Z23.2
X87.628 Y28.388
G1 Z5.6 F1200.
Z0.55
X87.631 Y28.382 Z0.464
X87.643 Y28.365 Z0.38
X87.661 Y28.338 Z0.3
X87.686 Y28.3 Z0.227
X87.717 Y28.254 Z0.161
X87.754 Y28.199 Z0.105
X87.795 Y28.138 Z0.06
X87.839 Y28.072 Z0.027
X87.886 Y28.003 Z0.007
X87.934 Y27.931 Z0.
X88.241 Y27.475 F1000.
G3 X89.004 Y27.325 I0.456 J0.307
G2 X157.99 Y18.433 I29.422 J-43.782 F3600.
X148.427 Y-2.75 I-9.563 J-8.433
G1 X88.427
G2 X78.864 Y18.433 I0. J12.75
X89.004 Y27.325 I39.563 J-34.891
G3 X89.154 Y28.088 I-0.307 J0.456 F1000.
G1 X88.847 Y28.545
X88.799 Y28.616 Z0.007
X88.752 Y28.686 Z0.027
X88.708 Y28.752 Z0.06
X88.667 Y28.813 Z0.105
X88.63 Y28.867 Z0.161
X88.599 Y28.914 Z0.227
X88.574 Y28.951 Z0.3
X88.556 Y28.979 Z0.38
X88.544 Y28.996 Z0.464
X88.541 Y29.001 Z0.55
G0 Z23.2
X69.265 Y37.238
G1 Z5.6 F1200.
Z0.55
Y37.231 Z0.464
Y37.211 Z0.38
Y37.178 Z0.3
X69.264 Y37.133 Z0.227
Y37.077 Z0.161
X69.263 Y37.011 Z0.105
Y36.938 Z0.06
X69.262 Y36.858 Z0.027
X69.261 Y36.774 Z0.007
X69.26 Y36.688 Z0.
X69.255 Y36.138 F1000.
G3 X69.8 Y35.583 I0.55 J-0.005
G2 X82.028 Y26.021 I-0.118 J-12.749 F3600.
Y24.646 I-2.663 J-0.687
X79.245 Y19.4 I-12.345 J3.187
X0.12 I-39.563 J34.891
X-2.663 Y24.646 I9.563 J8.433
Y26.021 I2.663 J0.687
X9.682 Y35.583 I12.345 J-3.188
G1 X69.683
X69.8
G3 X70.355 Y36.128 I0.005 J0.55 F1000.
G1 X70.36 Y36.678
X70.361 Y36.764 Z0.007
X70.362 Y36.848 Z0.027
Y36.927 Z0.06
X70.363 Y37.001 Z0.105
X70.364 Y37.067 Z0.161
Y37.123 Z0.227
X70.365 Y37.168 Z0.3
Y37.201 Z0.38
Y37.221 Z0.464
Y37.228 Z0.55
G0 Z23.2
X75.323 Y125.667
G1 Z10.2 F1200.
Z3.75
X75.329 Y125.669 Z3.664
X75.347 Y125.677 Z3.58
X75.378 Y125.69 Z3.5
X75.42 Y125.707 Z3.427
X75.471 Y125.728 Z3.361
X75.532 Y125.753 Z3.305
X75.6 Y125.781 Z3.26
X75.674 Y125.812 Z3.227
X75.752 Y125.844 Z3.207
X75.831 Y125.876 Z3.2
X76.34 Y126.086 F1000.
G3 X76.639 Y126.804 I-0.21 J0.509
G2 X78.864 Y140.095 I11.788 J4.858 F3600.
X157.99 I39.563 J-34.891
X148.427 Y118.912 I-9.563 J-8.433
G1 X118.267
X88.427
G2 X76.639 Y126.804 I0. J12.75
G3 X75.92 Y127.103 I-0.509 J-0.21 F1000.
G1 X75.412 Y126.893
X75.332 Y126.861 Z3.207
X75.255 Y126.829 Z3.227
X75.181 Y126.798 Z3.26
X75.113 Y126.77 Z3.305
X75.052 Y126.745 Z3.361
X75.001 Y126.724 Z3.427
X74.959 Y126.707 Z3.5
X74.928 Y126.694 Z3.58
X74.91 Y126.686 Z3.664
X74.903 Y126.684 Z3.75
G0 Z23.2
X75.323 Y125.667
G1 Z7.2 F1200.
Z2.15
X75.329 Y125.669 Z2.064
X75.347 Y125.677 Z1.98
X75.378 Y125.69 Z1.9
X75.42 Y125.707 Z1.827
X75.471 Y125.728 Z1.761
X75.532 Y125.753 Z1.705
X75.6 Y125.781 Z1.66
X75.674 Y125.812 Z1.627
X75.752 Y125.844 Z1.607
X75.831 Y125.876 Z1.6
X76.34 Y126.086 F1000.
G3 X76.639 Y126.804 I-0.21 J0.509
G2 X78.864 Y140.095 I11.788 J4.858 F3600.
X157.99 I39.563 J-34.891
X148.427 Y118.912 I-9.563 J-8.433
G1 X118.267
X88.427
G2 X76.639 Y126.804 I0. J12.75
G3 X75.92 Y127.103 I-0.509 J-0.21 F1000.
G1 X75.412 Y126.893
X75.332 Y126.861 Z1.607
X75.255 Y126.829 Z1.627
X75.181 Y126.798 Z1.66
X75.113 Y126.77 Z1.705
X75.052 Y126.745 Z1.761
X75.001 Y126.724 Z1.827
X74.959 Y126.707 Z1.9
X74.928 Y126.694 Z1.98
X74.91 Y126.686 Z2.064
X74.903 Y126.684 Z2.15
G0 Z23.2
X67.492 Y129.195
G1 Z7.2 F1200.
Z2.15
X67.489 Y129.201 Z2.064
X67.479 Y129.219 Z1.98
X67.462 Y129.247 Z1.9
X67.44 Y129.286 Z1.827
X67.411 Y129.335 Z1.761
X67.378 Y129.391 Z1.705
X67.341 Y129.455 Z1.66
X67.301 Y129.524 Z1.627
X67.259 Y129.596 Z1.607
X67.216 Y129.671 Z1.6
X66.94 Y130.146 F1000.
G3 X66.188 Y130.346 I-0.476 J-0.276
G2 X0.12 Y141.062 I-26.505 J45.607 F3600.
X-2.663 Y146.307 I9.562 J8.433
Y147.682 I2.663 J0.688
X9.682 Y157.245 I12.345 J-3.188
G1 X69.683
G2 X82.028 Y147.682 I0. J-12.75
Y146.307 I-2.663 J-0.688
X79.245 Y141.062 I-12.345 J3.188
X66.188 Y130.346 I-39.563 J34.891
G3 X65.989 Y129.594 I0.276 J-0.476 F1000.
G1 X66.265 Y129.118
X66.308 Y129.044 Z1.607
X66.35 Y128.971 Z1.627
X66.39 Y128.902 Z1.66
X66.427 Y128.839 Z1.705
X66.46 Y128.782 Z1.761
X66.489 Y128.733 Z1.827
X66.511 Y128.694 Z1.9
X66.528 Y128.666 Z1.98
X66.538 Y128.648 Z2.064
X66.541 Y128.643 Z2.15
G0 Z23.2
X67.492 Y129.195
G1 Z5.6 F1200.
Z0.55
X67.489 Y129.201 Z0.464
X67.479 Y129.219 Z0.38
X67.462 Y129.247 Z0.3
X67.44 Y129.286 Z0.227
X67.411 Y129.335 Z0.161
X67.378 Y129.391 Z0.105
X67.341 Y129.455 Z0.06
X67.301 Y129.524 Z0.027
X67.259 Y129.596 Z0.007
X67.216 Y129.671 Z0.
X66.94 Y130.146 F1000.
G3 X66.188 Y130.346 I-0.476 J-0.276
G2 X0.12 Y141.062 I-26.505 J45.607 F3600.
X-2.663 Y146.307 I9.562 J8.433
Y147.682 I2.663 J0.688
X9.682 Y157.245 I12.345 J-3.188
G1 X69.683
G2 X82.028 Y147.682 I0. J-12.75
Y146.307 I-2.663 J-0.688
X79.245 Y141.062 I-12.345 J3.188
X66.188 Y130.346 I-39.563 J34.891
G3 X65.989 Y129.594 I0.276 J-0.476 F1000.
G1 X66.265 Y129.118
X66.308 Y129.044 Z0.007
X66.35 Y128.971 Z0.027
X66.39 Y128.902 Z0.06
X66.427 Y128.839 Z0.105
X66.46 Y128.782 Z0.161
X66.489 Y128.733 Z0.227
X66.511 Y128.694 Z0.3
X66.528 Y128.666 Z0.38
X66.538 Y128.648 Z0.464
X66.541 Y128.643 Z0.55
G0 Z23.2
X75.322 Y85.113
G1 Z7.2 F1200.
Z2.15
X75.329 Y85.115 Z2.064
X75.347 Y85.123 Z1.98
X75.378 Y85.136 Z1.9
X75.419 Y85.153 Z1.827
X75.471 Y85.174 Z1.761
X75.532 Y85.199 Z1.705
X75.6 Y85.227 Z1.66
X75.674 Y85.258 Z1.627
X75.751 Y85.29 Z1.607
X75.831 Y85.322 Z1.6
X76.339 Y85.532 F1000.
G3 X76.638 Y86.25 I-0.21 J0.509
G2 X78.864 Y99.541 I11.788 J4.858 F3600.
X157.99 I39.563 J-34.891
X148.427 Y78.358 I-9.563 J-8.433
G1 X88.427
G2 X76.638 Y86.25 I0. J12.75
G3 X75.92 Y86.549 I-0.509 J-0.21 F1000.
G1 X75.412 Y86.339
X75.332 Y86.307 Z1.607
X75.255 Y86.275 Z1.627
X75.181 Y86.244 Z1.66
X75.113 Y86.216 Z1.705
X75.052 Y86.191 Z1.761
X75. Y86.17 Z1.827
X74.959 Y86.153 Z1.9
X74.928 Y86.14 Z1.98
X74.909 Y86.132 Z2.064
X74.903 Y86.13 Z2.15
G0 Z23.2
X75.322 Y85.113
G1 Z5.6 F1200.
Z0.55
X75.329 Y85.115 Z0.464
X75.347 Y85.123 Z0.38
X75.378 Y85.136 Z0.3
X75.419 Y85.153 Z0.227
X75.471 Y85.174 Z0.161
X75.532 Y85.199 Z0.105
X75.6 Y85.227 Z0.06
X75.674 Y85.258 Z0.027
X75.751 Y85.29 Z0.007
X75.831 Y85.322 Z0.
X76.339 Y85.532 F1000.
G3 X76.638 Y86.25 I-0.21 J0.509
G2 X78.864 Y99.541 I11.788 J4.858 F3600.
X157.99 I39.563 J-34.891
X148.427 Y78.358 I-9.563 J-8.433
G1 X88.427
G2 X76.638 Y86.25 I0. J12.75
G3 X75.92 Y86.549 I-0.509 J-0.21 F1000.
G1 X75.412 Y86.339
X75.332 Y86.307 Z0.007
X75.255 Y86.275 Z0.027
X75.181 Y86.244 Z0.06
X75.113 Y86.216 Z0.105
X75.052 Y86.191 Z0.161
X75. Y86.17 Z0.227
X74.959 Y86.153 Z0.3
X74.928 Y86.14 Z0.38
X74.909 Y86.132 Z0.464
X74.903 Y86.13 Z0.55
G0 Z23.2
X67.492 Y88.641
G1 Z5.6 F1200.
Z0.55
X67.489 Y88.647 Z0.464
X67.479 Y88.665 Z0.38
X67.462 Y88.693 Z0.3
X67.44 Y88.732 Z0.227
X67.411 Y88.781 Z0.161
X67.378 Y88.837 Z0.105
X67.342 Y88.901 Z0.06
X67.301 Y88.97 Z0.027
X67.259 Y89.042 Z0.007
X67.216 Y89.117 Z0.
X66.94 Y89.592 F1000.
G3 X66.188 Y89.792 I-0.476 J-0.276
G2 X0.12 Y100.508 I-26.505 J45.607 F3600.
X-2.663 Y105.753 I9.562 J8.433
Y107.129 I2.663 J0.688
X9.682 Y116.691 I12.345 J-3.188
G1 X69.683
G2 X82.028 Y107.128 I0. J-12.75
Y105.753 I-2.663 J-0.687
X79.245 Y100.508 I-12.345 J3.188
X66.188 Y89.792 I-39.563 J34.891
G3 X65.989 Y89.04 I0.276 J-0.476 F1000.
G1 X66.265 Y88.564
X66.308 Y88.49 Z0.007
X66.35 Y88.417 Z0.027
X66.39 Y88.348 Z0.06
X66.427 Y88.285 Z0.105
X66.46 Y88.228 Z0.161
X66.489 Y88.179 Z0.227
X66.511 Y88.14 Z0.3
X66.528 Y88.112 Z0.38
X66.538 Y88.094 Z0.464
X66.541 Y88.089 Z0.55
G0 Z23.2
X75.322 Y44.559
G1 Z5.6 F1200.
Z0.55
X75.329 Y44.561 Z0.464
X75.347 Y44.569 Z0.38
X75.378 Y44.582 Z0.3
X75.419 Y44.599 Z0.227
X75.471 Y44.62 Z0.161
X75.532 Y44.645 Z0.105
X75.6 Y44.673 Z0.06
X75.674 Y44.704 Z0.027
X75.751 Y44.736 Z0.007
X75.831 Y44.768 Z0.
X76.339 Y44.978 F1000.
G3 X76.638 Y45.696 I-0.21 J0.509
G2 X78.864 Y58.987 I11.788 J4.858 F3600.
X157.99 I39.563 J-34.891
X148.427 Y37.804 I-9.563 J-8.433
G1 X88.427
G2 X76.638 Y45.696 I0. J12.75
G3 X75.92 Y45.995 I-0.509 J-0.21 F1000.
G1 X75.412 Y45.785
X75.332 Y45.753 Z0.007
X75.255 Y45.721 Z0.027
X75.181 Y45.69 Z0.06
X75.113 Y45.662 Z0.105
X75.052 Y45.637 Z0.161
X75. Y45.616 Z0.227
X74.959 Y45.599 Z0.3
X74.928 Y45.586 Z0.38
X74.909 Y45.578 Z0.464
X74.903 Y45.576 Z0.55
G0 Z23.2
X75.323 Y125.667
G1 Z5.6 F1200.
Z0.55
X75.329 Y125.669 Z0.464
X75.347 Y125.677 Z0.38
X75.378 Y125.69 Z0.3
X75.42 Y125.707 Z0.227
X75.471 Y125.728 Z0.161
X75.532 Y125.753 Z0.105
X75.6 Y125.781 Z0.06
X75.674 Y125.812 Z0.027
X75.752 Y125.844 Z0.007
X75.831 Y125.876 Z0.
X76.34 Y126.086 F1000.
G3 X76.639 Y126.804 I-0.21 J0.509
G2 X78.864 Y140.095 I11.788 J4.858 F3600.
X157.99 I39.563 J-34.891
X148.427 Y118.912 I-9.563 J-8.433
G1 X118.267
X88.427
G2 X76.639 Y126.804 I0. J12.75
G3 X75.92 Y127.103 I-0.509 J-0.21 F1000.
G1 X75.412 Y126.893
X75.332 Y126.861 Z0.007
X75.255 Y126.829 Z0.027
X75.181 Y126.798 Z0.06
X75.113 Y126.77 Z0.105
X75.052 Y126.745 Z0.161
X75.001 Y126.724 Z0.227
X74.959 Y126.707 Z0.3
X74.928 Y126.694 Z0.38
X74.91 Y126.686 Z0.464
X74.903 Y126.684 Z0.55
G0 Z33.2

M9
G28 G91 Z0.
G90
G28 G91 X0. Y0.
G90
M30


