(2018-01-26 HACKSAW)
(2018-01-26 HACKSAW)
(T24  D=4. CR=0. TAPER=118DEG - ZMIN=-2.702 - DRILL)
(T42  D=0.1 CR=0. TAPER=45DEG - ZMIN=14.2 - TAPERED MILL)
(T162  D=5.5 CR=0. - ZMIN=0. - FLAT END MILL)
G90 G94 G91.1 G40 G49 G17
G21
G28 G91 Z0.
G90

(DRILL3 3)
M5
M9
T24 M6
S8000 M3
G54
M8
G0 X15.108 Y45.984
Z33.2
Z23.2
G98 G83 X15.108 Y45.984 Z-2.702 R23.2 Q4. F800.
X14.79 Y12.5
X69.79 Y12.596
X70.108 Y46.08
G80
Z33.2
G28 G91 Z0.
G90

(DRILL3 3)
M5
M9
T24 M6
S8000 M3
G54
M8
G0 X15.1088 Y204.152014
Z33.2
Z23.2
G98 G83 X15.1088 Y204.152014 Z-2.702 R23.2 Q4. F800.
X14.799 Y170.6685
X69.799 Y170.76399

(DRILL3 3)
M5
M9
T24 M6
S8000 M3
G54
M8
G0 X216.248238 Y45.9844
Z33.2
Z23.2
G98 G83 X216.248238 Y45.9844 Z-2.702 R23.2 Q4. F800.
X215.930229 Y12.55
X270.930249 Y12.596

(DRILL3 3)
M5
M9
T24 M6
S8000 M3
G54
M8
G0 X216.248238 Y204.152014
Z33.2
Z23.2
G98 G83 X216.248238 Y204.152014 Z-2.702 R23.2 Q4. F800.
X215.930229 Y170.6685
X270.930249 Y170.76399

(DRILL3 3)
M5
M9
T24 M6
S8000 M3
G54
M8
G0 X15.1088 Y125.0644
Z33.2
Z23.2
G98 G83 X15.1088 Y125.0644 Z-2.702 R23.2 Q4. F800.
X14.799 Y91.585
X69.799 Y91.676

(DRILL3 3)
M5
M9
T24 M6
S8000 M3
G54
M8
G0 X15.10888 Y283.23244
Z33.2
Z23.2
G98 G83 X15.10888 Y283.23244 Z-2.702 R23.2 Q4. F800.
X14.7999 Y249.75299

(DRILL3 3)
M5
M9
T24 M6
S8000 M3
G54
M8
G0 X216.249028 Y125.06444
Z33.2
Z23.2
G98 G83 X216.249028 Y125.06444 Z-2.702 R23.2 Q4. F800.
X215.939229 Y91.585

(DRILL3 3)
M5
M9
T24 M6
S8000 M3
G54
M8
G0 X216.249028 Y283.23244
Z33.2
Z23.2
G98 G83 X216.249028 Y283.23244 Z-2.702 R23.2 Q4. F800.
X215.939229 Y249.75299

(DRILL3 3)
M5
M9
T24 M6
S8000 M3
G54
M8
G0 X115.6788 Y45.9844
Z33.2
Z23.2
G98 G83 X115.6788 Y45.9844 Z-2.702 R23.2 Q4. F800.
X115.369 Y12.55
X170.369 Y12.596

(DRILL3 3)
M5
M9
T24 M6
S8000 M3
G54
M8
G0 X115.67888 Y204.15244
Z33.2
Z23.2
G98 G83 X115.67888 Y204.15244 Z-2.702 R23.2 Q4. F800.
X115.3699 Y170.718

(DRILL3 3)
M5
M9
T24 M6
S8000 M3
G54
M8
G0 X316.819038 Y45.98444
Z33.2
Z23.2
G98 G83 X316.819038 Y45.98444 Z-2.702 R23.2 Q4. F800.
X316.509229 Y12.55

(DRILL3 3)
M5
M9
T24 M6
S8000 M3
G54
M8
G0 X316.819038 Y204.15244
Z33.2
Z23.2
G98 G83 X316.819038 Y204.15244 Z-2.702 R23.2 Q4. F800.
X316.509229 Y170.718

(DRILL3 3)
M5
M9
T24 M6
S8000 M3
G54
M8
G0 X115.6788 Y125.0644
Z33.2
Z23.2
G98 G83 X115.6788 Y125.0644 Z-2.702 R23.2 Q4. F800.
X115.369 Y91.585
X170.369 Y91.676

(DRILL3 3)
M5
M9
T24 M6
S8000 M3
G54
M8
G0 X115.67888 Y283.23244
Z33.2
Z23.2
G98 G83 X115.67888 Y283.23244 Z-2.702 R23.2 Q4. F800.
X115.3699 Y249.75299

(DRILL3 3)
M5
M9
T24 M6
S8000 M3
G54
M8
G0 X316.819038 Y125.06444
Z33.2
Z23.2
G98 G83 X316.819038 Y125.06444 Z-2.702 R23.2 Q4. F800.
X316.509229 Y91.585

(DRILL3 3)
M5
M9
T24 M6
S8000 M3
G54
M8
G0 X316.819038 Y283.23244
Z33.2
Z23.2
G98 G83 X316.819038 Y283.23244 Z-2.702 R23.2 Q4. F800.
X316.509229 Y249.75299

(DRILL3 4)
M5
M9
M1
T42 M6
S12000 M3
G54
M8
G0 X15.108 Y45.984
Z33.2
Z23.2
G83 X15.108 Y45.984 Z14.2 R23.2 Q4. F1200.
X70.108 Y46.08
G80
Z33.2
G28 G91 Z0.
G90

(DRILL3 4)
M5
M9
M1
T42 M6
S12000 M3
G54
M8
G0 X15.1088 Y204.152014
Z33.2
Z23.2
G83 X15.1088 Y204.15201

(DRILL3 4)
M5
M9
M1
T42 M6
S12000 M3
G54
M8
G0 X216.248238 Y45.9844
Z33.2
Z23.2
G83 X216.248238 Y45.984

(DRILL3 4)
M5
M9
M1
T42 M6
S12000 M3
G54
M8
G0 X216.248238 Y204.152014
Z33.2
Z23.2
G83 X216.248238 Y204.15201

(DRILL3 4)
M5
M9
M1
T42 M6
S12000 M3
G54
M8
G0 X15.1088 Y125.0644
Z33.2
Z23.2
G83 X15.1088 Y125.064

(DRILL3 4)
M5
M9
M1
T42 M6
S12000 M3
G54
M8
G0 X15.10888 Y283.2324

(DRILL3 4)
M5
M9
M1
T42 M6
S12000 M3
G54
M8
G0 X216.249028 Y125.0644

(DRILL3 4)
M5
M9
M1
T42 M6
S12000 M3
G54
M8
G0 X216.249028 Y283.2324

(DRILL3 4)
M5
M9
M1
T42 M6
S12000 M3
G54
M8
G0 X115.6788 Y45.9844
Z33.2
Z23.2
G83 X115.6788 Y45.984

(DRILL3 4)
M5
M9
M1
T42 M6
S12000 M3
G54
M8
G0 X115.67888 Y204.1524

(DRILL3 4)
M5
M9
M1
T42 M6
S12000 M3
G54
M8
G0 X316.819038 Y45.9844

(DRILL3 4)
M5
M9
M1
T42 M6
S12000 M3
G54
M8
G0 X316.819038 Y204.1524

(DRILL3 4)
M5
M9
M1
T42 M6
S12000 M3
G54
M8
G0 X115.6788 Y125.0644
Z33.2
Z23.2
G83 X115.6788 Y125.064

(DRILL3 4)
M5
M9
M1
T42 M6
S12000 M3
G54
M8
G0 X115.67888 Y283.2324

(DRILL3 4)
M5
M9
M1
T42 M6
S12000 M3
G54
M8
G0 X316.819038 Y125.0644

(DRILL3 4)
M5
M9
M1
T42 M6
S12000 M3
G54
M8
G0 X316.819038 Y283.2324

(2D CONTOUR4 2)
M5
M9
M1
T162 M6
S12000 M3
G54
M8
G0 X70.307 Y29.18
Z33.2
Z23.2
G1 Z22.2 F1200.
Z15.75
Y29.187 Z15.664
Y29.207 Z15.58
Y29.24 Z15.5
Y29.285 Z15.427
Y29.341 Z15.361
X70.306 Y29.407 Z15.305
Y29.48 Z15.26
Y29.56 Z15.227
Y29.644 Z15.207
Y29.73 Z15.2
X70.305 Y30.28 F1000.
G3 X69.754 Y30.829 I-0.55 J-0.001
G1 X15.139 Y30.734 F3600.
X15.077
G2 X-2.642 Y48.453 I0.031 J17.75
X15.077 Y66.234 I17.75 J0.031
G1 X70.077 Y66.33
G2 X87.858 Y48.611 I0.031 J-17.75
X70.139 Y30.83 I-17.75 J-0.031
G1 X69.754 Y30.829
G3 X69.205 Y30.278 I0.001 J-0.55 F1000.
G1 X69.206 Y29.728
Y29.642 Z15.207
Y29.558 Z15.227
Y29.479 Z15.26
Y29.405 Z15.305
X69.207 Y29.339 Z15.361
Y29.283 Z15.427
Y29.238 Z15.5
Y29.205 Z15.58
Y29.185 Z15.664
Y29.178 Z15.75
G0 Z23.2
X69.206 Y29.495
G1 Z22.2 F1200.
Z15.75
Y29.488 Z15.664
Y29.468 Z15.58
Y29.435 Z15.5
X69.207 Y29.39 Z15.427
Y29.334 Z15.361
Y29.268 Z15.305
Y29.195 Z15.26
Y29.115 Z15.227
Y29.031 Z15.207
Y28.945 Z15.2
X69.208 Y28.395 F1000.
G3 X69.759 Y27.846 I0.55 J0.001
G2 X87.292 Y13.054 I0.031 J-17.75 F3600.
Y12.138 I-2.712 J-0.458
X69.821 Y-2.654 I-17.502 J2.958
G1 X14.821 Y-2.75
G2 X-2.712 Y12.042 I-0.031 J17.75
Y12.958 I2.712 J0.458
X14.759 Y27.75 I17.502 J-2.958
G1 X69.759 Y27.846
G3 X70.308 Y28.397 I-0.001 J0.55 F1000.
G1 X70.307 Y28.947
Y29.033 Z15.207
Y29.117 Z15.227
Y29.197 Z15.26
Y29.27 Z15.305
Y29.336 Z15.361
Y29.392 Z15.427
X70.306 Y29.437 Z15.5
Y29.47 Z15.58
Y29.49 Z15.664
Y29.497 Z15.75
G0 Z23.2
X70.307 Y29.18
G1 Z19.2 F1200.
Z12.75
Y29.187 Z12.664
Y29.207 Z12.58
Y29.24 Z12.5
Y29.285 Z12.427
Y29.341 Z12.361
X70.306 Y29.407 Z12.305
Y29.48 Z12.26
Y29.56 Z12.227
Y29.644 Z12.207
Y29.73 Z12.2
X70.305 Y30.28 F1000.
G3 X69.754 Y30.829 I-0.55 J-0.001
G1 X15.139 Y30.734 F3600.
X15.077
G2 X-2.642 Y48.453 I0.031 J17.75
X15.077 Y66.234 I17.75 J0.031
G1 X70.077 Y66.33
G2 X87.858 Y48.611 I0.031 J-17.75
X70.139 Y30.83 I-17.75 J-0.031
G1 X69.754 Y30.829
G3 X69.205 Y30.278 I0.001 J-0.55 F1000.
G1 X69.206 Y29.728
Y29.642 Z12.207
Y29.558 Z12.227
Y29.479 Z12.26
Y29.405 Z12.305
X69.207 Y29.339 Z12.361
Y29.283 Z12.427
Y29.238 Z12.5
Y29.205 Z12.58
Y29.185 Z12.664
Y29.178 Z12.75
G0 Z23.2
X69.206 Y29.495
G1 Z19.2 F1200.
Z12.75
Y29.488 Z12.664
Y29.468 Z12.58
Y29.435 Z12.5
X69.207 Y29.39 Z12.427
Y29.334 Z12.361
Y29.268 Z12.305
Y29.195 Z12.26
Y29.115 Z12.227
Y29.031 Z12.207
Y28.945 Z12.2
X69.208 Y28.395 F1000.
G3 X69.759 Y27.846 I0.55 J0.001
G2 X87.292 Y13.054 I0.031 J-17.75 F3600.
Y12.138 I-2.712 J-0.458
X69.821 Y-2.654 I-17.502 J2.958
G1 X14.821 Y-2.75
G2 X-2.712 Y12.042 I-0.031 J17.75
Y12.958 I2.712 J0.458
X14.759 Y27.75 I17.502 J-2.958
G1 X69.759 Y27.846
G3 X70.308 Y28.397 I-0.001 J0.55 F1000.
G1 X70.307 Y28.947
Y29.033 Z12.207
Y29.117 Z12.227
Y29.197 Z12.26
Y29.27 Z12.305
Y29.336 Z12.361
Y29.392 Z12.427
X70.306 Y29.437 Z12.5
Y29.47 Z12.58
Y29.49 Z12.664
Y29.497 Z12.75
G0 Z23.2
X70.307 Y29.18
G1 Z16.2 F1200.
Z9.75
Y29.187 Z9.664
Y29.207 Z9.58
Y29.24 Z9.5
Y29.285 Z9.427
Y29.341 Z9.361
X70.306 Y29.407 Z9.305
Y29.48 Z9.26
Y29.56 Z9.227
Y29.644 Z9.207
Y29.73 Z9.2
X70.305 Y30.28 F1000.
G3 X69.754 Y30.829 I-0.55 J-0.001
G1 X15.139 Y30.734 F3600.
X15.077
G2 X-2.642 Y48.453 I0.031 J17.75
X15.077 Y66.234 I17.75 J0.031
G1 X70.077 Y66.33
G2 X87.858 Y48.611 I0.031 J-17.75
X70.139 Y30.83 I-17.75 J-0.031
G1 X69.754 Y30.829
G3 X69.205 Y30.278 I0.001 J-0.55 F1000.
G1 X69.206 Y29.728
Y29.642 Z9.207
Y29.558 Z9.227
Y29.479 Z9.26
Y29.405 Z9.305
X69.207 Y29.339 Z9.361
Y29.283 Z9.427
Y29.238 Z9.5
Y29.205 Z9.58
Y29.185 Z9.664
Y29.178 Z9.75
G0 Z23.2
X69.206 Y29.495
G1 Z16.2 F1200.
Z9.75
Y29.488 Z9.664
Y29.468 Z9.58
Y29.435 Z9.5
X69.207 Y29.39 Z9.427
Y29.334 Z9.361
Y29.268 Z9.305
Y29.195 Z9.26
Y29.115 Z9.227
Y29.031 Z9.207
Y28.945 Z9.2
X69.208 Y28.395 F1000.
G3 X69.759 Y27.846 I0.55 J0.001
G2 X87.292 Y13.054 I0.031 J-17.75 F3600.
Y12.138 I-2.712 J-0.458
X69.821 Y-2.654 I-17.502 J2.958
G1 X14.821 Y-2.75
G2 X-2.712 Y12.042 I-0.031 J17.75
Y12.958 I2.712 J0.458
X14.759 Y27.75 I17.502 J-2.958
G1 X69.759 Y27.846
G3 X70.308 Y28.397 I-0.001 J0.55 F1000.
G1 X70.307 Y28.947
Y29.033 Z9.207
Y29.117 Z9.227
Y29.197 Z9.26
Y29.27 Z9.305
Y29.336 Z9.361
Y29.392 Z9.427
X70.306 Y29.437 Z9.5
Y29.47 Z9.58
Y29.49 Z9.664
Y29.497 Z9.75
G0 Z23.2
X70.307 Y29.18
G1 Z13.2 F1200.
Z6.75
Y29.187 Z6.664
Y29.207 Z6.58
Y29.24 Z6.5
Y29.285 Z6.427
Y29.341 Z6.361
X70.306 Y29.407 Z6.305
Y29.48 Z6.26
Y29.56 Z6.227
Y29.644 Z6.207
Y29.73 Z6.2
X70.305 Y30.28 F1000.
G3 X69.754 Y30.829 I-0.55 J-0.001
G1 X15.139 Y30.734 F3600.
X15.077
G2 X-2.642 Y48.453 I0.031 J17.75
X15.077 Y66.234 I17.75 J0.031
G1 X70.077 Y66.33
G2 X87.858 Y48.611 I0.031 J-17.75
X70.139 Y30.83 I-17.75 J-0.031
G1 X69.754 Y30.829
G3 X69.205 Y30.278 I0.001 J-0.55 F1000.
G1 X69.206 Y29.728
Y29.642 Z6.207
Y29.558 Z6.227
Y29.479 Z6.26
Y29.405 Z6.305
X69.207 Y29.339 Z6.361
Y29.283 Z6.427
Y29.238 Z6.5
Y29.205 Z6.58
Y29.185 Z6.664
Y29.178 Z6.75
G0 Z23.2
X69.206 Y29.495
G1 Z13.2 F1200.
Z6.75
Y29.488 Z6.664
Y29.468 Z6.58
Y29.435 Z6.5
X69.207 Y29.39 Z6.427
Y29.334 Z6.361
Y29.268 Z6.305
Y29.195 Z6.26
Y29.115 Z6.227
Y29.031 Z6.207
Y28.945 Z6.2
X69.208 Y28.395 F1000.
G3 X69.759 Y27.846 I0.55 J0.001
G2 X87.292 Y13.054 I0.031 J-17.75 F3600.
Y12.138 I-2.712 J-0.458
X69.821 Y-2.654 I-17.502 J2.958
G1 X14.821 Y-2.75
G2 X-2.712 Y12.042 I-0.031 J17.75
Y12.958 I2.712 J0.458
X14.759 Y27.75 I17.502 J-2.958
G1 X69.759 Y27.846
G3 X70.308 Y28.397 I-0.001 J0.55 F1000.
G1 X70.307 Y28.947
Y29.033 Z6.207
Y29.117 Z6.227
Y29.197 Z6.26
Y29.27 Z6.305
Y29.336 Z6.361
Y29.392 Z6.427
X70.306 Y29.437 Z6.5
Y29.47 Z6.58
Y29.49 Z6.664
Y29.497 Z6.75
G0 Z23.2
X70.307 Y29.18
G1 Z10.2 F1200.
Z3.75
Y29.187 Z3.664
Y29.207 Z3.58
Y29.24 Z3.5
Y29.285 Z3.427
Y29.341 Z3.361
X70.306 Y29.407 Z3.305
Y29.48 Z3.26
Y29.56 Z3.227
Y29.644 Z3.207
Y29.73 Z3.2
X70.305 Y30.28 F1000.
G3 X69.754 Y30.829 I-0.55 J-0.001
G1 X15.139 Y30.734 F3600.
X15.077
G2 X-2.642 Y48.453 I0.031 J17.75
X15.077 Y66.234 I17.75 J0.031
G1 X70.077 Y66.33
G2 X87.858 Y48.611 I0.031 J-17.75
X70.139 Y30.83 I-17.75 J-0.031
G1 X69.754 Y30.829
G3 X69.205 Y30.278 I0.001 J-0.55 F1000.
G1 X69.206 Y29.728
Y29.642 Z3.207
Y29.558 Z3.227
Y29.479 Z3.26
Y29.405 Z3.305
X69.207 Y29.339 Z3.361
Y29.283 Z3.427
Y29.238 Z3.5
Y29.205 Z3.58
Y29.185 Z3.664
Y29.178 Z3.75
G0 Z23.2
X69.206 Y29.495
G1 Z10.2 F1200.
Z3.75
Y29.488 Z3.664
Y29.468 Z3.58
Y29.435 Z3.5
X69.207 Y29.39 Z3.427
Y29.334 Z3.361
Y29.268 Z3.305
Y29.195 Z3.26
Y29.115 Z3.227
Y29.031 Z3.207
Y28.945 Z3.2
X69.208 Y28.395 F1000.
G3 X69.759 Y27.846 I0.55 J0.001
G2 X87.292 Y13.054 I0.031 J-17.75 F3600.
Y12.138 I-2.712 J-0.458
X69.821 Y-2.654 I-17.502 J2.958
G1 X14.821 Y-2.75
G2 X-2.712 Y12.042 I-0.031 J17.75
Y12.958 I2.712 J0.458
X14.759 Y27.75 I17.502 J-2.958
G1 X69.759 Y27.846
G3 X70.308 Y28.397 I-0.001 J0.55 F1000.
G1 X70.307 Y28.947
Y29.033 Z3.207
Y29.117 Z3.227
Y29.197 Z3.26
Y29.27 Z3.305
Y29.336 Z3.361
Y29.392 Z3.427
X70.306 Y29.437 Z3.5
Y29.47 Z3.58
Y29.49 Z3.664
Y29.497 Z3.75
G0 Z23.2
X70.307 Y29.18
G1 Z7.2 F1200.
Z2.15
Y29.187 Z2.064
Y29.207 Z1.98
Y29.24 Z1.9
Y29.285 Z1.827
Y29.341 Z1.761
X70.306 Y29.407 Z1.705
Y29.48 Z1.66
Y29.56 Z1.627
Y29.644 Z1.607
Y29.73 Z1.6
X70.305 Y30.28 F1000.
G3 X69.754 Y30.829 I-0.55 J-0.001
G1 X15.139 Y30.734 F3600.
X15.077
G2 X-2.642 Y48.453 I0.031 J17.75
X15.077 Y66.234 I17.75 J0.031
G1 X70.077 Y66.33
G2 X87.858 Y48.611 I0.031 J-17.75
X70.139 Y30.83 I-17.75 J-0.031
G1 X69.754 Y30.829
G3 X69.205 Y30.278 I0.001 J-0.55 F1000.
G1 X69.206 Y29.728
Y29.642 Z1.607
Y29.558 Z1.627
Y29.479 Z1.66
Y29.405 Z1.705
X69.207 Y29.339 Z1.761
Y29.283 Z1.827
Y29.238 Z1.9
Y29.205 Z1.98
Y29.185 Z2.064
Y29.178 Z2.15
G0 Z23.2
X69.206 Y29.495
G1 Z7.2 F1200.
Z2.15
Y29.488 Z2.064
Y29.468 Z1.98
Y29.435 Z1.9
X69.207 Y29.39 Z1.827
Y29.334 Z1.761
Y29.268 Z1.705
Y29.195 Z1.66
Y29.115 Z1.627
Y29.031 Z1.607
Y28.945 Z1.6
X69.208 Y28.395 F1000.
G3 X69.759 Y27.846 I0.55 J0.001
G2 X87.292 Y13.054 I0.031 J-17.75 F3600.
Y12.138 I-2.712 J-0.458
X69.821 Y-2.654 I-17.502 J2.958
G1 X14.821 Y-2.75
G2 X-2.712 Y12.042 I-0.031 J17.75
Y12.958 I2.712 J0.458
X14.759 Y27.75 I17.502 J-2.958
G1 X69.759 Y27.846
G3 X70.308 Y28.397 I-0.001 J0.55 F1000.
G1 X70.307 Y28.947
Y29.033 Z1.607
Y29.117 Z1.627
Y29.197 Z1.66
Y29.27 Z1.705
Y29.336 Z1.761
Y29.392 Z1.827
X70.306 Y29.437 Z1.9
Y29.47 Z1.98
Y29.49 Z2.064
Y29.497 Z2.15
G0 Z23.2
X70.307 Y29.18
G1 Z5.6 F1200.
Z0.55
Y29.187 Z0.464
Y29.207 Z0.38
Y29.24 Z0.3
Y29.285 Z0.227
Y29.341 Z0.161
X70.306 Y29.407 Z0.105
Y29.48 Z0.06
Y29.56 Z0.027
Y29.644 Z0.007
Y29.73 Z0.
X70.305 Y30.28 F1000.
G3 X69.754 Y30.829 I-0.55 J-0.001
G1 X15.139 Y30.734 F3600.
X15.077
G2 X-2.642 Y48.453 I0.031 J17.75
X15.077 Y66.234 I17.75 J0.031
G1 X70.077 Y66.33
G2 X87.858 Y48.611 I0.031 J-17.75
X70.139 Y30.83 I-17.75 J-0.031
G1 X69.754 Y30.829
G3 X69.205 Y30.278 I0.001 J-0.55 F1000.
G1 X69.206 Y29.728
Y29.642 Z0.007
Y29.558 Z0.027
Y29.479 Z0.06
Y29.405 Z0.105
X69.207 Y29.339 Z0.161
Y29.283 Z0.227
Y29.238 Z0.3
Y29.205 Z0.38
Y29.185 Z0.464
Y29.178 Z0.55
G0 Z23.2
X69.206 Y29.495
G1 Z5.6 F1200.
Z0.55
Y29.488 Z0.464
Y29.468 Z0.38
Y29.435 Z0.3
X69.207 Y29.39 Z0.227
Y29.334 Z0.161
Y29.268 Z0.105
Y29.195 Z0.06
Y29.115 Z0.027
Y29.031 Z0.007
Y28.945 Z0.
X69.208 Y28.395 F1000.
G3 X69.759 Y27.846 I0.55 J0.001
G2 X87.292 Y13.054 I0.031 J-17.75 F3600.
Y12.138 I-2.712 J-0.458
X69.821 Y-2.654 I-17.502 J2.958
G1 X14.821 Y-2.75
G2 X-2.712 Y12.042 I-0.031 J17.75
Y12.958 I2.712 J0.458
X14.759 Y27.75 I17.502 J-2.958
G1 X69.759 Y27.846
G3 X70.308 Y28.397 I-0.001 J0.55 F1000.
G1 X70.307 Y28.947
Y29.033 Z0.007
Y29.117 Z0.027
Y29.197 Z0.06
Y29.27 Z0.105
Y29.336 Z0.161
Y29.392 Z0.227
X70.306 Y29.437 Z0.3
Y29.47 Z0.38
Y29.49 Z0.464
Y29.497 Z0.55
G0 Z33.2

(2D CONTOUR4 2)
M5
M9
M1
T162 M6
S12000 M3
G54
M8
G0 X70.3077 Y187.347998
Z33.2
Z23.2
G1 Z22.2 F1200.
Z15.75
Y187.3557 Z15.664
Y187.3757 Z15.58
Y187.4084 Z15.5
Y187.4535 Z15.427
Y187.5091 Z15.361
X70.3066 Y187.5757 Z15.305
Y187.6488 Z15.26
Y187.7286 Z15.227
Y187.8124 Z15.207
Y187.8983 Z15.2
X70.3055 Y188.4488 F1000.
G3 X69.7544 Y188.9979 I-0.55 J-0.001
G1 X15.1399 Y188.9024 F3600.
X15.0777
G2 X-2.6422 Y206.6213 I0.031 J17.75
X15.0777 Y224.402014 I17.75 J0.031
G1 X70.0777 Y224.4983
G2 X87.8588 Y206.778991 I0.031 J-17.75
X70.1399 Y188.9983 I-17.75 J-0.031
G1 X69.7544 Y188.9979
G3 X69.2055 Y188.4468 I0.001 J-0.55 F1000.
G1 X69.2066 Y187.8968
Y187.812 Z15.207
Y187.7268 Z15.227
Y187.6479 Z15.26
Y187.5735 Z15.305
X69.2077 Y187.5079 Z15.361
Y187.4513 Z15.427
Y187.4068 Z15.5
Y187.3735 Z15.58
Y187.3535 Z15.664
Y187.3468 Z15.75
G0 Z23.2
X69.2066 Y187.6635
G1 Z22.2 F1200.
Z15.75
Y187.6568 Z15.664
Y187.6368 Z15.58
Y187.6035 Z15.5
X69.2077 Y187.5589 Z15.427
Y187.5024 Z15.361
Y187.4368 Z15.305
Y187.3635 Z15.26
Y187.2835 Z15.227
Y187.1991 Z15.207
Y187.1135 Z15.2
X69.2088 Y186.5635 F1000.
G3 X69.7599 Y186.0146 I0.55 J0.001
G2 X87.2922 Y171.2224 I0.031 J-17.75 F3600.
Y170.3068 I-2.712 J-0.458
X69.8211 Y155.513994 I-17.502 J2.958
G1 X14.8211 Y155.4185
G2 X-2.7122 Y170.209992 I-0.031 J17.75
Y171.1268 I2.712 J0.458
X14.7599 Y185.9185 I17.502 J-2.958
G1 X69.7599 Y186.0146
G3 X70.3088 Y186.5657 I-0.001 J0.55 F1000.
G1 X70.3077 Y187.1157
Y187.2013 Z15.207
Y187.2857 Z15.227
Y187.3657 Z15.26
Y187.4387 Z15.305
Y187.5046 Z15.361
Y187.562 Z15.427
X70.3066 Y187.6057 Z15.5
Y187.6387 Z15.58
Y187.6589 Z15.664
Y187.6657 Z15.75
G0 Z23.2
X70.3077 Y187.347998
G1 Z19.2 F1200.
Z12.75
Y187.3557 Z12.664
Y187.3757 Z12.58
Y187.4084 Z12.5
Y187.4535 Z12.427
Y187.5091 Z12.361
X70.3066 Y187.5757 Z12.305
Y187.6488 Z12.26
Y187.7286 Z12.227
Y187.8124 Z12.207
Y187.8983 Z12.2
X70.3055 Y188.4488 F1000.
G3 X69.7544 Y188.9979 I-0.55 J-0.001
G1 X15.1399 Y188.9024 F3600.
X15.0777
G2 X-2.6422 Y206.6213 I0.031 J17.75
X15.0777 Y224.402014 I17.75 J0.031
G1 X70.0777 Y224.4983
G2 X87.8588 Y206.778991 I0.031 J-17.75
X70.1399 Y188.9983 I-17.75 J-0.031
G1 X69.7544 Y188.9979
G3 X69.2055 Y188.4468 I0.001 J-0.55 F1000.
G1 X69.2066 Y187.8968
Y187.812 Z12.207
Y187.7268 Z12.227
Y187.6479 Z12.26
Y187.5735 Z12.305
X69.2077 Y187.5079 Z12.361
Y187.4513 Z12.427
Y187.4068 Z12.5
Y187.3735 Z12.58
Y187.3535 Z12.664
Y187.3468 Z12.75
G0 Z23.2
X69.2066 Y187.6635
G1 Z19.2 F1200.
Z12.75
Y187.6568 Z12.664
Y187.6368 Z12.58
Y187.6035 Z12.5
X69.2077 Y187.5589 Z12.427
Y187.5024 Z12.361
Y187.4368 Z12.305
Y187.3635 Z12.26
Y187.2835 Z12.227
Y187.1991 Z12.207
Y187.1135 Z12.2
X69.2088 Y186.5635 F1000.
G3 X69.7599 Y186.0146 I0.55 J0.001
G2 X87.2922 Y171.2224 I0.031 J-17.75 F3600.
Y170.3068 I-2.712 J-0.458
X69.8211 Y155.513994 I-17.502 J2.958
G1 X14.8211 Y155.4185
G2 X-2.7122 Y170.209992 I-0.031 J17.75
Y171.1268 I2.712 J0.458
X14.7599 Y185.9185 I17.502 J-2.958
G1 X69.7599 Y186.0146
G3 X70.3088 Y186.5657 I-0.001 J0.55 F1000.
G1 X70.3077 Y187.1157
Y187.2013 Z12.207
Y187.2857 Z12.227
Y187.3657 Z12.26
Y187.4387 Z12.305
Y187.5046 Z12.361
Y187.562 Z12.427
X70.3066 Y187.6057 Z12.5
Y187.6387 Z12.58
Y187.6589 Z12.664
Y187.6657 Z12.75
G0 Z23.2
X70.3077 Y187.347998
G1 Z16.2 F1200.
Z9.75
Y187.3557 Z9.664
Y187.3757 Z9.58
Y187.4084 Z9.5
Y187.4535 Z9.427
Y187.5091 Z9.361
X70.3066 Y187.5757 Z9.305
Y187.6488 Z9.26
Y187.7286 Z9.227
Y187.8124 Z9.207
Y187.8983 Z9.2
X70.3055 Y188.4488 F1000.
G3 X69.7544 Y188.9979 I-0.55 J-0.001
G1 X15.1399 Y188.9024 F3600.
X15.0777
G2 X-2.6422 Y206.6213 I0.031 J17.75
X15.0777 Y224.402014 I17.75 J0.031
G1 X70.0777 Y224.4983
G2 X87.8588 Y206.778991 I0.031 J-17.75
X70.1399 Y188.9983 I-17.75 J-0.031
G1 X69.7544 Y188.9979
G3 X69.2055 Y188.4468 I0.001 J-0.55 F1000.
G1 X69.2066 Y187.8968
Y187.812 Z9.207
Y187.7268 Z9.227
Y187.6479 Z9.26
Y187.5735 Z9.305
X69.2077 Y187.5079 Z9.361
Y187.4513 Z9.427
Y187.4068 Z9.5
Y187.3735 Z9.58
Y187.3535 Z9.664
Y187.3468 Z9.75
G0 Z23.2
X69.2066 Y187.6635
G1 Z16.2 F1200.
Z9.75
Y187.6568 Z9.664
Y187.6368 Z9.58
Y187.6035 Z9.5
X69.2077 Y187.5589 Z9.427
Y187.5024 Z9.361
Y187.4368 Z9.305
Y187.3635 Z9.26
Y187.2835 Z9.227
Y187.1991 Z9.207
Y187.1135 Z9.2
X69.2088 Y186.5635 F1000.
G3 X69.7599 Y186.0146 I0.55 J0.001
G2 X87.2922 Y171.2224 I0.031 J-17.75 F3600.
Y170.3068 I-2.712 J-0.458
X69.8211 Y155.513994 I-17.502 J2.958
G1 X14.8211 Y155.4185
G2 X-2.7122 Y170.209992 I-0.031 J17.75
Y171.1268 I2.712 J0.458
X14.7599 Y185.9185 I17.502 J-2.958
G1 X69.7599 Y186.0146
G3 X70.3088 Y186.5657 I-0.001 J0.55 F1000.
G1 X70.3077 Y187.1157
Y187.2013 Z9.207
Y187.2857 Z9.227
Y187.3657 Z9.26
Y187.4387 Z9.305
Y187.5046 Z9.361
Y187.562 Z9.427
X70.3066 Y187.6057 Z9.5
Y187.6387 Z9.58
Y187.6589 Z9.664
Y187.6657 Z9.75
G0 Z23.2
X70.3077 Y187.347998
G1 Z13.2 F1200.
Z6.75
Y187.3557 Z6.664
Y187.3757 Z6.58
Y187.4084 Z6.5
Y187.4535 Z6.427
Y187.5091 Z6.361
X70.3066 Y187.5757 Z6.305
Y187.6488 Z6.26
Y187.7286 Z6.227
Y187.8124 Z6.207
Y187.8983 Z6.2
X70.3055 Y188.4488 F1000.
G3 X69.7544 Y188.9979 I-0.55 J-0.001
G1 X15.1399 Y188.9024 F3600.
X15.0777
G2 X-2.6422 Y206.6213 I0.031 J17.75
X15.0777 Y224.402014 I17.75 J0.031
G1 X70.0777 Y224.4983
G2 X87.8588 Y206.778991 I0.031 J-17.75
X70.1399 Y188.9983 I-17.75 J-0.031
G1 X69.7544 Y188.9979
G3 X69.2055 Y188.4468 I0.001 J-0.55 F1000.
G1 X69.2066 Y187.8968
Y187.812 Z6.207
Y187.7268 Z6.227
Y187.6479 Z6.26
Y187.5735 Z6.305
X69.2077 Y187.5079 Z6.361
Y187.4513 Z6.427
Y187.4068 Z6.5
Y187.3735 Z6.58
Y187.3535 Z6.664
Y187.3468 Z6.75
G0 Z23.2
X69.2066 Y187.6635
G1 Z13.2 F1200.
Z6.75
Y187.6568 Z6.664
Y187.6368 Z6.58
Y187.6035 Z6.5
X69.2077 Y187.5589 Z6.427
Y187.5024 Z6.361
Y187.4368 Z6.305
Y187.3635 Z6.26
Y187.2835 Z6.227
Y187.1991 Z6.207
Y187.1135 Z6.2
X69.2088 Y186.5635 F1000.
G3 X69.7599 Y186.0146 I0.55 J0.001
G2 X87.2922 Y171.2224 I0.031 J-17.75 F3600.
Y170.3068 I-2.712 J-0.458
X69.8211 Y155.513994 I-17.502 J2.958
G1 X14.8211 Y155.4185
G2 X-2.7122 Y170.209992 I-0.031 J17.75
Y171.1268 I2.712 J0.458
X14.7599 Y185.9185 I17.502 J-2.958
G1 X69.7599 Y186.0146
G3 X70.3088 Y186.5657 I-0.001 J0.55 F1000.
G1 X70.3077 Y187.1157
Y187.2013 Z6.207
Y187.2857 Z6.227
Y187.3657 Z6.26
Y187.4387 Z6.305
Y187.5046 Z6.361
Y187.562 Z6.427
X70.3066 Y187.6057 Z6.5
Y187.6387 Z6.58
Y187.6589 Z6.664
Y187.6657 Z6.75
G0 Z23.2
X70.3077 Y187.347998
G1 Z10.2 F1200.
Z3.75
Y187.3557 Z3.664
Y187.3757 Z3.58
Y187.4084 Z3.5
Y187.4535 Z3.427
Y187.5091 Z3.361
X70.3066 Y187.5757 Z3.305
Y187.6488 Z3.26
Y187.7286 Z3.227
Y187.8124 Z3.207
Y187.8983 Z3.2
X70.3055 Y188.4488 F1000.
G3 X69.7544 Y188.9979 I-0.55 J-0.001
G1 X15.1399 Y188.9024 F3600.
X15.0777
G2 X-2.6422 Y206.6213 I0.031 J17.75
X15.0777 Y224.402014 I17.75 J0.031
G1 X70.0777 Y224.4983
G2 X87.8588 Y206.778991 I0.031 J-17.75
X70.1399 Y188.9983 I-17.75 J-0.031
G1 X69.7544 Y188.9979
G3 X69.2055 Y188.4468 I0.001 J-0.55 F1000.
G1 X69.2066 Y187.8968
Y187.812 Z3.207
Y187.7268 Z3.227
Y187.6479 Z3.26
Y187.5735 Z3.305
X69.2077 Y187.5079 Z3.361
Y187.4513 Z3.427
Y187.4068 Z3.5
Y187.3735 Z3.58
Y187.3535 Z3.664
Y187.3468 Z3.75
G0 Z23.2
X69.2066 Y187.6635
G1 Z10.2 F1200.
Z3.75
Y187.6568 Z3.664
Y187.6368 Z3.58
Y187.6035 Z3.5
X69.2077 Y187.5589 Z3.427
Y187.5024 Z3.361
Y187.4368 Z3.305
Y187.3635 Z3.26
Y187.2835 Z3.227
Y187.1991 Z3.207
Y187.1135 Z3.2
X69.2088 Y186.5635 F1000.
G3 X69.7599 Y186.0146 I0.55 J0.001
G2 X87.2922 Y171.2224 I0.031 J-17.75 F3600.
Y170.3068 I-2.712 J-0.458
X69.8211 Y155.513994 I-17.502 J2.958
G1 X14.8211 Y155.4185
G2 X-2.7122 Y170.209992 I-0.031 J17.75
Y171.1268 I2.712 J0.458
X14.7599 Y185.9185 I17.502 J-2.958
G1 X69.7599 Y186.0146
G3 X70.3088 Y186.5657 I-0.001 J0.55 F1000.
G1 X70.3077 Y187.1157
Y187.2013 Z3.207
Y187.2857 Z3.227
Y187.3657 Z3.26
Y187.4387 Z3.305
Y187.5046 Z3.361
Y187.562 Z3.427
X70.3066 Y187.6057 Z3.5
Y187.6387 Z3.58
Y187.6589 Z3.664
Y187.6657 Z3.75
G0 Z23.2
X70.3077 Y187.347998
G1 Z7.2 F1200.
Z2.15
Y187.3557 Z2.064
Y187.3757 Z1.98
Y187.4084 Z1.9
Y187.4535 Z1.827
Y187.5091 Z1.761
X70.3066 Y187.5757 Z1.705
Y187.6488 Z1.66
Y187.7286 Z1.627
Y187.8124 Z1.607
Y187.8983 Z1.6
X70.3055 Y188.4488 F1000.
G3 X69.7544 Y188.9979 I-0.55 J-0.001
G1 X15.1399 Y188.9024 F3600.
X15.0777
G2 X-2.6422 Y206.6213 I0.031 J17.75
X15.0777 Y224.402014 I17.75 J0.031
G1 X70.0777 Y224.4983
G2 X87.8588 Y206.778991 I0.031 J-17.75
X70.1399 Y188.9983 I-17.75 J-0.031
G1 X69.7544 Y188.9979
G3 X69.2055 Y188.4468 I0.001 J-0.55 F1000.
G1 X69.2066 Y187.8968
Y187.812 Z1.607
Y187.7268 Z1.627
Y187.6479 Z1.66
Y187.5735 Z1.705
X69.2077 Y187.5079 Z1.761
Y187.4513 Z1.827
Y187.4068 Z1.9
Y187.3735 Z1.98
Y187.3535 Z2.064
Y187.3468 Z2.15
G0 Z23.2
X69.2066 Y187.6635
G1 Z7.2 F1200.
Z2.15
Y187.6568 Z2.064
Y187.6368 Z1.98
Y187.6035 Z1.9
X69.2077 Y187.5589 Z1.827
Y187.5024 Z1.761
Y187.4368 Z1.705
Y187.3635 Z1.66
Y187.2835 Z1.627
Y187.1991 Z1.607
Y187.1135 Z1.6
X69.2088 Y186.5635 F1000.
G3 X69.7599 Y186.0146 I0.55 J0.001
G2 X87.2922 Y171.2224 I0.031 J-17.75 F3600.
Y170.3068 I-2.712 J-0.458
X69.8211 Y155.513994 I-17.502 J2.958
G1 X14.8211 Y155.4185
G2 X-2.7122 Y170.209992 I-0.031 J17.75
Y171.1268 I2.712 J0.458
X14.7599 Y185.9185 I17.502 J-2.958
G1 X69.7599 Y186.0146
G3 X70.3088 Y186.5657 I-0.001 J0.55 F1000.
G1 X70.3077 Y187.1157
Y187.2013 Z1.607
Y187.2857 Z1.627
Y187.3657 Z1.66
Y187.4387 Z1.705
Y187.5046 Z1.761
Y187.562 Z1.827
X70.3066 Y187.6057 Z1.9
Y187.6387 Z1.98
Y187.6589 Z2.064
Y187.6657 Z2.15
G0 Z23.2
X70.3077 Y187.347998
G1 Z5.6 F1200.
Z0.55
Y187.3557 Z0.464
Y187.3757 Z0.38
Y187.4084 Z0.3
Y187.4535 Z0.227
Y187.5091 Z0.161
X70.3066 Y187.5757 Z0.105
Y187.6488 Z0.06
Y187.7286 Z0.027
Y187.8124 Z0.007
Y187.8983 Z0.
X70.3055 Y188.4488 F1000.
G3 X69.7544 Y188.9979 I-0.55 J-0.001
G1 X15.1399 Y188.9024 F3600.
X15.0777
G2 X-2.6422 Y206.6213 I0.031 J17.75
X15.0777 Y224.402014 I17.75 J0.031
G1 X70.0777 Y224.4983
G2 X87.8588 Y206.778991 I0.031 J-17.75
X70.1399 Y188.9983 I-17.75 J-0.031
G1 X69.7544 Y188.9979
G3 X69.2055 Y188.4468 I0.001 J-0.55 F1000.
G1 X69.2066 Y187.8968
Y187.812 Z0.007
Y187.7268 Z0.027
Y187.6479 Z0.06
Y187.5735 Z0.105
X69.2077 Y187.5079 Z0.161
Y187.4513 Z0.227
Y187.4068 Z0.3
Y187.3735 Z0.38
Y187.3535 Z0.464
Y187.3468 Z0.55
G0 Z23.2
X69.2066 Y187.6635
G1 Z5.6 F1200.
Z0.55
Y187.6568 Z0.464
Y187.6368 Z0.38
Y187.6035 Z0.3
X69.2077 Y187.5589 Z0.227
Y187.5024 Z0.161
Y187.4368 Z0.105
Y187.3635 Z0.06
Y187.2835 Z0.027
Y187.1991 Z0.007
Y187.1135 Z0.
X69.2088 Y186.5635 F1000.
G3 X69.7599 Y186.0146 I0.55 J0.001
G2 X87.2922 Y171.2224 I0.031 J-17.75 F3600.
Y170.3068 I-2.712 J-0.458
X69.8211 Y155.513994 I-17.502 J2.958
G1 X14.8211 Y155.4185
G2 X-2.7122 Y170.209992 I-0.031 J17.75
Y171.1268 I2.712 J0.458
X14.7599 Y185.9185 I17.502 J-2.958
G1 X69.7599 Y186.0146
G3 X70.3088 Y186.5657 I-0.001 J0.55 F1000.
G1 X70.3077 Y187.1157
Y187.2013 Z0.007
Y187.2857 Z0.027
Y187.3657 Z0.06
Y187.4387 Z0.105
Y187.5046 Z0.161
Y187.56

(2D CONTOUR4 2)
M5
M9
M1
T162 M6
S12000 M3
G54
M8
G0 X271.447247 Y29.188
Z33.2
Z23.2
G1 Z22.2 F1200.
Z15.75
Y29.1877 Z15.664
Y29.2077 Z15.58
Y29.244 Z15.5
Y29.2855 Z15.427
Y29.3411 Z15.361
X271.446236 Y29.4077 Z15.305
Y29.488 Z15.26
Y29.566 Z15.227
Y29.6444 Z15.207
Y29.733 Z15.2
X271.445225 Y30.288 F1000.
G3 X270.894234 Y30.8299 I-0.55 J-0.001
G1 X216.279249 Y30.7344 F3600.
X216.217227
G2 X198.498232 Y48.4533 I0.031 J17.75
X216.217227 Y66.2344 I17.75 J0.031
G1 X271.217227 Y66.333
G2 X288.998238 Y48.6111 I0.031 J-17.75
X271.279249 Y30.833 I-17.75 J-0.031
G1 X270.894234 Y30.8299
G3 X270.34525 Y30.2788 I0.001 J-0.55 F1000.
G1 X270.346226 Y29.7288
Y29.6422 Z15.207
Y29.5588 Z15.227
Y29.4799 Z15.26
Y29.4055 Z15.305
X270.347237 Y29.3399 Z15.361
Y29.2833 Z15.427
Y29.2388 Z15.5
Y29.2055 Z15.58
Y29.1855 Z15.664
Y29.1788 Z15.75
G0 Z23.2
X270.346226 Y29.4955
G1 Z22.2 F1200.
Z15.75
Y29.4888 Z15.664
Y29.4688 Z15.58
Y29.4355 Z15.5
X270.347237 Y29.399 Z15.427
Y29.3344 Z15.361
Y29.2688 Z15.305
Y29.1955 Z15.26
Y29.1155 Z15.227
Y29.0311 Z15.207
Y28.9455 Z15.2
X270.348248 Y28.3955 F1000.
G3 X270.899239 Y27.8466 I0.55 J0.001
G2 X288.432222 Y13.0544 I0.031 J-17.75 F3600.
Y12.1388 I-2.712 J-0.458
X270.961241 Y-2.6544 I-17.502 J2.958
G1 X215.961231 Y-2.755
G2 X198.428222 Y12.0422 I-0.031 J17.75
Y12.9588 I2.712 J0.458
X215.899239 Y27.755 I17.502 J-2.958
G1 X270.899239 Y27.8466
G3 X271.448248 Y28.3977 I-0.001 J0.55 F1000.
G1 X271.447247 Y28.9477
Y29.0333 Z15.207
Y29.1177 Z15.227
Y29.1977 Z15.26
Y29.277 Z15.305
Y29.3366 Z15.361
Y29.3922 Z15.427
X271.446236 Y29.4377 Z15.5
Y29.477 Z15.58
Y29.499 Z15.664
Y29.4977 Z15.75
G0 Z23.2
X271.447247 Y29.188
G1 Z19.2 F1200.
Z12.75
Y29.1877 Z12.664
Y29.2077 Z12.58
Y29.244 Z12.5
Y29.2855 Z12.427
Y29.3411 Z12.361
X271.446236 Y29.4077 Z12.305
Y29.488 Z12.26
Y29.566 Z12.227
Y29.6444 Z12.207
Y29.733 Z12.2
X271.445225 Y30.288 F1000.
G3 X270.894234 Y30.8299 I-0.55 J-0.001
G1 X216.279249 Y30.7344 F3600.
X216.217227
G2 X198.498232 Y48.4533 I0.031 J17.75
X216.217227 Y66.2344 I17.75 J0.031
G1 X271.217227 Y66.333
G2 X288.998238 Y48.6111 I0.031 J-17.75
X271.279249 Y30.833 I-17.75 J-0.031
G1 X270.894234 Y30.8299
G3 X270.34525 Y30.2788 I0.001 J-0.55 F1000.
G1 X270.346226 Y29.7288
Y29.6422 Z12.207
Y29.5588 Z12.227
Y29.4799 Z12.26
Y29.4055 Z12.305
X270.347237 Y29.3399 Z12.361
Y29.2833 Z12.427
Y29.2388 Z12.5
Y29.2055 Z12.58
Y29.1855 Z12.664
Y29.1788 Z12.75
G0 Z23.2
X270.346226 Y29.4955
G1 Z19.2 F1200.
Z12.75
Y29.4888 Z12.664
Y29.4688 Z12.58
Y29.4355 Z12.5
X270.347237 Y29.399 Z12.427
Y29.3344 Z12.361
Y29.2688 Z12.305
Y29.1955 Z12.26
Y29.1155 Z12.227
Y29.0311 Z12.207
Y28.9455 Z12.2
X270.348248 Y28.3955 F1000.
G3 X270.899239 Y27.8466 I0.55 J0.001
G2 X288.432222 Y13.0544 I0.031 J-17.75 F3600.
Y12.1388 I-2.712 J-0.458
X270.961241 Y-2.6544 I-17.502 J2.958
G1 X215.961231 Y-2.755
G2 X198.428222 Y12.0422 I-0.031 J17.75
Y12.9588 I2.712 J0.458
X215.899239 Y27.755 I17.502 J-2.958
G1 X270.899239 Y27.8466
G3 X271.448248 Y28.3977 I-0.001 J0.55 F1000.
G1 X271.447247 Y28.9477
Y29.0333 Z12.207
Y29.1177 Z12.227
Y29.1977 Z12.26
Y29.277 Z12.305
Y29.3366 Z12.361
Y29.3922 Z12.427
X271.446236 Y29.4377 Z12.5
Y29.477 Z12.58
Y29.499 Z12.664
Y29.4977 Z12.75
G0 Z23.2
X271.447247 Y29.188
G1 Z16.2 F1200.
Z9.75
Y29.1877 Z9.664
Y29.2077 Z9.58
Y29.244 Z9.5
Y29.2855 Z9.427
Y29.3411 Z9.361
X271.446236 Y29.4077 Z9.305
Y29.488 Z9.26
Y29.566 Z9.227
Y29.6444 Z9.207
Y29.733 Z9.2
X271.445225 Y30.288 F1000.
G3 X270.894234 Y30.8299 I-0.55 J-0.001
G1 X216.279249 Y30.7344 F3600.
X216.217227
G2 X198.498232 Y48.4533 I0.031 J17.75
X216.217227 Y66.2344 I17.75 J0.031
G1 X271.217227 Y66.333
G2 X288.998238 Y48.6111 I0.031 J-17.75
X271.279249 Y30.833 I-17.75 J-0.031
G1 X270.894234 Y30.8299
G3 X270.34525 Y30.2788 I0.001 J-0.55 F1000.
G1 X270.346226 Y29.7288
Y29.6422 Z9.207
Y29.5588 Z9.227
Y29.4799 Z9.26
Y29.4055 Z9.305
X270.347237 Y29.3399 Z9.361
Y29.2833 Z9.427
Y29.2388 Z9.5
Y29.2055 Z9.58
Y29.1855 Z9.664
Y29.1788 Z9.75
G0 Z23.2
X270.346226 Y29.4955
G1 Z16.2 F1200.
Z9.75
Y29.4888 Z9.664
Y29.4688 Z9.58
Y29.4355 Z9.5
X270.347237 Y29.399 Z9.427
Y29.3344 Z9.361
Y29.2688 Z9.305
Y29.1955 Z9.26
Y29.1155 Z9.227
Y29.0311 Z9.207
Y28.9455 Z9.2
X270.348248 Y28.3955 F1000.
G3 X270.899239 Y27.8466 I0.55 J0.001
G2 X288.432222 Y13.0544 I0.031 J-17.75 F3600.
Y12.1388 I-2.712 J-0.458
X270.961241 Y-2.6544 I-17.502 J2.958
G1 X215.961231 Y-2.755
G2 X198.428222 Y12.0422 I-0.031 J17.75
Y12.9588 I2.712 J0.458
X215.899239 Y27.755 I17.502 J-2.958
G1 X270.899239 Y27.8466
G3 X271.448248 Y28.3977 I-0.001 J0.55 F1000.
G1 X271.447247 Y28.9477
Y29.0333 Z9.207
Y29.1177 Z9.227
Y29.1977 Z9.26
Y29.277 Z9.305
Y29.3366 Z9.361
Y29.3922 Z9.427
X271.446236 Y29.4377 Z9.5
Y29.477 Z9.58
Y29.499 Z9.664
Y29.4977 Z9.75
G0 Z23.2
X271.447247 Y29.188
G1 Z13.2 F1200.
Z6.75
Y29.1877 Z6.664
Y29.2077 Z6.58
Y29.244 Z6.5
Y29.2855 Z6.427
Y29.3411 Z6.361
X271.446236 Y29.4077 Z6.305
Y29.488 Z6.26
Y29.566 Z6.227
Y29.6444 Z6.207
Y29.733 Z6.2
X271.445225 Y30.288 F1000.
G3 X270.894234 Y30.8299 I-0.55 J-0.001
G1 X216.279249 Y30.7344 F3600.
X216.217227
G2 X198.498232 Y48.4533 I0.031 J17.75
X216.217227 Y66.2344 I17.75 J0.031
G1 X271.217227 Y66.333
G2 X288.998238 Y48.6111 I0.031 J-17.75
X271.279249 Y30.833 I-17.75 J-0.031
G1 X270.894234 Y30.8299
G3 X270.34525 Y30.2788 I0.001 J-0.55 F1000.
G1 X270.346226 Y29.7288
Y29.6422 Z6.207
Y29.5588 Z6.227
Y29.4799 Z6.26
Y29.4055 Z6.305
X270.347237 Y29.3399 Z6.361
Y29.2833 Z6.427
Y29.2388 Z6.5
Y29.2055 Z6.58
Y29.1855 Z6.664
Y29.1788 Z6.75
G0 Z23.2
X270.346226 Y29.4955
G1 Z13.2 F1200.
Z6.75
Y29.4888 Z6.664
Y29.4688 Z6.58
Y29.4355 Z6.5
X270.347237 Y29.399 Z6.427
Y29.3344 Z6.361
Y29.2688 Z6.305
Y29.1955 Z6.26
Y29.1155 Z6.227
Y29.0311 Z6.207
Y28.9455 Z6.2
X270.348248 Y28.3955 F1000.
G3 X270.899239 Y27.8466 I0.55 J0.001
G2 X288.432222 Y13.0544 I0.031 J-17.75 F3600.
Y12.1388 I-2.712 J-0.458
X270.961241 Y-2.6544 I-17.502 J2.958
G1 X215.961231 Y-2.755
G2 X198.428222 Y12.0422 I-0.031 J17.75
Y12.9588 I2.712 J0.458
X215.899239 Y27.755 I17.502 J-2.958
G1 X270.899239 Y27.8466
G3 X271.448248 Y28.3977 I-0.001 J0.55 F1000.
G1 X271.447247 Y28.9477
Y29.0333 Z6.207
Y29.1177 Z6.227
Y29.1977 Z6.26
Y29.277 Z6.305
Y29.3366 Z6.361
Y29.3922 Z6.427
X271.446236 Y29.4377 Z6.5
Y29.477 Z6.58
Y29.499 Z6.664
Y29.4977 Z6.75
G0 Z23.2
X271.447247 Y29.188
G1 Z10.2 F1200.
Z3.75
Y29.1877 Z3.664
Y29.2077 Z3.58
Y29.244 Z3.5
Y29.2855 Z3.427
Y29.3411 Z3.361
X271.446236 Y29.4077 Z3.305
Y29.488 Z3.26
Y29.566 Z3.227
Y29.6444 Z3.207
Y29.733 Z3.2
X271.445225 Y30.288 F1000.
G3 X270.894234 Y30.8299 I-0.55 J-0.001
G1 X216.279249 Y30.7344 F3600.
X216.217227
G2 X198.498232 Y48.4533 I0.031 J17.75
X216.217227 Y66.2344 I17.75 J0.031
G1 X271.217227 Y66.333
G2 X288.998238 Y48.6111 I0.031 J-17.75
X271.279249 Y30.833 I-17.75 J-0.031
G1 X270.894234 Y30.8299
G3 X270.34525 Y30.2788 I0.001 J-0.55 F1000.
G1 X270.346226 Y29.7288
Y29.6422 Z3.207
Y29.5588 Z3.227
Y29.4799 Z3.26
Y29.4055 Z3.305
X270.347237 Y29.3399 Z3.361
Y29.2833 Z3.427
Y29.2388 Z3.5
Y29.2055 Z3.58
Y29.1855 Z3.664
Y29.1788 Z3.75
G0 Z23.2
X270.346226 Y29.4955
G1 Z10.2 F1200.
Z3.75
Y29.4888 Z3.664
Y29.4688 Z3.58
Y29.4355 Z3.5
X270.347237 Y29.399 Z3.427
Y29.3344 Z3.361
Y29.2688 Z3.305
Y29.1955 Z3.26
Y29.1155 Z3.227
Y29.0311 Z3.207
Y28.9455 Z3.2
X270.348248 Y28.3955 F1000.
G3 X270.899239 Y27.8466 I0.55 J0.001
G2 X288.432222 Y13.0544 I0.031 J-17.75 F3600.
Y12.1388 I-2.712 J-0.458
X270.961241 Y-2.6544 I-17.502 J2.958
G1 X215.961231 Y-2.755
G2 X198.428222 Y12.0422 I-0.031 J17.75
Y12.9588 I2.712 J0.458
X215.899239 Y27.755 I17.502 J-2.958
G1 X270.899239 Y27.8466
G3 X271.448248 Y28.3977 I-0.001 J0.55 F1000.
G1 X271.447247 Y28.9477
Y29.0333 Z3.207
Y29.1177 Z3.227
Y29.1977 Z3.26
Y29.277 Z3.305
Y29.3366 Z3.361
Y29.3922 Z3.427
X271.446236 Y29.4377 Z3.5
Y29.477 Z3.58
Y29.499 Z3.664
Y29.4977 Z3.75
G0 Z23.2
X271.447247 Y29.188
G1 Z7.2 F1200.
Z2.15
Y29.1877 Z2.064
Y29.2077 Z1.98
Y29.244 Z1.9
Y29.2855 Z1.827
Y29.3411 Z1.761
X271.446236 Y29.4077 Z1.705
Y29.488 Z1.66
Y29.566 Z1.627
Y29.6444 Z1.607
Y29.733 Z1.6
X271.445225 Y30.288 F1000.
G3 X270.894234 Y30.8299 I-0.55 J-0.001
G1 X216.279249 Y30.7344 F3600.
X216.217227
G2 X198.498232 Y48.4533 I0.031 J17.75
X216.217227 Y66.2344 I17.75 J0.031
G1 X271.217227 Y66.333
G2 X288.998238 Y48.6111 I0.031 J-17.75
X271.279249 Y30.833 I-17.75 J-0.031
G1 X270.894234 Y30.8299
G3 X270.34525 Y30.2788 I0.001 J-0.55 F1000.
G1 X270.346226 Y29.7288
Y29.6422 Z1.607
Y29.5588 Z1.627
Y29.4799 Z1.66
Y29.4055 Z1.705
X270.347237 Y29.3399 Z1.761
Y29.2833 Z1.827
Y29.2388 Z1.9
Y29.2055 Z1.98
Y29.1855 Z2.064
Y29.1788 Z2.15
G0 Z23.2
X270.346226 Y29.4955
G1 Z7.2 F1200.
Z2.15
Y29.4888 Z2.064
Y29.4688 Z1.98
Y29.4355 Z1.9
X270.347237 Y29.399 Z1.827
Y29.3344 Z1.761
Y29.2688 Z1.705
Y29.1955 Z1.66
Y29.1155 Z1.627
Y29.0311 Z1.607
Y28.9455 Z1.6
X270.348248 Y28.3955 F1000.
G3 X270.899239 Y27.8466 I0.55 J0.001
G2 X288.432222 Y13.0544 I0.031 J-17.75 F3600.
Y12.1388 I-2.712 J-0.458
X270.961241 Y-2.6544 I-17.502 J2.958
G1 X215.961231 Y-2.755
G2 X198.428222 Y12.0422 I-0.031 J17.75
Y12.9588 I2.712 J0.458
X215.899239 Y27.755 I17.502 J-2.958
G1 X270.899239 Y27.8466
G3 X271.448248 Y28.3977 I-0.001 J0.55 F1000.
G1 X271.447247 Y28.9477
Y29.0333 Z1.607
Y29.1177 Z1.627
Y29.1977 Z1.66
Y29.277 Z1.705
Y29.3366 Z1.761
Y29.3922 Z1.827
X271.446236 Y29.4377 Z1.9
Y29.477 Z1.98
Y29.499 Z2.064
Y29.4977 Z2.15
G0 Z23.2
X271.447247 Y29.188
G1 Z5.6 F1200.
Z0.55
Y29.1877 Z0.464
Y29.2077 Z0.38
Y29.244 Z0.3
Y29.2855 Z0.227
Y29.3411 Z0.161
X271.446236 Y29.4077 Z0.105
Y29.488 Z0.06
Y29.566 Z0.027
Y29.6444 Z0.007
Y29.733 Z0.
X271.445225 Y30.288 F1000.
G3 X270.894234 Y30.8299 I-0.55 J-0.001
G1 X216.279249 Y30.7344 F3600.
X216.217227
G2 X198.498232 Y48.4533 I0.031 J17.75
X216.217227 Y66.2344 I17.75 J0.031
G1 X271.217227 Y66.333
G2 X288.998238 Y48.6111 I0.031 J-17.75
X271.279249 Y30.833 I-17.75 J-0.031
G1 X270.894234 Y30.8299
G3 X270.34525 Y30.2788 I0.001 J-0.55 F1000.
G1 X270.346226 Y29.7288
Y29.6422 Z0.007
Y29.5588 Z0.027
Y29.4799 Z0.06
Y29.4055 Z0.105
X270.347237 Y29.3399 Z0.161
Y29.2833 Z0.227
Y29.2388 Z0.3
Y29.2055 Z0.38
Y29.1855 Z0.464
Y29.1788 Z0.55
G0 Z23.2
X270.346226 Y29.4955
G1 Z5.6 F1200.
Z0.55
Y29.4888 Z0.464
Y29.4688 Z0.38
Y29.4355 Z0.3
X270.347237 Y29.399 Z0.227
Y29.3344 Z0.161
Y29.2688 Z0.105
Y29.1955 Z0.06
Y29.1155 Z0.027
Y29.0311 Z0.007
Y28.9455 Z0.
X270.348248 Y28.3955 F1000.
G3 X270.899239 Y27.8466 I0.55 J0.001
G2 X288.432222 Y13.0544 I0.031 J-17.75 F3600.
Y12.1388 I-2.712 J-0.458
X270.961241 Y-2.6544 I-17.502 J2.958
G1 X215.961231 Y-2.755
G2 X198.428222 Y12.0422 I-0.031 J17.75
Y12.9588 I2.712 J0.458
X215.899239 Y27.755 I17.502 J-2.958
G1 X270.899239 Y27.8466
G3 X271.448248 Y28.3977 I-0.001 J0.55 F1000.
G1 X271.447247 Y28.9477
Y29.0333 Z0.007
Y29.1177 Z0.027
Y29.1977 Z0.06
Y29.277 Z0.105
Y29.3366 Z0.161
Y29.392

(2D CONTOUR4 2)
M5
M9
M1
T162 M6
S12000 M3
G54
M8
G0 X271.447247 Y187.347998
Z33.2
Z23.2
G1 Z22.2 F1200.
Z15.75
Y187.3557 Z15.664
Y187.3757 Z15.58
Y187.4084 Z15.5
Y187.4535 Z15.427
Y187.5091 Z15.361
X271.446236 Y187.5757 Z15.305
Y187.6488 Z15.26
Y187.7286 Z15.227
Y187.8124 Z15.207
Y187.8983 Z15.2
X271.445225 Y188.4488 F1000.
G3 X270.894234 Y188.9979 I-0.55 J-0.001
G1 X216.279249 Y188.9024 F3600.
X216.217227
G2 X198.498232 Y206.6213 I0.031 J17.75
X216.217227 Y224.402014 I17.75 J0.031
G1 X271.217227 Y224.4983
G2 X288.998238 Y206.778991 I0.031 J-17.75
X271.279249 Y188.9983 I-17.75 J-0.031
G1 X270.894234 Y188.9979
G3 X270.34525 Y188.4468 I0.001 J-0.55 F1000.
G1 X270.346226 Y187.8968
Y187.812 Z15.207
Y187.7268 Z15.227
Y187.6479 Z15.26
Y187.5735 Z15.305
X270.347237 Y187.5079 Z15.361
Y187.4513 Z15.427
Y187.4068 Z15.5
Y187.3735 Z15.58
Y187.3535 Z15.664
Y187.3468 Z15.75
G0 Z23.2
X270.346226 Y187.6635
G1 Z22.2 F1200.
Z15.75
Y187.6568 Z15.664
Y187.6368 Z15.58
Y187.6035 Z15.5
X270.347237 Y187.5589 Z15.427
Y187.5024 Z15.361
Y187.4368 Z15.305
Y187.3635 Z15.26
Y187.2835 Z15.227
Y187.1991 Z15.207
Y187.1135 Z15.2
X270.348248 Y186.5635 F1000.
G3 X270.899239 Y186.0146 I0.55 J0.001
G2 X288.432222 Y171.2224 I0.031 J-17.75 F3600.
Y170.3068 I-2.712 J-0.458
X270.961241 Y155.513994 I-17.502 J2.958
G1 X215.961231 Y155.4185
G2 X198.428222 Y170.209992 I-0.031 J17.75
Y171.1268 I2.712 J0.458
X215.899239 Y185.9185 I17.502 J-2.958
G1 X270.899239 Y186.0146
G3 X271.448248 Y186.5657 I-0.001 J0.55 F1000.
G1 X271.447247 Y187.1157
Y187.2013 Z15.207
Y187.2857 Z15.227
Y187.3657 Z15.26
Y187.4387 Z15.305
Y187.5046 Z15.361
Y187.562 Z15.427
X271.446236 Y187.6057 Z15.5
Y187.6387 Z15.58
Y187.6589 Z15.664
Y187.6657 Z15.75
G0 Z23.2
X271.447247 Y187.347998
G1 Z19.2 F1200.
Z12.75
Y187.3557 Z12.664
Y187.3757 Z12.58
Y187.4084 Z12.5
Y187.4535 Z12.427
Y187.5091 Z12.361
X271.446236 Y187.5757 Z12.305
Y187.6488 Z12.26
Y187.7286 Z12.227
Y187.8124 Z12.207
Y187.8983 Z12.2
X271.445225 Y188.4488 F1000.
G3 X270.894234 Y188.9979 I-0.55 J-0.001
G1 X216.279249 Y188.9024 F3600.
X216.217227
G2 X198.498232 Y206.6213 I0.031 J17.75
X216.217227 Y224.402014 I17.75 J0.031
G1 X271.217227 Y224.4983
G2 X288.998238 Y206.778991 I0.031 J-17.75
X271.279249 Y188.9983 I-17.75 J-0.031
G1 X270.894234 Y188.9979
G3 X270.34525 Y188.4468 I0.001 J-0.55 F1000.
G1 X270.346226 Y187.8968
Y187.812 Z12.207
Y187.7268 Z12.227
Y187.6479 Z12.26
Y187.5735 Z12.305
X270.347237 Y187.5079 Z12.361
Y187.4513 Z12.427
Y187.4068 Z12.5
Y187.3735 Z12.58
Y187.3535 Z12.664
Y187.3468 Z12.75
G0 Z23.2
X270.346226 Y187.6635
G1 Z19.2 F1200.
Z12.75
Y187.6568 Z12.664
Y187.6368 Z12.58
Y187.6035 Z12.5
X270.347237 Y187.5589 Z12.427
Y187.5024 Z12.361
Y187.4368 Z12.305
Y187.3635 Z12.26
Y187.2835 Z12.227
Y187.1991 Z12.207
Y187.1135 Z12.2
X270.348248 Y186.5635 F1000.
G3 X270.899239 Y186.0146 I0.55 J0.001
G2 X288.432222 Y171.2224 I0.031 J-17.75 F3600.
Y170.3068 I-2.712 J-0.458
X270.961241 Y155.513994 I-17.502 J2.958
G1 X215.961231 Y155.4185
G2 X198.428222 Y170.209992 I-0.031 J17.75
Y171.1268 I2.712 J0.458
X215.899239 Y185.9185 I17.502 J-2.958
G1 X270.899239 Y186.0146
G3 X271.448248 Y186.5657 I-0.001 J0.55 F1000.
G1 X271.447247 Y187.1157
Y187.2013 Z12.207
Y187.2857 Z12.227
Y187.3657 Z12.26
Y187.4387 Z12.305
Y187.5046 Z12.361
Y187.562 Z12.427
X271.446236 Y187.6057 Z12.5
Y187.6387 Z12.58
Y187.6589 Z12.664
Y187.6657 Z12.75
G0 Z23.2
X271.447247 Y187.347998
G1 Z16.2 F1200.
Z9.75
Y187.3557 Z9.664
Y187.3757 Z9.58
Y187.4084 Z9.5
Y187.4535 Z9.427
Y187.5091 Z9.361
X271.446236 Y187.5757 Z9.305
Y187.6488 Z9.26
Y187.7286 Z9.227
Y187.8124 Z9.207
Y187.8983 Z9.2
X271.445225 Y188.4488 F1000.
G3 X270.894234 Y188.9979 I-0.55 J-0.001
G1 X216.279249 Y188.9024 F3600.
X216.217227
G2 X198.498232 Y206.6213 I0.031 J17.75
X216.217227 Y224.402014 I17.75 J0.031
G1 X271.217227 Y224.4983
G2 X288.998238 Y206.778991 I0.031 J-17.75
X271.279249 Y188.9983 I-17.75 J-0.031
G1 X270.894234 Y188.9979
G3 X270.34525 Y188.4468 I0.001 J-0.55 F1000.
G1 X270.346226 Y187.8968
Y187.812 Z9.207
Y187.7268 Z9.227
Y187.6479 Z9.26
Y187.5735 Z9.305
X270.347237 Y187.5079 Z9.361
Y187.4513 Z9.427
Y187.4068 Z9.5
Y187.3735 Z9.58
Y187.3535 Z9.664
Y187.3468 Z9.75
G0 Z23.2
X270.346226 Y187.6635
G1 Z16.2 F1200.
Z9.75
Y187.6568 Z9.664
Y187.6368 Z9.58
Y187.6035 Z9.5
X270.347237 Y187.5589 Z9.427
Y187.5024 Z9.361
Y187.4368 Z9.305
Y187.3635 Z9.26
Y187.2835 Z9.227
Y187.1991 Z9.207
Y187.1135 Z9.2
X270.348248 Y186.5635 F1000.
G3 X270.899239 Y186.0146 I0.55 J0.001
G2 X288.432222 Y171.2224 I0.031 J-17.75 F3600.
Y170.3068 I-2.712 J-0.458
X270.961241 Y155.513994 I-17.502 J2.958
G1 X215.961231 Y155.4185
G2 X198.428222 Y170.209992 I-0.031 J17.75
Y171.1268 I2.712 J0.458
X215.899239 Y185.9185 I17.502 J-2.958
G1 X270.899239 Y186.0146
G3 X271.448248 Y186.5657 I-0.001 J0.55 F1000.
G1 X271.447247 Y187.1157
Y187.2013 Z9.207
Y187.2857 Z9.227
Y187.3657 Z9.26
Y187.4387 Z9.305
Y187.5046 Z9.361
Y187.562 Z9.427
X271.446236 Y187.6057 Z9.5
Y187.6387 Z9.58
Y187.6589 Z9.664
Y187.6657 Z9.75
G0 Z23.2
X271.447247 Y187.347998
G1 Z13.2 F1200.
Z6.75
Y187.3557 Z6.664
Y187.3757 Z6.58
Y187.4084 Z6.5
Y187.4535 Z6.427
Y187.5091 Z6.361
X271.446236 Y187.5757 Z6.305
Y187.6488 Z6.26
Y187.7286 Z6.227
Y187.8124 Z6.207
Y187.8983 Z6.2
X271.445225 Y188.4488 F1000.
G3 X270.894234 Y188.9979 I-0.55 J-0.001
G1 X216.279249 Y188.9024 F3600.
X216.217227
G2 X198.498232 Y206.6213 I0.031 J17.75
X216.217227 Y224.402014 I17.75 J0.031
G1 X271.217227 Y224.4983
G2 X288.998238 Y206.778991 I0.031 J-17.75
X271.279249 Y188.9983 I-17.75 J-0.031
G1 X270.894234 Y188.9979
G3 X270.34525 Y188.4468 I0.001 J-0.55 F1000.
G1 X270.346226 Y187.8968
Y187.812 Z6.207
Y187.7268 Z6.227
Y187.6479 Z6.26
Y187.5735 Z6.305
X270.347237 Y187.5079 Z6.361
Y187.4513 Z6.427
Y187.4068 Z6.5
Y187.3735 Z6.58
Y187.3535 Z6.664
Y187.3468 Z6.75
G0 Z23.2
X270.346226 Y187.6635
G1 Z13.2 F1200.
Z6.75
Y187.6568 Z6.664
Y187.6368 Z6.58
Y187.6035 Z6.5
X270.347237 Y187.5589 Z6.427
Y187.5024 Z6.361
Y187.4368 Z6.305
Y187.3635 Z6.26
Y187.2835 Z6.227
Y187.1991 Z6.207
Y187.1135 Z6.2
X270.348248 Y186.5635 F1000.
G3 X270.899239 Y186.0146 I0.55 J0.001
G2 X288.432222 Y171.2224 I0.031 J-17.75 F3600.
Y170.3068 I-2.712 J-0.458
X270.961241 Y155.513994 I-17.502 J2.958
G1 X215.961231 Y155.4185
G2 X198.428222 Y170.209992 I-0.031 J17.75
Y171.1268 I2.712 J0.458
X215.899239 Y185.9185 I17.502 J-2.958
G1 X270.899239 Y186.0146
G3 X271.448248 Y186.5657 I-0.001 J0.55 F1000.
G1 X271.447247 Y187.1157
Y187.2013 Z6.207
Y187.2857 Z6.227
Y187.3657 Z6.26
Y187.4387 Z6.305
Y187.5046 Z6.361
Y187.562 Z6.427
X271.446236 Y187.6057 Z6.5
Y187.6387 Z6.58
Y187.6589 Z6.664
Y187.6657 Z6.75
G0 Z23.2
X271.447247 Y187.347998
G1 Z10.2 F1200.
Z3.75
Y187.3557 Z3.664
Y187.3757 Z3.58
Y187.4084 Z3.5
Y187.4535 Z3.427
Y187.5091 Z3.361
X271.446236 Y187.5757 Z3.305
Y187.6488 Z3.26
Y187.7286 Z3.227
Y187.8124 Z3.207
Y187.8983 Z3.2
X271.445225 Y188.4488 F1000.
G3 X270.894234 Y188.9979 I-0.55 J-0.001
G1 X216.279249 Y188.9024 F3600.
X216.217227
G2 X198.498232 Y206.6213 I0.031 J17.75
X216.217227 Y224.402014 I17.75 J0.031
G1 X271.217227 Y224.4983
G2 X288.998238 Y206.778991 I0.031 J-17.75
X271.279249 Y188.9983 I-17.75 J-0.031
G1 X270.894234 Y188.9979
G3 X270.34525 Y188.4468 I0.001 J-0.55 F1000.
G1 X270.346226 Y187.8968
Y187.812 Z3.207
Y187.7268 Z3.227
Y187.6479 Z3.26
Y187.5735 Z3.305
X270.347237 Y187.5079 Z3.361
Y187.4513 Z3.427
Y187.4068 Z3.5
Y187.3735 Z3.58
Y187.3535 Z3.664
Y187.3468 Z3.75
G0 Z23.2
X270.346226 Y187.6635
G1 Z10.2 F1200.
Z3.75
Y187.6568 Z3.664
Y187.6368 Z3.58
Y187.6035 Z3.5
X270.347237 Y187.5589 Z3.427
Y187.5024 Z3.361
Y187.4368 Z3.305
Y187.3635 Z3.26
Y187.2835 Z3.227
Y187.1991 Z3.207
Y187.1135 Z3.2
X270.348248 Y186.5635 F1000.
G3 X270.899239 Y186.0146 I0.55 J0.001
G2 X288.432222 Y171.2224 I0.031 J-17.75 F3600.
Y170.3068 I-2.712 J-0.458
X270.961241 Y155.513994 I-17.502 J2.958
G1 X215.961231 Y155.4185
G2 X198.428222 Y170.209992 I-0.031 J17.75
Y171.1268 I2.712 J0.458
X215.899239 Y185.9185 I17.502 J-2.958
G1 X270.899239 Y186.0146
G3 X271.448248 Y186.5657 I-0.001 J0.55 F1000.
G1 X271.447247 Y187.1157
Y187.2013 Z3.207
Y187.2857 Z3.227
Y187.3657 Z3.26
Y187.4387 Z3.305
Y187.5046 Z3.361
Y187.562 Z3.427
X271.446236 Y187.6057 Z3.5
Y187.6387 Z3.58
Y187.6589 Z3.664
Y187.6657 Z3.75
G0 Z23.2
X271.447247 Y187.347998
G1 Z7.2 F1200.
Z2.15
Y187.3557 Z2.064
Y187.3757 Z1.98
Y187.4084 Z1.9
Y187.4535 Z1.827
Y187.5091 Z1.761
X271.446236 Y187.5757 Z1.705
Y187.6488 Z1.66
Y187.7286 Z1.627
Y187.8124 Z1.607
Y187.8983 Z1.6
X271.445225 Y188.4488 F1000.
G3 X270.894234 Y188.9979 I-0.55 J-0.001
G1 X216.279249 Y188.9024 F3600.
X216.217227
G2 X198.498232 Y206.6213 I0.031 J17.75
X216.217227 Y224.402014 I17.75 J0.031
G1 X271.217227 Y224.4983
G2 X288.998238 Y206.778991 I0.031 J-17.75
X271.279249 Y188.9983 I-17.75 J-0.031
G1 X270.894234 Y188.9979
G3 X270.34525 Y188.4468 I0.001 J-0.55 F1000.
G1 X270.346226 Y187.8968
Y187.812 Z1.607
Y187.7268 Z1.627
Y187.6479 Z1.66
Y187.5735 Z1.705
X270.347237 Y187.5079 Z1.761
Y187.4513 Z1.827
Y187.4068 Z1.9
Y187.3735 Z1.98
Y187.3535 Z2.064
Y187.3468 Z2.15
G0 Z23.2
X270.346226 Y187.6635
G1 Z7.2 F1200.
Z2.15
Y187.6568 Z2.064
Y187.6368 Z1.98
Y187.6035 Z1.9
X270.347237 Y187.5589 Z1.827
Y187.5024 Z1.761
Y187.4368 Z1.705
Y187.3635 Z1.66
Y187.2835 Z1.627
Y187.1991 Z1.607
Y187.1135 Z1.6
X270.348248 Y186.5635 F1000.
G3 X270.899239 Y186.0146 I0.55 J0.001
G2 X288.432222 Y171.2224 I0.031 J-17.75 F3600.
Y170.3068 I-2.712 J-0.458
X270.961241 Y155.513994 I-17.502 J2.958
G1 X215.961231 Y155.4185
G2 X198.428222 Y170.209992 I-0.031 J17.75
Y171.1268 I2.712 J0.458
X215.899239 Y185.9185 I17.502 J-2.958
G1 X270.899239 Y186.0146
G3 X271.448248 Y186.5657 I-0.001 J0.55 F1000.
G1 X271.447247 Y187.1157
Y187.2013 Z1.607
Y187.2857 Z1.627
Y187.3657 Z1.66
Y187.4387 Z1.705
Y187.5046 Z1.761
Y187.562 Z1.827
X271.446236 Y187.6057 Z1.9
Y187.6387 Z1.98
Y187.6589 Z2.064
Y187.6657 Z2.15
G0 Z23.2
X271.447247 Y187.347998
G1 Z5.6 F1200.
Z0.55
Y187.3557 Z0.464
Y187.3757 Z0.38
Y187.4084 Z0.3
Y187.4535 Z0.227
Y187.5091 Z0.161
X271.446236 Y187.5757 Z0.105
Y187.6488 Z0.06
Y187.7286 Z0.027
Y187.8124 Z0.007
Y187.8983 Z0.
X271.445225 Y188.4488 F1000.
G3 X270.894234 Y188.9979 I-0.55 J-0.001
G1 X216.279249 Y188.9024 F3600.
X216.217227
G2 X198.498232 Y206.6213 I0.031 J17.75
X216.217227 Y224.402014 I17.75 J0.031
G1 X271.217227 Y224.4983
G2 X288.998238 Y206.778991 I0.031 J-17.75
X271.279249 Y188.9983 I-17.75 J-0.031
G1 X270.894234 Y188.9979
G3 X270.34525 Y188.4468 I0.001 J-0.55 F1000.
G1 X270.346226 Y187.8968
Y187.812 Z0.007
Y187.7268 Z0.027
Y187.6479 Z0.06
Y187.5735 Z0.105
X270.347237 Y187.5079 Z0.161
Y187.4513 Z0.227
Y187.4068 Z0.3
Y187.3735 Z0.38
Y187.3535 Z0.464
Y187.3468 Z0.55
G0 Z23.2
X270.346226 Y187.6635
G1 Z5.6 F1200.
Z0.55
Y187.6568 Z0.464
Y187.6368 Z0.38
Y187.6035 Z0.3
X270.347237 Y187.5589 Z0.227
Y187.5024 Z0.161
Y187.4368 Z0.105
Y187.3635 Z0.06
Y187.2835 Z0.027
Y187.1991 Z0.007
Y187.1135 Z0.
X270.348248 Y186.5635 F1000.
G3 X270.899239 Y186.0146 I0.55 J0.001
G2 X288.432222 Y171.2224 I0.031 J-17.75 F3600.
Y170.3068 I-2.712 J-0.458
X270.961241 Y155.513994 I-17.502 J2.958
G1 X215.961231 Y155.4185
G2 X198.428222 Y170.209992 I-0.031 J17.75
Y171.1268 I2.712 J0.458
X215.899239 Y185.9185 I17.502 J-2.958
G1 X270.899239 Y186.0146
G3 X271.448248 Y186.5657 I-0.001 J0.55 F1000.
G1 X271.447247 Y187.1157
Y187.2013 Z0.007
Y187.2857 Z0.027
Y187.3657 Z0.06
Y187.4387 Z0.105
Y187.5046 Z0.161
Y187.56

(2D CONTOUR4 2)
M5
M9
M1
T162 M6
S12000 M3
G54
M8
G0 X70.3077 Y108.268
Z33.2
Z23.2
G1 Z22.2 F1200.
Z15.75
Y108.2677 Z15.664
Y108.2877 Z15.58
Y108.324 Z15.5
Y108.3650055 Z15.427
Y108.4210051 Z15.361
X70.3066 Y108.4877 Z15.305
Y108.568 Z15.26
Y108.646 Z15.227
Y108.7244 Z15.207
Y108.813 Z15.2
X70.3055 Y109.368 F1000.
G3 X69.7544 Y109.9090049 I-0.55 J-0.001
G1 X15.1399 Y109.8144 F3600.
X15.0777
G2 X-2.6422 Y127.5330053 I0.031 J17.75
X15.0777 Y145.3144 I17.75 J0.031
G1 X70.0777 Y145.413
G2 X87.8588 Y127.6911 I0.031 J-17.75
X70.1399 Y109.913 I-17.75 J-0.031
G1 X69.7544 Y109.9090049
G3 X69.2055 Y109.3588 I0.001 J-0.55 F1000.
G1 X69.2066 Y108.8088
Y108.7222 Z15.207
Y108.6388 Z15.227
Y108.5590069 Z15.26
Y108.4855 Z15.305
X69.2077 Y108.419019 Z15.361
Y108.363013 Z15.427
Y108.3188 Z15.5
Y108.2855 Z15.58
Y108.2655 Z15.664
Y108.2588 Z15.75
G0 Z23.2
X69.2066 Y108.5750055
G1 Z22.2 F1200.
Z15.75
Y108.5688 Z15.664
Y108.5480048 Z15.58
Y108.5155 Z15.5
X69.2077 Y108.479 Z15.427
Y108.4144 Z15.361
Y108.3488 Z15.305
Y108.2755 Z15.26
Y108.1955 Z15.227
Y108.1111 Z15.207
Y108.0255 Z15.2
X69.2088 Y107.4750065 F1000.
G3 X69.7599 Y106.9266 I0.55 J0.001
G2 X87.2922 Y92.1344 I0.031 J-17.75 F3600.
Y91.2188 I-2.712 J-0.458
X69.8211 Y76.4264 I-17.502 J2.958
G1 X14.8211 Y76.335
G2 X-2.7122 Y91.1222 I-0.031 J17.75
Y92.0388 I2.712 J0.458
X14.7599 Y106.835 I17.502 J-2.958
G1 X69.7599 Y106.9266
G3 X70.3088 Y107.4770057 I-0.001 J0.55 F1000.
G1 X70.3077 Y108.0277
Y108.113013 Z15.207
Y108.197017 Z15.227
Y108.2777 Z15.26
Y108.3500067 Z15.305
Y108.4166 Z15.361
Y108.4722 Z15.427
X70.3066 Y108.5177 Z15.5
Y108.557 Z15.58
Y108.579 Z15.664
Y108.5777 Z15.75
G0 Z23.2
X70.3077 Y108.268
G1 Z19.2 F1200.
Z12.75
Y108.2677 Z12.664
Y108.2877 Z12.58
Y108.324 Z12.5
Y108.3650055 Z12.427
Y108.4210051 Z12.361
X70.3066 Y108.4877 Z12.305
Y108.568 Z12.26
Y108.646 Z12.227
Y108.7244 Z12.207
Y108.813 Z12.2
X70.3055 Y109.368 F1000.
G3 X69.7544 Y109.9090049 I-0.55 J-0.001
G1 X15.1399 Y109.8144 F3600.
X15.0777
G2 X-2.6422 Y127.5330053 I0.031 J17.75
X15.0777 Y145.3144 I17.75 J0.031
G1 X70.0777 Y145.413
G2 X87.8588 Y127.6911 I0.031 J-17.75
X70.1399 Y109.913 I-17.75 J-0.031
G1 X69.7544 Y109.9090049
G3 X69.2055 Y109.3588 I0.001 J-0.55 F1000.
G1 X69.2066 Y108.8088
Y108.7222 Z12.207
Y108.6388 Z12.227
Y108.5590069 Z12.26
Y108.4855 Z12.305
X69.2077 Y108.419019 Z12.361
Y108.363013 Z12.427
Y108.3188 Z12.5
Y108.2855 Z12.58
Y108.2655 Z12.664
Y108.2588 Z12.75
G0 Z23.2
X69.2066 Y108.5750055
G1 Z19.2 F1200.
Z12.75
Y108.5688 Z12.664
Y108.5480048 Z12.58
Y108.5155 Z12.5
X69.2077 Y108.479 Z12.427
Y108.4144 Z12.361
Y108.3488 Z12.305
Y108.2755 Z12.26
Y108.1955 Z12.227
Y108.1111 Z12.207
Y108.0255 Z12.2
X69.2088 Y107.4750065 F1000.
G3 X69.7599 Y106.9266 I0.55 J0.001
G2 X87.2922 Y92.1344 I0.031 J-17.75 F3600.
Y91.2188 I-2.712 J-0.458
X69.8211 Y76.4264 I-17.502 J2.958
G1 X14.8211 Y76.335
G2 X-2.7122 Y91.1222 I-0.031 J17.75
Y92.0388 I2.712 J0.458
X14.7599 Y106.835 I17.502 J-2.958
G1 X69.7599 Y106.9266
G3 X70.3088 Y107.4770057 I-0.001 J0.55 F1000.
G1 X70.3077 Y108.0277
Y108.113013 Z12.207
Y108.197017 Z12.227
Y108.2777 Z12.26
Y108.3500067 Z12.305
Y108.4166 Z12.361
Y108.4722 Z12.427
X70.3066 Y108.5177 Z12.5
Y108.557 Z12.58
Y108.579 Z12.664
Y108.5777 Z12.75
G0 Z23.2
X70.3077 Y108.268
G1 Z16.2 F1200.
Z9.75
Y108.2677 Z9.664
Y108.2877 Z9.58
Y108.324 Z9.5
Y108.3650055 Z9.427
Y108.4210051 Z9.361
X70.3066 Y108.4877 Z9.305
Y108.568 Z9.26
Y108.646 Z9.227
Y108.7244 Z9.207
Y108.813 Z9.2
X70.3055 Y109.368 F1000.
G3 X69.7544 Y109.9090049 I-0.55 J-0.001
G1 X15.1399 Y109.8144 F3600.
X15.0777
G2 X-2.6422 Y127.5330053 I0.031 J17.75
X15.0777 Y145.3144 I17.75 J0.031
G1 X70.0777 Y145.413
G2 X87.8588 Y127.6911 I0.031 J-17.75
X70.1399 Y109.913 I-17.75 J-0.031
G1 X69.7544 Y109.9090049
G3 X69.2055 Y109.3588 I0.001 J-0.55 F1000.
G1 X69.2066 Y108.8088
Y108.7222 Z9.207
Y108.6388 Z9.227
Y108.5590069 Z9.26
Y108.4855 Z9.305
X69.2077 Y108.419019 Z9.361
Y108.363013 Z9.427
Y108.3188 Z9.5
Y108.2855 Z9.58
Y108.2655 Z9.664
Y108.2588 Z9.75
G0 Z23.2
X69.2066 Y108.5750055
G1 Z16.2 F1200.
Z9.75
Y108.5688 Z9.664
Y108.5480048 Z9.58
Y108.5155 Z9.5
X69.2077 Y108.479 Z9.427
Y108.4144 Z9.361
Y108.3488 Z9.305
Y108.2755 Z9.26
Y108.1955 Z9.227
Y108.1111 Z9.207
Y108.0255 Z9.2
X69.2088 Y107.4750065 F1000.
G3 X69.7599 Y106.9266 I0.55 J0.001
G2 X87.2922 Y92.1344 I0.031 J-17.75 F3600.
Y91.2188 I-2.712 J-0.458
X69.8211 Y76.4264 I-17.502 J2.958
G1 X14.8211 Y76.335
G2 X-2.7122 Y91.1222 I-0.031 J17.75
Y92.0388 I2.712 J0.458
X14.7599 Y106.835 I17.502 J-2.958
G1 X69.7599 Y106.9266
G3 X70.3088 Y107.4770057 I-0.001 J0.55 F1000.
G1 X70.3077 Y108.0277
Y108.113013 Z9.207
Y108.197017 Z9.227
Y108.2777 Z9.26
Y108.3500067 Z9.305
Y108.4166 Z9.361
Y108.4722 Z9.427
X70.3066 Y108.5177 Z9.5
Y108.557 Z9.58
Y108.579 Z9.664
Y108.5777 Z9.75
G0 Z23.2
X70.3077 Y108.268
G1 Z13.2 F1200.
Z6.75
Y108.2677 Z6.664
Y108.2877 Z6.58
Y108.324 Z6.5
Y108.3650055 Z6.427
Y108.4210051 Z6.361
X70.3066 Y108.4877 Z6.305
Y108.568 Z6.26
Y108.646 Z6.227
Y108.7244 Z6.207
Y108.813 Z6.2
X70.3055 Y109.368 F1000.
G3 X69.7544 Y109.9090049 I-0.55 J-0.001
G1 X15.1399 Y109.8144 F3600.
X15.0777
G2 X-2.6422 Y127.5330053 I0.031 J17.75
X15.0777 Y145.3144 I17.75 J0.031
G1 X70.0777 Y145.413
G2 X87.8588 Y127.6911 I0.031 J-17.75
X70.1399 Y109.913 I-17.75 J-0.031
G1 X69.7544 Y109.9090049
G3 X69.2055 Y109.3588 I0.001 J-0.55 F1000.
G1 X69.2066 Y108.8088
Y108.7222 Z6.207
Y108.6388 Z6.227
Y108.5590069 Z6.26
Y108.4855 Z6.305
X69.2077 Y108.419019 Z6.361
Y108.363013 Z6.427
Y108.3188 Z6.5
Y108.2855 Z6.58
Y108.2655 Z6.664
Y108.2588 Z6.75
G0 Z23.2
X69.2066 Y108.5750055
G1 Z13.2 F1200.
Z6.75
Y108.5688 Z6.664
Y108.5480048 Z6.58
Y108.5155 Z6.5
X69.2077 Y108.479 Z6.427
Y108.4144 Z6.361
Y108.3488 Z6.305
Y108.2755 Z6.26
Y108.1955 Z6.227
Y108.1111 Z6.207
Y108.0255 Z6.2
X69.2088 Y107.4750065 F1000.
G3 X69.7599 Y106.9266 I0.55 J0.001
G2 X87.2922 Y92.1344 I0.031 J-17.75 F3600.
Y91.2188 I-2.712 J-0.458
X69.8211 Y76.4264 I-17.502 J2.958
G1 X14.8211 Y76.335
G2 X-2.7122 Y91.1222 I-0.031 J17.75
Y92.0388 I2.712 J0.458
X14.7599 Y106.835 I17.502 J-2.958
G1 X69.7599 Y106.9266
G3 X70.3088 Y107.4770057 I-0.001 J0.55 F1000.
G1 X70.3077 Y108.0277
Y108.113013 Z6.207
Y108.197017 Z6.227
Y108.2777 Z6.26
Y108.3500067 Z6.305
Y108.4166 Z6.361
Y108.4722 Z6.427
X70.3066 Y108.5177 Z6.5
Y108.557 Z6.58
Y108.579 Z6.664
Y108.5777 Z6.75
G0 Z23.2
X70.3077 Y108.268
G1 Z10.2 F1200.
Z3.75
Y108.2677 Z3.664
Y108.2877 Z3.58
Y108.324 Z3.5
Y108.3650055 Z3.427
Y108.4210051 Z3.361
X70.3066 Y108.4877 Z3.305
Y108.568 Z3.26
Y108.646 Z3.227
Y108.7244 Z3.207
Y108.813 Z3.2
X70.3055 Y109.368 F1000.
G3 X69.7544 Y109.9090049 I-0.55 J-0.001
G1 X15.1399 Y109.8144 F3600.
X15.0777
G2 X-2.6422 Y127.5330053 I0.031 J17.75
X15.0777 Y145.3144 I17.75 J0.031
G1 X70.0777 Y145.413
G2 X87.8588 Y127.6911 I0.031 J-17.75
X70.1399 Y109.913 I-17.75 J-0.031
G1 X69.7544 Y109.9090049
G3 X69.2055 Y109.3588 I0.001 J-0.55 F1000.
G1 X69.2066 Y108.8088
Y108.7222 Z3.207
Y108.6388 Z3.227
Y108.5590069 Z3.26
Y108.4855 Z3.305
X69.2077 Y108.419019 Z3.361
Y108.363013 Z3.427
Y108.3188 Z3.5
Y108.2855 Z3.58
Y108.2655 Z3.664
Y108.2588 Z3.75
G0 Z23.2
X69.2066 Y108.5750055
G1 Z10.2 F1200.
Z3.75
Y108.5688 Z3.664
Y108.5480048 Z3.58
Y108.5155 Z3.5
X69.2077 Y108.479 Z3.427
Y108.4144 Z3.361
Y108.3488 Z3.305
Y108.2755 Z3.26
Y108.1955 Z3.227
Y108.1111 Z3.207
Y108.0255 Z3.2
X69.2088 Y107.4750065 F1000.
G3 X69.7599 Y106.9266 I0.55 J0.001
G2 X87.2922 Y92.1344 I0.031 J-17.75 F3600.
Y91.2188 I-2.712 J-0.458
X69.8211 Y76.4264 I-17.502 J2.958
G1 X14.8211 Y76.335
G2 X-2.7122 Y91.1222 I-0.031 J17.75
Y92.0388 I2.712 J0.458
X14.7599 Y106.835 I17.502 J-2.958
G1 X69.7599 Y106.9266
G3 X70.3088 Y107.4770057 I-0.001 J0.55 F1000.
G1 X70.3077 Y108.0277
Y108.113013 Z3.207
Y108.197017 Z3.227
Y108.2777 Z3.26
Y108.3500067 Z3.305
Y108.4166 Z3.361
Y108.4722 Z3.427
X70.3066 Y108.5177 Z3.5
Y108.557 Z3.58
Y108.579 Z3.664
Y108.5777 Z3.75
G0 Z23.2
X70.3077 Y108.268
G1 Z7.2 F1200.
Z2.15
Y108.2677 Z2.064
Y108.2877 Z1.98
Y108.324 Z1.9
Y108.3650055 Z1.827
Y108.4210051 Z1.761
X70.3066 Y108.4877 Z1.705
Y108.568 Z1.66
Y108.646 Z1.627
Y108.7244 Z1.607
Y108.813 Z1.6
X70.3055 Y109.368 F1000.
G3 X69.7544 Y109.9090049 I-0.55 J-0.001
G1 X15.1399 Y109.8144 F3600.
X15.0777
G2 X-2.6422 Y127.5330053 I0.031 J17.75
X15.0777 Y145.3144 I17.75 J0.031
G1 X70.0777 Y145.413
G2 X87.8588 Y127.6911 I0.031 J-17.75
X70.1399 Y109.913 I-17.75 J-0.031
G1 X69.7544 Y109.9090049
G3 X69.2055 Y109.3588 I0.001 J-0.55 F1000.
G1 X69.2066 Y108.8088
Y108.7222 Z1.607
Y108.6388 Z1.627
Y108.5590069 Z1.66
Y108.4855 Z1.705
X69.2077 Y108.419019 Z1.761
Y108.363013 Z1.827
Y108.3188 Z1.9
Y108.2855 Z1.98
Y108.2655 Z2.064
Y108.2588 Z2.15
G0 Z23.2
X69.2066 Y108.5750055
G1 Z7.2 F1200.
Z2.15
Y108.5688 Z2.064
Y108.5480048 Z1.98
Y108.5155 Z1.9
X69.2077 Y108.479 Z1.827
Y108.4144 Z1.761
Y108.3488 Z1.705
Y108.2755 Z1.66
Y108.1955 Z1.627
Y108.1111 Z1.607
Y108.0255 Z1.6
X69.2088 Y107.4750065 F1000.
G3 X69.7599 Y106.9266 I0.55 J0.001
G2 X87.2922 Y92.1344 I0.031 J-17.75 F3600.
Y91.2188 I-2.712 J-0.458
X69.8211 Y76.4264 I-17.502 J2.958
G1 X14.8211 Y76.335
G2 X-2.7122 Y91.1222 I-0.031 J17.75
Y92.0388 I2.712 J0.458
X14.7599 Y106.835 I17.502 J-2.958
G1 X69.7599 Y106.9266
G3 X70.3088 Y107.4770057 I-0.001 J0.55 F1000.
G1 X70.3077 Y108.0277
Y108.113013 Z1.607
Y108.197017 Z1.627
Y108.2777 Z1.66
Y108.3500067 Z1.705
Y108.4166 Z1.761
Y108.4722 Z1.827
X70.3066 Y108.5177 Z1.9
Y108.557 Z1.98
Y108.579 Z2.064
Y108.5777 Z2.15
G0 Z23.2
X70.3077 Y108.268
G1 Z5.6 F1200.
Z0.55
Y108.2677 Z0.464
Y108.2877 Z0.38
Y108.324 Z0.3
Y108.3650055 Z0.227
Y108.4210051 Z0.161
X70.3066 Y108.4877 Z0.105
Y108.568 Z0.06
Y108.646 Z0.027
Y108.7244 Z0.007
Y108.813 Z0.
X70.3055 Y109.368 F1000.
G3 X69.7544 Y109.9090049 I-0.55 J-0.001
G1 X15.1399 Y109.8144 F3600.
X15.0777
G2 X-2.6422 Y127.5330053 I0.031 J17.75
X15.0777 Y145.3144 I17.75 J0.031
G1 X70.0777 Y145.413
G2 X87.8588 Y127.6911 I0.031 J-17.75
X70.1399 Y109.913 I-17.75 J-0.031
G1 X69.7544 Y109.9090049
G3 X69.2055 Y109.3588 I0.001 J-0.55 F1000.
G1 X69.2066 Y108.8088
Y108.7222 Z0.007
Y108.6388 Z0.027
Y108.5590069 Z0.06
Y108.4855 Z0.105
X69.2077 Y108.419019 Z0.161
Y108.363013 Z0.227
Y108.3188 Z0.3
Y108.2855 Z0.38
Y108.2655 Z0.464
Y108.2588 Z0.55
G0 Z23.2
X69.2066 Y108.5750055
G1 Z5.6 F1200.
Z0.55
Y108.5688 Z0.464
Y108.5480048 Z0.38
Y108.5155 Z0.3
X69.2077 Y108.479 Z0.227
Y108.4144 Z0.161
Y108.3488 Z0.105
Y108.2755 Z0.06
Y108.1955 Z0.027
Y108.1111 Z0.007
Y108.0255 Z0.
X69.2088 Y107.4750065 F1000.
G3 X69.7599 Y106.9266 I0.55 J0.001
G2 X87.2922 Y92.1344 I0.031 J-17.75 F3600.
Y91.2188 I-2.712 J-0.458
X69.8211 Y76.4264 I-17.502 J2.958
G1 X14.8211 Y76.335
G2 X-2.7122 Y91.1222 I-0.031 J17.75
Y92.0388 I2.712 J0.458
X14.7599 Y106.835 I17.502 J-2.958
G1 X69.7599 Y106.9266
G3 X70.3088 Y107.4770057 I-0.001 J0.55 F1000.
G1 X70.3077 Y108.0277
Y108.113013 Z0.007
Y108.197017 Z0.027
Y108.2777 Z0.06
Y108.3500067 Z0.105
Y108.4166 Z0.161
Y108.472

(2D CONTOUR4 2)
M5
M9
M1
T162 M6
S12000 M3
G54
M8
G0 X70.30777 Y266.4368
Z33.2
Z23.2
G1 Z22.2 F1200.
Z15.75
Y266.43577 Z15.664
Y266.45577 Z15.58
Y266.4924 Z15.5
Y266.533025 Z15.427
Y266.5891 Z15.361
X70.30666 Y266.65577 Z15.305
Y266.7368 Z15.26
Y266.8146 Z15.227
Y266.89244 Z15.207
Y266.981023 Z15.2
X70.30555 Y267.5368 F1000.
G3 X69.75444 Y268.0779 I-0.55 J-0.001
G1 X15.13999 Y267.98244 F3600.
X15.07777
G2 X-2.64222 Y285.7013 I0.031 J17.75
X15.07777 Y303.482424 I17.75 J0.031
G1 X70.07777 Y303.5813
G2 X87.85888 Y285.85911 I0.031 J-17.75
X70.13999 Y268.0813 I-17.75 J-0.031
G1 X69.75444 Y268.0779
G3 X69.20555 Y267.52688 I0.001 J-0.55 F1000.
G1 X69.20666 Y266.97688
Y266.89022 Z15.207
Y266.80688 Z15.227
Y266.7279 Z15.26
Y266.65355 Z15.305
X69.20777 Y266.587049 Z15.361
Y266.5313 Z15.427
Y266.486828 Z15.5
Y266.45355 Z15.58
Y266.43355 Z15.664
Y266.42688 Z15.75
G0 Z23.2
X69.20666 Y266.7435
G1 Z22.2 F1200.
Z15.75
Y266.736828 Z15.664
Y266.7168 Z15.58
Y266.68355 Z15.5
X69.20777 Y266.6479 Z15.427
Y266.58244 Z15.361
Y266.516788 Z15.305
Y266.443485 Z15.26
Y266.36355 Z15.227
Y266.27911 Z15.207
Y266.193485 Z15.2
X69.20888 Y265.6435 F1000.
G3 X69.75999 Y265.09466 I0.55 J0.001
G2 X87.29222 Y250.30244 I0.031 J-17.75 F3600.
Y249.386818 I-2.712 J-0.458
X69.82111 Y234.594394 I-17.502 J2.958
G1 X14.82111 Y234.502995
G2 X-2.71222 Y249.290192 I-0.031 J17.75
Y250.20688 I2.712 J0.458
X14.75999 Y265.0035 I17.502 J-2.958
G1 X69.75999 Y265.09466
G3 X70.30888 Y265.645027 I-0.001 J0.55 F1000.
G1 X70.30777 Y266.19577
Y266.2813 Z15.207
Y266.365027 Z15.227
Y266.44577 Z15.26
Y266.5187 Z15.305
Y266.58466 Z15.361
Y266.64022 Z15.427
X70.30666 Y266.68577 Z15.5
Y266.7257 Z15.58
Y266.7479 Z15.664
Y266.74577 Z15.75
G0 Z23.2
X70.30777 Y266.4368
G1 Z19.2 F1200.
Z12.75
Y266.43577 Z12.664
Y266.45577 Z12.58
Y266.4924 Z12.5
Y266.533025 Z12.427
Y266.5891 Z12.361
X70.30666 Y266.65577 Z12.305
Y266.7368 Z12.26
Y266.8146 Z12.227
Y266.89244 Z12.207
Y266.981023 Z12.2
X70.30555 Y267.5368 F1000.
G3 X69.75444 Y268.0779 I-0.55 J-0.001
G1 X15.13999 Y267.98244 F3600.
X15.07777
G2 X-2.64222 Y285.7013 I0.031 J17.75
X15.07777 Y303.482424 I17.75 J0.031
G1 X70.07777 Y303.5813
G2 X87.85888 Y285.85911 I0.031 J-17.75
X70.13999 Y268.0813 I-17.75 J-0.031
G1 X69.75444 Y268.0779
G3 X69.20555 Y267.52688 I0.001 J-0.55 F1000.
G1 X69.20666 Y266.97688
Y266.89022 Z12.207
Y266.80688 Z12.227
Y266.7279 Z12.26
Y266.65355 Z12.305
X69.20777 Y266.587049 Z12.361
Y266.5313 Z12.427
Y266.486828 Z12.5
Y266.45355 Z12.58
Y266.43355 Z12.664
Y266.42688 Z12.75
G0 Z23.2
X69.20666 Y266.7435
G1 Z19.2 F1200.
Z12.75
Y266.736828 Z12.664
Y266.7168 Z12.58
Y266.68355 Z12.5
X69.20777 Y266.6479 Z12.427
Y266.58244 Z12.361
Y266.516788 Z12.305
Y266.443485 Z12.26
Y266.36355 Z12.227
Y266.27911 Z12.207
Y266.193485 Z12.2
X69.20888 Y265.6435 F1000.
G3 X69.75999 Y265.09466 I0.55 J0.001
G2 X87.29222 Y250.30244 I0.031 J-17.75 F3600.
Y249.386818 I-2.712 J-0.458
X69.82111 Y234.594394 I-17.502 J2.958
G1 X14.82111 Y234.502995
G2 X-2.71222 Y249.290192 I-0.031 J17.75
Y250.20688 I2.712 J0.458
X14.75999 Y265.0035 I17.502 J-2.958
G1 X69.75999 Y265.09466
G3 X70.30888 Y265.645027 I-0.001 J0.55 F1000.
G1 X70.30777 Y266.19577
Y266.2813 Z12.207
Y266.365027 Z12.227
Y266.44577 Z12.26
Y266.5187 Z12.305
Y266.58466 Z12.361
Y266.64022 Z12.427
X70.30666 Y266.68577 Z12.5
Y266.7257 Z12.58
Y266.7479 Z12.664
Y266.74577 Z12.75
G0 Z23.2
X70.30777 Y266.4368
G1 Z16.2 F1200.
Z9.75
Y266.43577 Z9.664
Y266.45577 Z9.58
Y266.4924 Z9.5
Y266.533025 Z9.427
Y266.5891 Z9.361
X70.30666 Y266.65577 Z9.305
Y266.7368 Z9.26
Y266.8146 Z9.227
Y266.89244 Z9.207
Y266.981023 Z9.2
X70.30555 Y267.5368 F1000.
G3 X69.75444 Y268.0779 I-0.55 J-0.001
G1 X15.13999 Y267.98244 F3600.
X15.07777
G2 X-2.64222 Y285.7013 I0.031 J17.75
X15.07777 Y303.482424 I17.75 J0.031
G1 X70.07777 Y303.5813
G2 X87.85888 Y285.85911 I0.031 J-17.75
X70.13999 Y268.0813 I-17.75 J-0.031
G1 X69.75444 Y268.0779
G3 X69.20555 Y267.52688 I0.001 J-0.55 F1000.
G1 X69.20666 Y266.97688
Y266.89022 Z9.207
Y266.80688 Z9.227
Y266.7279 Z9.26
Y266.65355 Z9.305
X69.20777 Y266.587049 Z9.361
Y266.5313 Z9.427
Y266.486828 Z9.5
Y266.45355 Z9.58
Y266.43355 Z9.664
Y266.42688 Z9.75
G0 Z23.2
X69.20666 Y266.7435
G1 Z16.2 F1200.
Z9.75
Y266.736828 Z9.664
Y266.7168 Z9.58
Y266.68355 Z9.5
X69.20777 Y266.6479 Z9.427
Y266.58244 Z9.361
Y266.516788 Z9.305
Y266.443485 Z9.26
Y266.36355 Z9.227
Y266.27911 Z9.207
Y266.193485 Z9.2
X69.20888 Y265.6435 F1000.
G3 X69.75999 Y265.09466 I0.55 J0.001
G2 X87.29222 Y250.30244 I0.031 J-17.75 F3600.
Y249.386818 I-2.712 J-0.458
X69.82111 Y234.594394 I-17.502 J2.958
G1 X14.82111 Y234.502995
G2 X-2.71222 Y249.290192 I-0.031 J17.75
Y250.20688 I2.712 J0.458
X14.75999 Y265.0035 I17.502 J-2.958
G1 X69.75999 Y265.09466
G3 X70.30888 Y265.645027 I-0.001 J0.55 F1000.
G1 X70.30777 Y266.19577
Y266.2813 Z9.207
Y266.365027 Z9.227
Y266.44577 Z9.26
Y266.5187 Z9.305
Y266.58466 Z9.361
Y266.64022 Z9.427
X70.30666 Y266.68577 Z9.5
Y266.7257 Z9.58
Y266.7479 Z9.664
Y266.74577 Z9.75
G0 Z23.2
X70.30777 Y266.4368
G1 Z13.2 F1200.
Z6.75
Y266.43577 Z6.664
Y266.45577 Z6.58
Y266.4924 Z6.5
Y266.533025 Z6.427
Y266.5891 Z6.361
X70.30666 Y266.65577 Z6.305
Y266.7368 Z6.26
Y266.8146 Z6.227
Y266.89244 Z6.207
Y266.981023 Z6.2
X70.30555 Y267.5368 F1000.
G3 X69.75444 Y268.0779 I-0.55 J-0.001
G1 X15.13999 Y267.98244 F3600.
X15.07777
G2 X-2.64222 Y285.7013 I0.031 J17.75
X15.07777 Y303.482424 I17.75 J0.031
G1 X70.07777 Y303.5813
G2 X87.85888 Y285.85911 I0.031 J-17.75
X70.13999 Y268.0813 I-17.75 J-0.031
G1 X69.75444 Y268.0779
G3 X69.20555 Y267.52688 I0.001 J-0.55 F1000.
G1 X69.20666 Y266.97688
Y266.89022 Z6.207
Y266.80688 Z6.227
Y266.7279 Z6.26
Y266.65355 Z6.305
X69.20777 Y266.587049 Z6.361
Y266.5313 Z6.427
Y266.486828 Z6.5
Y266.45355 Z6.58
Y266.43355 Z6.664
Y266.42688 Z6.75
G0 Z23.2
X69.20666 Y266.7435
G1 Z13.2 F1200.
Z6.75
Y266.736828 Z6.664
Y266.7168 Z6.58
Y266.68355 Z6.5
X69.20777 Y266.6479 Z6.427
Y266.58244 Z6.361
Y266.516788 Z6.305
Y266.443485 Z6.26
Y266.36355 Z6.227
Y266.27911 Z6.207
Y266.193485 Z6.2
X69.20888 Y265.6435 F1000.
G3 X69.75999 Y265.09466 I0.55 J0.001
G2 X87.29222 Y250.30244 I0.031 J-17.75 F3600.
Y249.386818 I-2.712 J-0.458
X69.82111 Y234.594394 I-17.502 J2.958
G1 X14.82111 Y234.502995
G2 X-2.71222 Y249.290192 I-0.031 J17.75
Y250.20688 I2.712 J0.458
X14.75999 Y265.0035 I17.502 J-2.958
G1 X69.75999 Y265.09466
G3 X70.30888 Y265.645027 I-0.001 J0.55 F1000.
G1 X70.30777 Y266.19577
Y266.2813 Z6.207
Y266.365027 Z6.227
Y266.44577 Z6.26
Y266.5187 Z6.305
Y266.58466 Z6.361
Y266.64022 Z6.427
X70.30666 Y266.68577 Z6.5
Y266.7257 Z6.58
Y266.7479 Z6.664
Y266.74577 Z6.75
G0 Z23.2
X70.30777 Y266.4368
G1 Z10.2 F1200.
Z3.75
Y266.43577 Z3.664
Y266.45577 Z3.58
Y266.4924 Z3.5
Y266.533025 Z3.427
Y266.5891 Z3.361
X70.30666 Y266.65577 Z3.305
Y266.7368 Z3.26
Y266.8146 Z3.227
Y266.89244 Z3.207
Y266.981023 Z3.2
X70.30555 Y267.5368 F1000.
G3 X69.75444 Y268.0779 I-0.55 J-0.001
G1 X15.13999 Y267.98244 F3600.
X15.07777
G2 X-2.64222 Y285.7013 I0.031 J17.75
X15.07777 Y303.482424 I17.75 J0.031
G1 X70.07777 Y303.5813
G2 X87.85888 Y285.85911 I0.031 J-17.75
X70.13999 Y268.0813 I-17.75 J-0.031
G1 X69.75444 Y268.0779
G3 X69.20555 Y267.52688 I0.001 J-0.55 F1000.
G1 X69.20666 Y266.97688
Y266.89022 Z3.207
Y266.80688 Z3.227
Y266.7279 Z3.26
Y266.65355 Z3.305
X69.20777 Y266.587049 Z3.361
Y266.5313 Z3.427
Y266.486828 Z3.5
Y266.45355 Z3.58
Y266.43355 Z3.664
Y266.42688 Z3.75
G0 Z23.2
X69.20666 Y266.7435
G1 Z10.2 F1200.
Z3.75
Y266.736828 Z3.664
Y266.7168 Z3.58
Y266.68355 Z3.5
X69.20777 Y266.6479 Z3.427
Y266.58244 Z3.361
Y266.516788 Z3.305
Y266.443485 Z3.26
Y266.36355 Z3.227
Y266.27911 Z3.207
Y266.193485 Z3.2
X69.20888 Y265.6435 F1000.
G3 X69.75999 Y265.09466 I0.55 J0.001
G2 X87.29222 Y250.30244 I0.031 J-17.75 F3600.
Y249.386818 I-2.712 J-0.458
X69.82111 Y234.594394 I-17.502 J2.958
G1 X14.82111 Y234.502995
G2 X-2.71222 Y249.290192 I-0.031 J17.75
Y250.20688 I2.712 J0.458
X14.75999 Y265.0035 I17.502 J-2.958
G1 X69.75999 Y265.09466
G3 X70.30888 Y265.645027 I-0.001 J0.55 F1000.
G1 X70.30777 Y266.19577
Y266.2813 Z3.207
Y266.365027 Z3.227
Y266.44577 Z3.26
Y266.5187 Z3.305
Y266.58466 Z3.361
Y266.64022 Z3.427
X70.30666 Y266.68577 Z3.5
Y266.7257 Z3.58
Y266.7479 Z3.664
Y266.74577 Z3.75
G0 Z23.2
X70.30777 Y266.4368
G1 Z7.2 F1200.
Z2.15
Y266.43577 Z2.064
Y266.45577 Z1.98
Y266.4924 Z1.9
Y266.533025 Z1.827
Y266.5891 Z1.761
X70.30666 Y266.65577 Z1.705
Y266.7368 Z1.66
Y266.8146 Z1.627
Y266.89244 Z1.607
Y266.981023 Z1.6
X70.30555 Y267.5368 F1000.
G3 X69.75444 Y268.0779 I-0.55 J-0.001
G1 X15.13999 Y267.98244 F3600.
X15.07777
G2 X-2.64222 Y285.7013 I0.031 J17.75
X15.07777 Y303.482424 I17.75 J0.031
G1 X70.07777 Y303.5813
G2 X87.85888 Y285.85911 I0.031 J-17.75
X70.13999 Y268.0813 I-17.75 J-0.031
G1 X69.75444 Y268.0779
G3 X69.20555 Y267.52688 I0.001 J-0.55 F1000.
G1 X69.20666 Y266.97688
Y266.89022 Z1.607
Y266.80688 Z1.627
Y266.7279 Z1.66
Y266.65355 Z1.705
X69.20777 Y266.587049 Z1.761
Y266.5313 Z1.827
Y266.486828 Z1.9
Y266.45355 Z1.98
Y266.43355 Z2.064
Y266.42688 Z2.15
G0 Z23.2
X69.20666 Y266.7435
G1 Z7.2 F1200.
Z2.15
Y266.736828 Z2.064
Y266.7168 Z1.98
Y266.68355 Z1.9
X69.20777 Y266.6479 Z1.827
Y266.58244 Z1.761
Y266.516788 Z1.705
Y266.443485 Z1.66
Y266.36355 Z1.627
Y266.27911 Z1.607
Y266.193485 Z1.6
X69.20888 Y265.6435 F1000.
G3 X69.75999 Y265.09466 I0.55 J0.001
G2 X87.29222 Y250.30244 I0.031 J-17.75 F3600.
Y249.386818 I-2.712 J-0.458
X69.82111 Y234.594394 I-17.502 J2.958
G1 X14.82111 Y234.502995
G2 X-2.71222 Y249.290192 I-0.031 J17.75
Y250.20688 I2.712 J0.458
X14.75999 Y265.0035 I17.502 J-2.958
G1 X69.75999 Y265.09466
G3 X70.30888 Y265.645027 I-0.001 J0.55 F1000.
G1 X70.30777 Y266.19577
Y266.2813 Z1.607
Y266.365027 Z1.627
Y266.44577 Z1.66
Y266.5187 Z1.705
Y266.58466 Z1.761
Y266.64022 Z1.827
X70.30666 Y266.68577 Z1.9
Y266.7257 Z1.98
Y266.7479 Z2.064
Y266.74577 Z2.15
G0 Z23.2
X70.30777 Y266.4368
G1 Z5.6 F1200.
Z0.55
Y266.43577 Z0.464
Y266.45577 Z0.38
Y266.4924 Z0.3
Y266.533025 Z0.227
Y266.5891 Z0.161
X70.30666 Y266.65577 Z0.105
Y266.7368 Z0.06
Y266.8146 Z0.027
Y266.89244 Z0.007
Y266.981023 Z0.
X70.30555 Y267.5368 F1000.
G3 X69.75444 Y268.0779 I-0.55 J-0.001
G1 X15.13999 Y267.98244 F3600.
X15.07777
G2 X-2.64222 Y285.7013 I0.031 J17.75
X15.07777 Y303.482424 I17.75 J0.031
G1 X70.07777 Y303.5813
G2 X87.85888 Y285.85911 I0.031 J-17.75
X70.13999 Y268.0813 I-17.75 J-0.031
G1 X69.75444 Y268.0779
G3 X69.20555 Y267.52688 I0.001 J-0.55 F1000.
G1 X69.20666 Y266.97688
Y266.89022 Z0.007
Y266.80688 Z0.027
Y266.7279 Z0.06
Y266.65355 Z0.105
X69.20777 Y266.587049 Z0.161
Y266.5313 Z0.227
Y266.486828 Z0.3
Y266.45355 Z0.38
Y266.43355 Z0.464
Y266.42688 Z0.55
G0 Z23.2
X69.20666 Y266.7435
G1 Z5.6 F1200.
Z0.55
Y266.736828 Z0.464
Y266.7168 Z0.38
Y266.68355 Z0.3
X69.20777 Y266.6479 Z0.227
Y266.58244 Z0.161
Y266.516788 Z0.105
Y266.443485 Z0.06
Y266.36355 Z0.027
Y266.27911 Z0.007
Y266.193485 Z0.
X69.20888 Y265.6435 F1000.
G3 X69.75999 Y265.09466 I0.55 J0.001
G2 X87.29222 Y250.30244 I0.031 J-17.75 F3600.
Y249.386818 I-2.712 J-0.458
X69.82111 Y234.594394 I-17.502 J2.958
G1 X14.82111 Y234.502995
G2 X-2.71222 Y249.290192 I-0.031 J17.75
Y250.20688 I2.712 J0.458
X14.75999 Y265.0035 I17.502 J-2.958
G1 X69.75999 Y265.09466
G3 X70.30888 Y265.64502

(2D CONTOUR4 2)
M5
M9
M1
T162 M6
S12000 M3
G54
M8
G0 X271.447947 Y108.2688
Z33.2
Z23.2
G1 Z22.2 F1200.
Z15.75
Y108.26777 Z15.664
Y108.28777 Z15.58
Y108.3244 Z15.5
Y108.3650055 Z15.427
Y108.4210051 Z15.361
X271.446846 Y108.48777 Z15.305
Y108.5688 Z15.26
Y108.6466 Z15.227
Y108.72444 Z15.207
Y108.8133 Z15.2
X271.445745 Y109.3688 F1000.
G3 X270.894624 Y109.9090049 I-0.55 J-0.001
G1 X216.280129 Y109.81444 F3600.
X216.217937
G2 X198.498032 Y127.5330053 I0.031 J17.75
X216.217937 Y145.31444 I17.75 J0.031
G1 X271.217937 Y145.4133
G2 X288.999028 Y127.69111 I0.031 J-17.75
X271.280129 Y109.9133 I-17.75 J-0.031
G1 X270.894624 Y109.9090049
G3 X270.345735 Y109.35888 I0.001 J-0.55 F1000.
G1 X270.346836 Y108.80888
Y108.72222 Z15.207
Y108.63888 Z15.227
Y108.5590069 Z15.26
Y108.48555 Z15.305
X270.347937 Y108.419029 Z15.361
Y108.3630143 Z15.427
Y108.31888 Z15.5
Y108.28555 Z15.58
Y108.26555 Z15.664
Y108.25888 Z15.75
G0 Z23.2
X270.346836 Y108.5750055
G1 Z22.2 F1200.
Z15.75
Y108.56888 Z15.664
Y108.5480048 Z15.58
Y108.51555 Z15.5
X270.347937 Y108.4799 Z15.427
Y108.41444 Z15.361
Y108.34888 Z15.305
Y108.27555 Z15.26
Y108.19555 Z15.227
Y108.11111 Z15.207
Y108.02555 Z15.2
X270.349038 Y107.4750065 F1000.
G3 X270.900159 Y106.92666 I0.55 J0.001
G2 X288.432432 Y92.13444 I0.031 J-17.75 F3600.
Y91.21888 I-2.712 J-0.458
X270.961331 Y76.42644 I-17.502 J2.958
G1 X215.961331 Y76.3355
G2 X198.428022 Y91.12222 I-0.031 J17.75
Y92.03888 I2.712 J0.458
X215.900139 Y106.8355 I17.502 J-2.958
G1 X270.900159 Y106.92666
G3 X271.449048 Y107.4770057 I-0.001 J0.55 F1000.
G1 X271.447947 Y108.02777
Y108.1130143 Z15.207
Y108.1970147 Z15.227
Y108.27777 Z15.26
Y108.3500067 Z15.305
Y108.41666 Z15.361
Y108.47222 Z15.427
X271.446846 Y108.51777 Z15.5
Y108.5577 Z15.58
Y108.5799 Z15.664
Y108.57777 Z15.75
G0 Z23.2
X271.447947 Y108.2688
G1 Z19.2 F1200.
Z12.75
Y108.26777 Z12.664
Y108.28777 Z12.58
Y108.3244 Z12.5
Y108.3650055 Z12.427
Y108.4210051 Z12.361
X271.446846 Y108.48777 Z12.305
Y108.5688 Z12.26
Y108.6466 Z12.227
Y108.72444 Z12.207
Y108.8133 Z12.2
X271.445745 Y109.3688 F1000.
G3 X270.894624 Y109.9090049 I-0.55 J-0.001
G1 X216.280129 Y109.81444 F3600.
X216.217937
G2 X198.498032 Y127.5330053 I0.031 J17.75
X216.217937 Y145.31444 I17.75 J0.031
G1 X271.217937 Y145.4133
G2 X288.999028 Y127.69111 I0.031 J-17.75
X271.280129 Y109.9133 I-17.75 J-0.031
G1 X270.894624 Y109.9090049
G3 X270.345735 Y109.35888 I0.001 J-0.55 F1000.
G1 X270.346836 Y108.80888
Y108.72222 Z12.207
Y108.63888 Z12.227
Y108.5590069 Z12.26
Y108.48555 Z12.305
X270.347937 Y108.419029 Z12.361
Y108.3630143 Z12.427
Y108.31888 Z12.5
Y108.28555 Z12.58
Y108.26555 Z12.664
Y108.25888 Z12.75
G0 Z23.2
X270.346836 Y108.5750055
G1 Z19.2 F1200.
Z12.75
Y108.56888 Z12.664
Y108.5480048 Z12.58
Y108.51555 Z12.5
X270.347937 Y108.4799 Z12.427
Y108.41444 Z12.361
Y108.34888 Z12.305
Y108.27555 Z12.26
Y108.19555 Z12.227
Y108.11111 Z12.207
Y108.02555 Z12.2
X270.349038 Y107.4750065 F1000.
G3 X270.900159 Y106.92666 I0.55 J0.001
G2 X288.432432 Y92.13444 I0.031 J-17.75 F3600.
Y91.21888 I-2.712 J-0.458
X270.961331 Y76.42644 I-17.502 J2.958
G1 X215.961331 Y76.3355
G2 X198.428022 Y91.12222 I-0.031 J17.75
Y92.03888 I2.712 J0.458
X215.900139 Y106.8355 I17.502 J-2.958
G1 X270.900159 Y106.92666
G3 X271.449048 Y107.4770057 I-0.001 J0.55 F1000.
G1 X271.447947 Y108.02777
Y108.1130143 Z12.207
Y108.1970147 Z12.227
Y108.27777 Z12.26
Y108.3500067 Z12.305
Y108.41666 Z12.361
Y108.47222 Z12.427
X271.446846 Y108.51777 Z12.5
Y108.5577 Z12.58
Y108.5799 Z12.664
Y108.57777 Z12.75
G0 Z23.2
X271.447947 Y108.2688
G1 Z16.2 F1200.
Z9.75
Y108.26777 Z9.664
Y108.28777 Z9.58
Y108.3244 Z9.5
Y108.3650055 Z9.427
Y108.4210051 Z9.361
X271.446846 Y108.48777 Z9.305
Y108.5688 Z9.26
Y108.6466 Z9.227
Y108.72444 Z9.207
Y108.8133 Z9.2
X271.445745 Y109.3688 F1000.
G3 X270.894624 Y109.9090049 I-0.55 J-0.001
G1 X216.280129 Y109.81444 F3600.
X216.217937
G2 X198.498032 Y127.5330053 I0.031 J17.75
X216.217937 Y145.31444 I17.75 J0.031
G1 X271.217937 Y145.4133
G2 X288.999028 Y127.69111 I0.031 J-17.75
X271.280129 Y109.9133 I-17.75 J-0.031
G1 X270.894624 Y109.9090049
G3 X270.345735 Y109.35888 I0.001 J-0.55 F1000.
G1 X270.346836 Y108.80888
Y108.72222 Z9.207
Y108.63888 Z9.227
Y108.5590069 Z9.26
Y108.48555 Z9.305
X270.347937 Y108.419029 Z9.361
Y108.3630143 Z9.427
Y108.31888 Z9.5
Y108.28555 Z9.58
Y108.26555 Z9.664
Y108.25888 Z9.75
G0 Z23.2
X270.346836 Y108.5750055
G1 Z16.2 F1200.
Z9.75
Y108.56888 Z9.664
Y108.5480048 Z9.58
Y108.51555 Z9.5
X270.347937 Y108.4799 Z9.427
Y108.41444 Z9.361
Y108.34888 Z9.305
Y108.27555 Z9.26
Y108.19555 Z9.227
Y108.11111 Z9.207
Y108.02555 Z9.2
X270.349038 Y107.4750065 F1000.
G3 X270.900159 Y106.92666 I0.55 J0.001
G2 X288.432432 Y92.13444 I0.031 J-17.75 F3600.
Y91.21888 I-2.712 J-0.458
X270.961331 Y76.42644 I-17.502 J2.958
G1 X215.961331 Y76.3355
G2 X198.428022 Y91.12222 I-0.031 J17.75
Y92.03888 I2.712 J0.458
X215.900139 Y106.8355 I17.502 J-2.958
G1 X270.900159 Y106.92666
G3 X271.449048 Y107.4770057 I-0.001 J0.55 F1000.
G1 X271.447947 Y108.02777
Y108.1130143 Z9.207
Y108.1970147 Z9.227
Y108.27777 Z9.26
Y108.3500067 Z9.305
Y108.41666 Z9.361
Y108.47222 Z9.427
X271.446846 Y108.51777 Z9.5
Y108.5577 Z9.58
Y108.5799 Z9.664
Y108.57777 Z9.75
G0 Z23.2
X271.447947 Y108.2688
G1 Z13.2 F1200.
Z6.75
Y108.26777 Z6.664
Y108.28777 Z6.58
Y108.3244 Z6.5
Y108.3650055 Z6.427
Y108.4210051 Z6.361
X271.446846 Y108.48777 Z6.305
Y108.5688 Z6.26
Y108.6466 Z6.227
Y108.72444 Z6.207
Y108.8133 Z6.2
X271.445745 Y109.3688 F1000.
G3 X270.894624 Y109.9090049 I-0.55 J-0.001
G1 X216.280129 Y109.81444 F3600.
X216.217937
G2 X198.498032 Y127.5330053 I0.031 J17.75
X216.217937 Y145.31444 I17.75 J0.031
G1 X271.217937 Y145.4133
G2 X288.999028 Y127.69111 I0.031 J-17.75
X271.280129 Y109.9133 I-17.75 J-0.031
G1 X270.894624 Y109.9090049
G3 X270.345735 Y109.35888 I0.001 J-0.55 F1000.
G1 X270.346836 Y108.80888
Y108.72222 Z6.207
Y108.63888 Z6.227
Y108.5590069 Z6.26
Y108.48555 Z6.305
X270.347937 Y108.419029 Z6.361
Y108.3630143 Z6.427
Y108.31888 Z6.5
Y108.28555 Z6.58
Y108.26555 Z6.664
Y108.25888 Z6.75
G0 Z23.2
X270.346836 Y108.5750055
G1 Z13.2 F1200.
Z6.75
Y108.56888 Z6.664
Y108.5480048 Z6.58
Y108.51555 Z6.5
X270.347937 Y108.4799 Z6.427
Y108.41444 Z6.361
Y108.34888 Z6.305
Y108.27555 Z6.26
Y108.19555 Z6.227
Y108.11111 Z6.207
Y108.02555 Z6.2
X270.349038 Y107.4750065 F1000.
G3 X270.900159 Y106.92666 I0.55 J0.001
G2 X288.432432 Y92.13444 I0.031 J-17.75 F3600.
Y91.21888 I-2.712 J-0.458
X270.961331 Y76.42644 I-17.502 J2.958
G1 X215.961331 Y76.3355
G2 X198.428022 Y91.12222 I-0.031 J17.75
Y92.03888 I2.712 J0.458
X215.900139 Y106.8355 I17.502 J-2.958
G1 X270.900159 Y106.92666
G3 X271.449048 Y107.4770057 I-0.001 J0.55 F1000.
G1 X271.447947 Y108.02777
Y108.1130143 Z6.207
Y108.1970147 Z6.227
Y108.27777 Z6.26
Y108.3500067 Z6.305
Y108.41666 Z6.361
Y108.47222 Z6.427
X271.446846 Y108.51777 Z6.5
Y108.5577 Z6.58
Y108.5799 Z6.664
Y108.57777 Z6.75
G0 Z23.2
X271.447947 Y108.2688
G1 Z10.2 F1200.
Z3.75
Y108.26777 Z3.664
Y108.28777 Z3.58
Y108.3244 Z3.5
Y108.3650055 Z3.427
Y108.4210051 Z3.361
X271.446846 Y108.48777 Z3.305
Y108.5688 Z3.26
Y108.6466 Z3.227
Y108.72444 Z3.207
Y108.8133 Z3.2
X271.445745 Y109.3688 F1000.
G3 X270.894624 Y109.9090049 I-0.55 J-0.001
G1 X216.280129 Y109.81444 F3600.
X216.217937
G2 X198.498032 Y127.5330053 I0.031 J17.75
X216.217937 Y145.31444 I17.75 J0.031
G1 X271.217937 Y145.4133
G2 X288.999028 Y127.69111 I0.031 J-17.75
X271.280129 Y109.9133 I-17.75 J-0.031
G1 X270.894624 Y109.9090049
G3 X270.345735 Y109.35888 I0.001 J-0.55 F1000.
G1 X270.346836 Y108.80888
Y108.72222 Z3.207
Y108.63888 Z3.227
Y108.5590069 Z3.26
Y108.48555 Z3.305
X270.347937 Y108.419029 Z3.361
Y108.3630143 Z3.427
Y108.31888 Z3.5
Y108.28555 Z3.58
Y108.26555 Z3.664
Y108.25888 Z3.75
G0 Z23.2
X270.346836 Y108.5750055
G1 Z10.2 F1200.
Z3.75
Y108.56888 Z3.664
Y108.5480048 Z3.58
Y108.51555 Z3.5
X270.347937 Y108.4799 Z3.427
Y108.41444 Z3.361
Y108.34888 Z3.305
Y108.27555 Z3.26
Y108.19555 Z3.227
Y108.11111 Z3.207
Y108.02555 Z3.2
X270.349038 Y107.4750065 F1000.
G3 X270.900159 Y106.92666 I0.55 J0.001
G2 X288.432432 Y92.13444 I0.031 J-17.75 F3600.
Y91.21888 I-2.712 J-0.458
X270.961331 Y76.42644 I-17.502 J2.958
G1 X215.961331 Y76.3355
G2 X198.428022 Y91.12222 I-0.031 J17.75
Y92.03888 I2.712 J0.458
X215.900139 Y106.8355 I17.502 J-2.958
G1 X270.900159 Y106.92666
G3 X271.449048 Y107.4770057 I-0.001 J0.55 F1000.
G1 X271.447947 Y108.02777
Y108.1130143 Z3.207
Y108.1970147 Z3.227
Y108.27777 Z3.26
Y108.3500067 Z3.305
Y108.41666 Z3.361
Y108.47222 Z3.427
X271.446846 Y108.51777 Z3.5
Y108.5577 Z3.58
Y108.5799 Z3.664
Y108.57777 Z3.75
G0 Z23.2
X271.447947 Y108.2688
G1 Z7.2 F1200.
Z2.15
Y108.26777 Z2.064
Y108.28777 Z1.98
Y108.3244 Z1.9
Y108.3650055 Z1.827
Y108.4210051 Z1.761
X271.446846 Y108.48777 Z1.705
Y108.5688 Z1.66
Y108.6466 Z1.627
Y108.72444 Z1.607
Y108.8133 Z1.6
X271.445745 Y109.3688 F1000.
G3 X270.894624 Y109.9090049 I-0.55 J-0.001
G1 X216.280129 Y109.81444 F3600.
X216.217937
G2 X198.498032 Y127.5330053 I0.031 J17.75
X216.217937 Y145.31444 I17.75 J0.031
G1 X271.217937 Y145.4133
G2 X288.999028 Y127.69111 I0.031 J-17.75
X271.280129 Y109.9133 I-17.75 J-0.031
G1 X270.894624 Y109.9090049
G3 X270.345735 Y109.35888 I0.001 J-0.55 F1000.
G1 X270.346836 Y108.80888
Y108.72222 Z1.607
Y108.63888 Z1.627
Y108.5590069 Z1.66
Y108.48555 Z1.705
X270.347937 Y108.419029 Z1.761
Y108.3630143 Z1.827
Y108.31888 Z1.9
Y108.28555 Z1.98
Y108.26555 Z2.064
Y108.25888 Z2.15
G0 Z23.2
X270.346836 Y108.5750055
G1 Z7.2 F1200.
Z2.15
Y108.56888 Z2.064
Y108.5480048 Z1.98
Y108.51555 Z1.9
X270.347937 Y108.4799 Z1.827
Y108.41444 Z1.761
Y108.34888 Z1.705
Y108.27555 Z1.66
Y108.19555 Z1.627
Y108.11111 Z1.607
Y108.02555 Z1.6
X270.349038 Y107.4750065 F1000.
G3 X270.900159 Y106.92666 I0.55 J0.001
G2 X288.432432 Y92.13444 I0.031 J-17.75 F3600.
Y91.21888 I-2.712 J-0.458
X270.961331 Y76.42644 I-17.502 J2.958
G1 X215.961331 Y76.3355
G2 X198.428022 Y91.12222 I-0.031 J17.75
Y92.03888 I2.712 J0.458
X215.900139 Y106.8355 I17.502 J-2.958
G1 X270.900159 Y106.92666
G3 X271.449048 Y107.4770057 I-0.001 J0.55 F1000.
G1 X271.447947 Y108.02777
Y108.1130143 Z1.607
Y108.1970147 Z1.627
Y108.27777 Z1.66
Y108.3500067 Z1.705
Y108.41666 Z1.761
Y108.47222 Z1.827
X271.446846 Y108.51777 Z1.9
Y108.5577 Z1.98
Y108.5799 Z2.064
Y108.57777 Z2.15
G0 Z23.2
X271.447947 Y108.2688
G1 Z5.6 F1200.
Z0.55
Y108.26777 Z0.464
Y108.28777 Z0.38
Y108.3244 Z0.3
Y108.3650055 Z0.227
Y108.4210051 Z0.161
X271.446846 Y108.48777 Z0.105
Y108.5688 Z0.06
Y108.6466 Z0.027
Y108.72444 Z0.007
Y108.8133 Z0.
X271.445745 Y109.3688 F1000.
G3 X270.894624 Y109.9090049 I-0.55 J-0.001
G1 X216.280129 Y109.81444 F3600.
X216.217937
G2 X198.498032 Y127.5330053 I0.031 J17.75
X216.217937 Y145.31444 I17.75 J0.031
G1 X271.217937 Y145.4133
G2 X288.999028 Y127.69111 I0.031 J-17.75
X271.280129 Y109.9133 I-17.75 J-0.031
G1 X270.894624 Y109.9090049
G3 X270.345735 Y109.35888 I0.001 J-0.55 F1000.
G1 X270.346836 Y108.80888
Y108.72222 Z0.007
Y108.63888 Z0.027
Y108.5590069 Z0.06
Y108.48555 Z0.105
X270.347937 Y108.419029 Z0.161
Y108.3630143 Z0.227
Y108.31888 Z0.3
Y108.28555 Z0.38
Y108.26555 Z0.464
Y108.25888 Z0.55
G0 Z23.2
X270.346836 Y108.5750055
G1 Z5.6 F1200.
Z0.55
Y108.56888 Z0.464
Y108.5480048 Z0.38
Y108.51555 Z0.3
X270.347937 Y108.4799 Z0.227
Y108.41444 Z0.161
Y108.34888 Z0.105
Y108.27555 Z0.06
Y108.19555 Z0.027
Y108.11111 Z0.007
Y108.02555 Z0.
X270.349038 Y107.4750065 F1000.
G3 X270.900159 Y106.92666 I0.55 J0.001
G2 X288.432432 Y92.13444 I0.031 J-17.75 F3600.
Y91.21888 I-2.712 J-0.458
X270.961331 Y76.42644 I-17.502 J2.958
G1 X215.961331 Y76.3355
G2 X198.428022 Y91.12222 I-0.031 J17.75
Y92.03888 I2.712 J0.458
X215.900139 Y106.8355 I17.502 J-2.958
G1 X270.900159 Y106.92666
G3 X271.449048 Y107.477005

(2D CONTOUR4 2)
M5
M9
M1
T162 M6
S12000 M3
G54
M8
G0 X271.447947 Y266.4368
Z33.2
Z23.2
G1 Z22.2 F1200.
Z15.75
Y266.43577 Z15.664
Y266.45577 Z15.58
Y266.4924 Z15.5
Y266.533025 Z15.427
Y266.5891 Z15.361
X271.446846 Y266.65577 Z15.305
Y266.7368 Z15.26
Y266.8146 Z15.227
Y266.89244 Z15.207
Y266.981023 Z15.2
X271.445745 Y267.5368 F1000.
G3 X270.894624 Y268.0779 I-0.55 J-0.001
G1 X216.280129 Y267.98244 F3600.
X216.217937
G2 X198.498032 Y285.7013 I0.031 J17.75
X216.217937 Y303.482424 I17.75 J0.031
G1 X271.217937 Y303.5813
G2 X288.999028 Y285.85911 I0.031 J-17.75
X271.280129 Y268.0813 I-17.75 J-0.031
G1 X270.894624 Y268.0779
G3 X270.345735 Y267.52688 I0.001 J-0.55 F1000.
G1 X270.346836 Y266.97688
Y266.89022 Z15.207
Y266.80688 Z15.227
Y266.7279 Z15.26
Y266.65355 Z15.305
X270.347937 Y266.587049 Z15.361
Y266.5313 Z15.427
Y266.486828 Z15.5
Y266.45355 Z15.58
Y266.43355 Z15.664
Y266.42688 Z15.75
G0 Z23.2
X270.346836 Y266.7435
G1 Z22.2 F1200.
Z15.75
Y266.736828 Z15.664
Y266.7168 Z15.58
Y266.68355 Z15.5
X270.347937 Y266.6479 Z15.427
Y266.58244 Z15.361
Y266.516788 Z15.305
Y266.443485 Z15.26
Y266.36355 Z15.227
Y266.27911 Z15.207
Y266.193485 Z15.2
X270.349038 Y265.6435 F1000.
G3 X270.900159 Y265.09466 I0.55 J0.001
G2 X288.432432 Y250.30244 I0.031 J-17.75 F3600.
Y249.386818 I-2.712 J-0.458
X270.961331 Y234.594394 I-17.502 J2.958
G1 X215.961331 Y234.502995
G2 X198.428022 Y249.290192 I-0.031 J17.75
Y250.20688 I2.712 J0.458
X215.900139 Y265.0035 I17.502 J-2.958
G1 X270.900159 Y265.09466
G3 X271.449048 Y265.645027 I-0.001 J0.55 F1000.
G1 X271.447947 Y266.19577
Y266.2813 Z15.207
Y266.365027 Z15.227
Y266.44577 Z15.26
Y266.5187 Z15.305
Y266.58466 Z15.361
Y266.64022 Z15.427
X271.446846 Y266.68577 Z15.5
Y266.7257 Z15.58
Y266.7479 Z15.664
Y266.74577 Z15.75
G0 Z23.2
X271.447947 Y266.4368
G1 Z19.2 F1200.
Z12.75
Y266.43577 Z12.664
Y266.45577 Z12.58
Y266.4924 Z12.5
Y266.533025 Z12.427
Y266.5891 Z12.361
X271.446846 Y266.65577 Z12.305
Y266.7368 Z12.26
Y266.8146 Z12.227
Y266.89244 Z12.207
Y266.981023 Z12.2
X271.445745 Y267.5368 F1000.
G3 X270.894624 Y268.0779 I-0.55 J-0.001
G1 X216.280129 Y267.98244 F3600.
X216.217937
G2 X198.498032 Y285.7013 I0.031 J17.75
X216.217937 Y303.482424 I17.75 J0.031
G1 X271.217937 Y303.5813
G2 X288.999028 Y285.85911 I0.031 J-17.75
X271.280129 Y268.0813 I-17.75 J-0.031
G1 X270.894624 Y268.0779
G3 X270.345735 Y267.52688 I0.001 J-0.55 F1000.
G1 X270.346836 Y266.97688
Y266.89022 Z12.207
Y266.80688 Z12.227
Y266.7279 Z12.26
Y266.65355 Z12.305
X270.347937 Y266.587049 Z12.361
Y266.5313 Z12.427
Y266.486828 Z12.5
Y266.45355 Z12.58
Y266.43355 Z12.664
Y266.42688 Z12.75
G0 Z23.2
X270.346836 Y266.7435
G1 Z19.2 F1200.
Z12.75
Y266.736828 Z12.664
Y266.7168 Z12.58
Y266.68355 Z12.5
X270.347937 Y266.6479 Z12.427
Y266.58244 Z12.361
Y266.516788 Z12.305
Y266.443485 Z12.26
Y266.36355 Z12.227
Y266.27911 Z12.207
Y266.193485 Z12.2
X270.349038 Y265.6435 F1000.
G3 X270.900159 Y265.09466 I0.55 J0.001
G2 X288.432432 Y250.30244 I0.031 J-17.75 F3600.
Y249.386818 I-2.712 J-0.458
X270.961331 Y234.594394 I-17.502 J2.958
G1 X215.961331 Y234.502995
G2 X198.428022 Y249.290192 I-0.031 J17.75
Y250.20688 I2.712 J0.458
X215.900139 Y265.0035 I17.502 J-2.958
G1 X270.900159 Y265.09466
G3 X271.449048 Y265.645027 I-0.001 J0.55 F1000.
G1 X271.447947 Y266.19577
Y266.2813 Z12.207
Y266.365027 Z12.227
Y266.44577 Z12.26
Y266.5187 Z12.305
Y266.58466 Z12.361
Y266.64022 Z12.427
X271.446846 Y266.68577 Z12.5
Y266.7257 Z12.58
Y266.7479 Z12.664
Y266.74577 Z12.75
G0 Z23.2
X271.447947 Y266.4368
G1 Z16.2 F1200.
Z9.75
Y266.43577 Z9.664
Y266.45577 Z9.58
Y266.4924 Z9.5
Y266.533025 Z9.427
Y266.5891 Z9.361
X271.446846 Y266.65577 Z9.305
Y266.7368 Z9.26
Y266.8146 Z9.227
Y266.89244 Z9.207
Y266.981023 Z9.2
X271.445745 Y267.5368 F1000.
G3 X270.894624 Y268.0779 I-0.55 J-0.001
G1 X216.280129 Y267.98244 F3600.
X216.217937
G2 X198.498032 Y285.7013 I0.031 J17.75
X216.217937 Y303.482424 I17.75 J0.031
G1 X271.217937 Y303.5813
G2 X288.999028 Y285.85911 I0.031 J-17.75
X271.280129 Y268.0813 I-17.75 J-0.031
G1 X270.894624 Y268.0779
G3 X270.345735 Y267.52688 I0.001 J-0.55 F1000.
G1 X270.346836 Y266.97688
Y266.89022 Z9.207
Y266.80688 Z9.227
Y266.7279 Z9.26
Y266.65355 Z9.305
X270.347937 Y266.587049 Z9.361
Y266.5313 Z9.427
Y266.486828 Z9.5
Y266.45355 Z9.58
Y266.43355 Z9.664
Y266.42688 Z9.75
G0 Z23.2
X270.346836 Y266.7435
G1 Z16.2 F1200.
Z9.75
Y266.736828 Z9.664
Y266.7168 Z9.58
Y266.68355 Z9.5
X270.347937 Y266.6479 Z9.427
Y266.58244 Z9.361
Y266.516788 Z9.305
Y266.443485 Z9.26
Y266.36355 Z9.227
Y266.27911 Z9.207
Y266.193485 Z9.2
X270.349038 Y265.6435 F1000.
G3 X270.900159 Y265.09466 I0.55 J0.001
G2 X288.432432 Y250.30244 I0.031 J-17.75 F3600.
Y249.386818 I-2.712 J-0.458
X270.961331 Y234.594394 I-17.502 J2.958
G1 X215.961331 Y234.502995
G2 X198.428022 Y249.290192 I-0.031 J17.75
Y250.20688 I2.712 J0.458
X215.900139 Y265.0035 I17.502 J-2.958
G1 X270.900159 Y265.09466
G3 X271.449048 Y265.645027 I-0.001 J0.55 F1000.
G1 X271.447947 Y266.19577
Y266.2813 Z9.207
Y266.365027 Z9.227
Y266.44577 Z9.26
Y266.5187 Z9.305
Y266.58466 Z9.361
Y266.64022 Z9.427
X271.446846 Y266.68577 Z9.5
Y266.7257 Z9.58
Y266.7479 Z9.664
Y266.74577 Z9.75
G0 Z23.2
X271.447947 Y266.4368
G1 Z13.2 F1200.
Z6.75
Y266.43577 Z6.664
Y266.45577 Z6.58
Y266.4924 Z6.5
Y266.533025 Z6.427
Y266.5891 Z6.361
X271.446846 Y266.65577 Z6.305
Y266.7368 Z6.26
Y266.8146 Z6.227
Y266.89244 Z6.207
Y266.981023 Z6.2
X271.445745 Y267.5368 F1000.
G3 X270.894624 Y268.0779 I-0.55 J-0.001
G1 X216.280129 Y267.98244 F3600.
X216.217937
G2 X198.498032 Y285.7013 I0.031 J17.75
X216.217937 Y303.482424 I17.75 J0.031
G1 X271.217937 Y303.5813
G2 X288.999028 Y285.85911 I0.031 J-17.75
X271.280129 Y268.0813 I-17.75 J-0.031
G1 X270.894624 Y268.0779
G3 X270.345735 Y267.52688 I0.001 J-0.55 F1000.
G1 X270.346836 Y266.97688
Y266.89022 Z6.207
Y266.80688 Z6.227
Y266.7279 Z6.26
Y266.65355 Z6.305
X270.347937 Y266.587049 Z6.361
Y266.5313 Z6.427
Y266.486828 Z6.5
Y266.45355 Z6.58
Y266.43355 Z6.664
Y266.42688 Z6.75
G0 Z23.2
X270.346836 Y266.7435
G1 Z13.2 F1200.
Z6.75
Y266.736828 Z6.664
Y266.7168 Z6.58
Y266.68355 Z6.5
X270.347937 Y266.6479 Z6.427
Y266.58244 Z6.361
Y266.516788 Z6.305
Y266.443485 Z6.26
Y266.36355 Z6.227
Y266.27911 Z6.207
Y266.193485 Z6.2
X270.349038 Y265.6435 F1000.
G3 X270.900159 Y265.09466 I0.55 J0.001
G2 X288.432432 Y250.30244 I0.031 J-17.75 F3600.
Y249.386818 I-2.712 J-0.458
X270.961331 Y234.594394 I-17.502 J2.958
G1 X215.961331 Y234.502995
G2 X198.428022 Y249.290192 I-0.031 J17.75
Y250.20688 I2.712 J0.458
X215.900139 Y265.0035 I17.502 J-2.958
G1 X270.900159 Y265.09466
G3 X271.449048 Y265.645027 I-0.001 J0.55 F1000.
G1 X271.447947 Y266.19577
Y266.2813 Z6.207
Y266.365027 Z6.227
Y266.44577 Z6.26
Y266.5187 Z6.305
Y266.58466 Z6.361
Y266.64022 Z6.427
X271.446846 Y266.68577 Z6.5
Y266.7257 Z6.58
Y266.7479 Z6.664
Y266.74577 Z6.75
G0 Z23.2
X271.447947 Y266.4368
G1 Z10.2 F1200.
Z3.75
Y266.43577 Z3.664
Y266.45577 Z3.58
Y266.4924 Z3.5
Y266.533025 Z3.427
Y266.5891 Z3.361
X271.446846 Y266.65577 Z3.305
Y266.7368 Z3.26
Y266.8146 Z3.227
Y266.89244 Z3.207
Y266.981023 Z3.2
X271.445745 Y267.5368 F1000.
G3 X270.894624 Y268.0779 I-0.55 J-0.001
G1 X216.280129 Y267.98244 F3600.
X216.217937
G2 X198.498032 Y285.7013 I0.031 J17.75
X216.217937 Y303.482424 I17.75 J0.031
G1 X271.217937 Y303.5813
G2 X288.999028 Y285.85911 I0.031 J-17.75
X271.280129 Y268.0813 I-17.75 J-0.031
G1 X270.894624 Y268.0779
G3 X270.345735 Y267.52688 I0.001 J-0.55 F1000.
G1 X270.346836 Y266.97688
Y266.89022 Z3.207
Y266.80688 Z3.227
Y266.7279 Z3.26
Y266.65355 Z3.305
X270.347937 Y266.587049 Z3.361
Y266.5313 Z3.427
Y266.486828 Z3.5
Y266.45355 Z3.58
Y266.43355 Z3.664
Y266.42688 Z3.75
G0 Z23.2
X270.346836 Y266.7435
G1 Z10.2 F1200.
Z3.75
Y266.736828 Z3.664
Y266.7168 Z3.58
Y266.68355 Z3.5
X270.347937 Y266.6479 Z3.427
Y266.58244 Z3.361
Y266.516788 Z3.305
Y266.443485 Z3.26
Y266.36355 Z3.227
Y266.27911 Z3.207
Y266.193485 Z3.2
X270.349038 Y265.6435 F1000.
G3 X270.900159 Y265.09466 I0.55 J0.001
G2 X288.432432 Y250.30244 I0.031 J-17.75 F3600.
Y249.386818 I-2.712 J-0.458
X270.961331 Y234.594394 I-17.502 J2.958
G1 X215.961331 Y234.502995
G2 X198.428022 Y249.290192 I-0.031 J17.75
Y250.20688 I2.712 J0.458
X215.900139 Y265.0035 I17.502 J-2.958
G1 X270.900159 Y265.09466
G3 X271.449048 Y265.645027 I-0.001 J0.55 F1000.
G1 X271.447947 Y266.19577
Y266.2813 Z3.207
Y266.365027 Z3.227
Y266.44577 Z3.26
Y266.5187 Z3.305
Y266.58466 Z3.361
Y266.64022 Z3.427
X271.446846 Y266.68577 Z3.5
Y266.7257 Z3.58
Y266.7479 Z3.664
Y266.74577 Z3.75
G0 Z23.2
X271.447947 Y266.4368
G1 Z7.2 F1200.
Z2.15
Y266.43577 Z2.064
Y266.45577 Z1.98
Y266.4924 Z1.9
Y266.533025 Z1.827
Y266.5891 Z1.761
X271.446846 Y266.65577 Z1.705
Y266.7368 Z1.66
Y266.8146 Z1.627
Y266.89244 Z1.607
Y266.981023 Z1.6
X271.445745 Y267.5368 F1000.
G3 X270.894624 Y268.0779 I-0.55 J-0.001
G1 X216.280129 Y267.98244 F3600.
X216.217937
G2 X198.498032 Y285.7013 I0.031 J17.75
X216.217937 Y303.482424 I17.75 J0.031
G1 X271.217937 Y303.5813
G2 X288.999028 Y285.85911 I0.031 J-17.75
X271.280129 Y268.0813 I-17.75 J-0.031
G1 X270.894624 Y268.0779
G3 X270.345735 Y267.52688 I0.001 J-0.55 F1000.
G1 X270.346836 Y266.97688
Y266.89022 Z1.607
Y266.80688 Z1.627
Y266.7279 Z1.66
Y266.65355 Z1.705
X270.347937 Y266.587049 Z1.761
Y266.5313 Z1.827
Y266.486828 Z1.9
Y266.45355 Z1.98
Y266.43355 Z2.064
Y266.42688 Z2.15
G0 Z23.2
X270.346836 Y266.7435
G1 Z7.2 F1200.
Z2.15
Y266.736828 Z2.064
Y266.7168 Z1.98
Y266.68355 Z1.9
X270.347937 Y266.6479 Z1.827
Y266.58244 Z1.761
Y266.516788 Z1.705
Y266.443485 Z1.66
Y266.36355 Z1.627
Y266.27911 Z1.607
Y266.193485 Z1.6
X270.349038 Y265.6435 F1000.
G3 X270.900159 Y265.09466 I0.55 J0.001
G2 X288.432432 Y250.30244 I0.031 J-17.75 F3600.
Y249.386818 I-2.712 J-0.458
X270.961331 Y234.594394 I-17.502 J2.958
G1 X215.961331 Y234.502995
G2 X198.428022 Y249.290192 I-0.031 J17.75
Y250.20688 I2.712 J0.458
X215.900139 Y265.0035 I17.502 J-2.958
G1 X270.900159 Y265.09466
G3 X271.449048 Y265.645027 I-0.001 J0.55 F1000.
G1 X271.447947 Y266.19577
Y266.2813 Z1.607
Y266.365027 Z1.627
Y266.44577 Z1.66
Y266.5187 Z1.705
Y266.58466 Z1.761
Y266.64022 Z1.827
X271.446846 Y266.68577 Z1.9
Y266.7257 Z1.98
Y266.7479 Z2.064
Y266.74577 Z2.15
G0 Z23.2
X271.447947 Y266.4368
G1 Z5.6 F1200.
Z0.55
Y266.43577 Z0.464
Y266.45577 Z0.38
Y266.4924 Z0.3
Y266.533025 Z0.227
Y266.5891 Z0.161
X271.446846 Y266.65577 Z0.105
Y266.7368 Z0.06
Y266.8146 Z0.027
Y266.89244 Z0.007
Y266.981023 Z0.
X271.445745 Y267.5368 F1000.
G3 X270.894624 Y268.0779 I-0.55 J-0.001
G1 X216.280129 Y267.98244 F3600.
X216.217937
G2 X198.498032 Y285.7013 I0.031 J17.75
X216.217937 Y303.482424 I17.75 J0.031
G1 X271.217937 Y303.5813
G2 X288.999028 Y285.85911 I0.031 J-17.75
X271.280129 Y268.0813 I-17.75 J-0.031
G1 X270.894624 Y268.0779
G3 X270.345735 Y267.52688 I0.001 J-0.55 F1000.
G1 X270.346836 Y266.97688
Y266.89022 Z0.007
Y266.80688 Z0.027
Y266.7279 Z0.06
Y266.65355 Z0.105
X270.347937 Y266.587049 Z0.161
Y266.5313 Z0.227
Y266.486828 Z0.3
Y266.45355 Z0.38
Y266.43355 Z0.464
Y266.42688 Z0.55
G0 Z23.2
X270.346836 Y266.7435
G1 Z5.6 F1200.
Z0.55
Y266.736828 Z0.464
Y266.7168 Z0.38
Y266.68355 Z0.3
X270.347937 Y266.6479 Z0.227
Y266.58244 Z0.161
Y266.516788 Z0.105
Y266.443485 Z0.06
Y266.36355 Z0.027
Y266.27911 Z0.007
Y266.193485 Z0.
X270.349038 Y265.6435 F1000.
G3 X270.900159 Y265.09466 I0.55 J0.001
G2 X288.432432 Y250.30244 I0.031 J-17.75 F3600.
Y249.386818 I-2.712 J-0.458
X270.961331 Y234.594394 I-17.502 J2.958
G1 X215.961331 Y234.502995
G2 X198.428022 Y249.290192 I-0.031 J17.75
Y250.20688 I2.712 J0.458
X215.900139 Y265.0035 I17.502 J-2.958
G1 X270.900159 Y265.09466
G3 X271.449048 Y265.64502

(2D CONTOUR4 2)
M5
M9
M1
T162 M6
S12000 M3
G54
M8
G0 X170.8777 Y29.188
Z33.2
Z23.2
G1 Z22.2 F1200.
Z15.75
Y29.1877 Z15.664
Y29.2077 Z15.58
Y29.244 Z15.5
Y29.2855 Z15.427
Y29.3411 Z15.361
X170.8766 Y29.4077 Z15.305
Y29.488 Z15.26
Y29.566 Z15.227
Y29.6444 Z15.207
Y29.733 Z15.2
X170.8755 Y30.288 F1000.
G3 X170.3244 Y30.8299 I-0.55 J-0.001
G1 X115.7099 Y30.7344 F3600.
X115.6477
G2 X97.9282 Y48.4533 I0.031 J17.75
X115.6477 Y66.2344 I17.75 J0.031
G1 X170.6477 Y66.333
G2 X188.428018 Y48.6111 I0.031 J-17.75
X170.7099 Y30.833 I-17.75 J-0.031
G1 X170.3244 Y30.8299
G3 X169.7755 Y30.2788 I0.001 J-0.55 F1000.
G1 X169.7766 Y29.7288
Y29.6422 Z15.207
Y29.5588 Z15.227
Y29.4799 Z15.26
Y29.4055 Z15.305
X169.777017 Y29.3399 Z15.361
Y29.2833 Z15.427
Y29.2388 Z15.5
Y29.2055 Z15.58
Y29.1855 Z15.664
Y29.1788 Z15.75
G0 Z23.2
X169.7766 Y29.4955
G1 Z22.2 F1200.
Z15.75
Y29.4888 Z15.664
Y29.4688 Z15.58
Y29.4355 Z15.5
X169.777017 Y29.399 Z15.427
Y29.3344 Z15.361
Y29.2688 Z15.305
Y29.1955 Z15.26
Y29.1155 Z15.227
Y29.0311 Z15.207
Y28.9455 Z15.2
X169.7788 Y28.3955 F1000.
G3 X170.329019 Y27.8466 I0.55 J0.001
G2 X187.8622 Y13.0544 I0.031 J-17.75 F3600.
Y12.1388 I-2.712 J-0.458
X170.390991 Y-2.6544 I-17.502 J2.958
G1 X115.3911 Y-2.755
G2 X97.8582 Y12.0422 I-0.031 J17.75
Y12.9588 I2.712 J0.458
X115.3299 Y27.755 I17.502 J-2.958
G1 X170.329019 Y27.8466
G3 X170.877998 Y28.3977 I-0.001 J0.55 F1000.
G1 X170.8777 Y28.9477
Y29.0333 Z15.207
Y29.1177 Z15.227
Y29.1977 Z15.26
Y29.277 Z15.305
Y29.3366 Z15.361
Y29.3922 Z15.427
X170.8766 Y29.4377 Z15.5
Y29.477 Z15.58
Y29.499 Z15.664
Y29.4977 Z15.75
G0 Z23.2
X170.8777 Y29.188
G1 Z19.2 F1200.
Z12.75
Y29.1877 Z12.664
Y29.2077 Z12.58
Y29.244 Z12.5
Y29.2855 Z12.427
Y29.3411 Z12.361
X170.8766 Y29.4077 Z12.305
Y29.488 Z12.26
Y29.566 Z12.227
Y29.6444 Z12.207
Y29.733 Z12.2
X170.8755 Y30.288 F1000.
G3 X170.3244 Y30.8299 I-0.55 J-0.001
G1 X115.7099 Y30.7344 F3600.
X115.6477
G2 X97.9282 Y48.4533 I0.031 J17.75
X115.6477 Y66.2344 I17.75 J0.031
G1 X170.6477 Y66.333
G2 X188.428018 Y48.6111 I0.031 J-17.75
X170.7099 Y30.833 I-17.75 J-0.031
G1 X170.3244 Y30.8299
G3 X169.7755 Y30.2788 I0.001 J-0.55 F1000.
G1 X169.7766 Y29.7288
Y29.6422 Z12.207
Y29.5588 Z12.227
Y29.4799 Z12.26
Y29.4055 Z12.305
X169.777017 Y29.3399 Z12.361
Y29.2833 Z12.427
Y29.2388 Z12.5
Y29.2055 Z12.58
Y29.1855 Z12.664
Y29.1788 Z12.75
G0 Z23.2
X169.7766 Y29.4955
G1 Z19.2 F1200.
Z12.75
Y29.4888 Z12.664
Y29.4688 Z12.58
Y29.4355 Z12.5
X169.777017 Y29.399 Z12.427
Y29.3344 Z12.361
Y29.2688 Z12.305
Y29.1955 Z12.26
Y29.1155 Z12.227
Y29.0311 Z12.207
Y28.9455 Z12.2
X169.7788 Y28.3955 F1000.
G3 X170.329019 Y27.8466 I0.55 J0.001
G2 X187.8622 Y13.0544 I0.031 J-17.75 F3600.
Y12.1388 I-2.712 J-0.458
X170.390991 Y-2.6544 I-17.502 J2.958
G1 X115.3911 Y-2.755
G2 X97.8582 Y12.0422 I-0.031 J17.75
Y12.9588 I2.712 J0.458
X115.3299 Y27.755 I17.502 J-2.958
G1 X170.329019 Y27.8466
G3 X170.877998 Y28.3977 I-0.001 J0.55 F1000.
G1 X170.8777 Y28.9477
Y29.0333 Z12.207
Y29.1177 Z12.227
Y29.1977 Z12.26
Y29.277 Z12.305
Y29.3366 Z12.361
Y29.3922 Z12.427
X170.8766 Y29.4377 Z12.5
Y29.477 Z12.58
Y29.499 Z12.664
Y29.4977 Z12.75
G0 Z23.2
X170.8777 Y29.188
G1 Z16.2 F1200.
Z9.75
Y29.1877 Z9.664
Y29.2077 Z9.58
Y29.244 Z9.5
Y29.2855 Z9.427
Y29.3411 Z9.361
X170.8766 Y29.4077 Z9.305
Y29.488 Z9.26
Y29.566 Z9.227
Y29.6444 Z9.207
Y29.733 Z9.2
X170.8755 Y30.288 F1000.
G3 X170.3244 Y30.8299 I-0.55 J-0.001
G1 X115.7099 Y30.7344 F3600.
X115.6477
G2 X97.9282 Y48.4533 I0.031 J17.75
X115.6477 Y66.2344 I17.75 J0.031
G1 X170.6477 Y66.333
G2 X188.428018 Y48.6111 I0.031 J-17.75
X170.7099 Y30.833 I-17.75 J-0.031
G1 X170.3244 Y30.8299
G3 X169.7755 Y30.2788 I0.001 J-0.55 F1000.
G1 X169.7766 Y29.7288
Y29.6422 Z9.207
Y29.5588 Z9.227
Y29.4799 Z9.26
Y29.4055 Z9.305
X169.777017 Y29.3399 Z9.361
Y29.2833 Z9.427
Y29.2388 Z9.5
Y29.2055 Z9.58
Y29.1855 Z9.664
Y29.1788 Z9.75
G0 Z23.2
X169.7766 Y29.4955
G1 Z16.2 F1200.
Z9.75
Y29.4888 Z9.664
Y29.4688 Z9.58
Y29.4355 Z9.5
X169.777017 Y29.399 Z9.427
Y29.3344 Z9.361
Y29.2688 Z9.305
Y29.1955 Z9.26
Y29.1155 Z9.227
Y29.0311 Z9.207
Y28.9455 Z9.2
X169.7788 Y28.3955 F1000.
G3 X170.329019 Y27.8466 I0.55 J0.001
G2 X187.8622 Y13.0544 I0.031 J-17.75 F3600.
Y12.1388 I-2.712 J-0.458
X170.390991 Y-2.6544 I-17.502 J2.958
G1 X115.3911 Y-2.755
G2 X97.8582 Y12.0422 I-0.031 J17.75
Y12.9588 I2.712 J0.458
X115.3299 Y27.755 I17.502 J-2.958
G1 X170.329019 Y27.8466
G3 X170.877998 Y28.3977 I-0.001 J0.55 F1000.
G1 X170.8777 Y28.9477
Y29.0333 Z9.207
Y29.1177 Z9.227
Y29.1977 Z9.26
Y29.277 Z9.305
Y29.3366 Z9.361
Y29.3922 Z9.427
X170.8766 Y29.4377 Z9.5
Y29.477 Z9.58
Y29.499 Z9.664
Y29.4977 Z9.75
G0 Z23.2
X170.8777 Y29.188
G1 Z13.2 F1200.
Z6.75
Y29.1877 Z6.664
Y29.2077 Z6.58
Y29.244 Z6.5
Y29.2855 Z6.427
Y29.3411 Z6.361
X170.8766 Y29.4077 Z6.305
Y29.488 Z6.26
Y29.566 Z6.227
Y29.6444 Z6.207
Y29.733 Z6.2
X170.8755 Y30.288 F1000.
G3 X170.3244 Y30.8299 I-0.55 J-0.001
G1 X115.7099 Y30.7344 F3600.
X115.6477
G2 X97.9282 Y48.4533 I0.031 J17.75
X115.6477 Y66.2344 I17.75 J0.031
G1 X170.6477 Y66.333
G2 X188.428018 Y48.6111 I0.031 J-17.75
X170.7099 Y30.833 I-17.75 J-0.031
G1 X170.3244 Y30.8299
G3 X169.7755 Y30.2788 I0.001 J-0.55 F1000.
G1 X169.7766 Y29.7288
Y29.6422 Z6.207
Y29.5588 Z6.227
Y29.4799 Z6.26
Y29.4055 Z6.305
X169.777017 Y29.3399 Z6.361
Y29.2833 Z6.427
Y29.2388 Z6.5
Y29.2055 Z6.58
Y29.1855 Z6.664
Y29.1788 Z6.75
G0 Z23.2
X169.7766 Y29.4955
G1 Z13.2 F1200.
Z6.75
Y29.4888 Z6.664
Y29.4688 Z6.58
Y29.4355 Z6.5
X169.777017 Y29.399 Z6.427
Y29.3344 Z6.361
Y29.2688 Z6.305
Y29.1955 Z6.26
Y29.1155 Z6.227
Y29.0311 Z6.207
Y28.9455 Z6.2
X169.7788 Y28.3955 F1000.
G3 X170.329019 Y27.8466 I0.55 J0.001
G2 X187.8622 Y13.0544 I0.031 J-17.75 F3600.
Y12.1388 I-2.712 J-0.458
X170.390991 Y-2.6544 I-17.502 J2.958
G1 X115.3911 Y-2.755
G2 X97.8582 Y12.0422 I-0.031 J17.75
Y12.9588 I2.712 J0.458
X115.3299 Y27.755 I17.502 J-2.958
G1 X170.329019 Y27.8466
G3 X170.877998 Y28.3977 I-0.001 J0.55 F1000.
G1 X170.8777 Y28.9477
Y29.0333 Z6.207
Y29.1177 Z6.227
Y29.1977 Z6.26
Y29.277 Z6.305
Y29.3366 Z6.361
Y29.3922 Z6.427
X170.8766 Y29.4377 Z6.5
Y29.477 Z6.58
Y29.499 Z6.664
Y29.4977 Z6.75
G0 Z23.2
X170.8777 Y29.188
G1 Z10.2 F1200.
Z3.75
Y29.1877 Z3.664
Y29.2077 Z3.58
Y29.244 Z3.5
Y29.2855 Z3.427
Y29.3411 Z3.361
X170.8766 Y29.4077 Z3.305
Y29.488 Z3.26
Y29.566 Z3.227
Y29.6444 Z3.207
Y29.733 Z3.2
X170.8755 Y30.288 F1000.
G3 X170.3244 Y30.8299 I-0.55 J-0.001
G1 X115.7099 Y30.7344 F3600.
X115.6477
G2 X97.9282 Y48.4533 I0.031 J17.75
X115.6477 Y66.2344 I17.75 J0.031
G1 X170.6477 Y66.333
G2 X188.428018 Y48.6111 I0.031 J-17.75
X170.7099 Y30.833 I-17.75 J-0.031
G1 X170.3244 Y30.8299
G3 X169.7755 Y30.2788 I0.001 J-0.55 F1000.
G1 X169.7766 Y29.7288
Y29.6422 Z3.207
Y29.5588 Z3.227
Y29.4799 Z3.26
Y29.4055 Z3.305
X169.777017 Y29.3399 Z3.361
Y29.2833 Z3.427
Y29.2388 Z3.5
Y29.2055 Z3.58
Y29.1855 Z3.664
Y29.1788 Z3.75
G0 Z23.2
X169.7766 Y29.4955
G1 Z10.2 F1200.
Z3.75
Y29.4888 Z3.664
Y29.4688 Z3.58
Y29.4355 Z3.5
X169.777017 Y29.399 Z3.427
Y29.3344 Z3.361
Y29.2688 Z3.305
Y29.1955 Z3.26
Y29.1155 Z3.227
Y29.0311 Z3.207
Y28.9455 Z3.2
X169.7788 Y28.3955 F1000.
G3 X170.329019 Y27.8466 I0.55 J0.001
G2 X187.8622 Y13.0544 I0.031 J-17.75 F3600.
Y12.1388 I-2.712 J-0.458
X170.390991 Y-2.6544 I-17.502 J2.958
G1 X115.3911 Y-2.755
G2 X97.8582 Y12.0422 I-0.031 J17.75
Y12.9588 I2.712 J0.458
X115.3299 Y27.755 I17.502 J-2.958
G1 X170.329019 Y27.8466
G3 X170.877998 Y28.3977 I-0.001 J0.55 F1000.
G1 X170.8777 Y28.9477
Y29.0333 Z3.207
Y29.1177 Z3.227
Y29.1977 Z3.26
Y29.277 Z3.305
Y29.3366 Z3.361
Y29.3922 Z3.427
X170.8766 Y29.4377 Z3.5
Y29.477 Z3.58
Y29.499 Z3.664
Y29.4977 Z3.75
G0 Z23.2
X170.8777 Y29.188
G1 Z7.2 F1200.
Z2.15
Y29.1877 Z2.064
Y29.2077 Z1.98
Y29.244 Z1.9
Y29.2855 Z1.827
Y29.3411 Z1.761
X170.8766 Y29.4077 Z1.705
Y29.488 Z1.66
Y29.566 Z1.627
Y29.6444 Z1.607
Y29.733 Z1.6
X170.8755 Y30.288 F1000.
G3 X170.3244 Y30.8299 I-0.55 J-0.001
G1 X115.7099 Y30.7344 F3600.
X115.6477
G2 X97.9282 Y48.4533 I0.031 J17.75
X115.6477 Y66.2344 I17.75 J0.031
G1 X170.6477 Y66.333
G2 X188.428018 Y48.6111 I0.031 J-17.75
X170.7099 Y30.833 I-17.75 J-0.031
G1 X170.3244 Y30.8299
G3 X169.7755 Y30.2788 I0.001 J-0.55 F1000.
G1 X169.7766 Y29.7288
Y29.6422 Z1.607
Y29.5588 Z1.627
Y29.4799 Z1.66
Y29.4055 Z1.705
X169.777017 Y29.3399 Z1.761
Y29.2833 Z1.827
Y29.2388 Z1.9
Y29.2055 Z1.98
Y29.1855 Z2.064
Y29.1788 Z2.15
G0 Z23.2
X169.7766 Y29.4955
G1 Z7.2 F1200.
Z2.15
Y29.4888 Z2.064
Y29.4688 Z1.98
Y29.4355 Z1.9
X169.777017 Y29.399 Z1.827
Y29.3344 Z1.761
Y29.2688 Z1.705
Y29.1955 Z1.66
