(2018-01-26 EARMUFFS)
(2018-01-26 EARMUFFS)
(T24  D=4. CR=0. TAPER=118DEG - ZMIN=-2.702 - DRILL)
(T162  D=5.5 CR=0. - ZMIN=0. - FLAT END MILL)
G90 G94 G91.1 G40 G49 G17
G21
G28 G91 Z0.
G90

(DRILL3 3)
M5
M9
T24 M6
S8000 M3
G54
M8
G0 X9.682 Y22.933
Z33.2
Z23.2
G98 G83 X9.682 Y22.933 Z-2.702 R23.2 Q4. F800.
Y63.487
Y104.041
Y144.595
X69.682
X88.427 Y131.562
X69.682 Y104.041
X88.427 Y91.008
X69.682 Y63.487
X88.427 Y50.454
X69.682 Y22.933
X88.427 Y9.9
X148.427
Y50.454
Y91.008
Y131.562
G80
Z33.2
G28 G91 Z0.
G90

M9
G28 G91 Z0.
G90
G28 G91 X0. Y0.
G90
M30


