(2018-01-26 EARMUFFS)
(2018-01-26 EARMUFFS)
(T24  D=4. CR=0. TAPER=118DEG - ZMIN=-2.702 - DRILL)
(T162  D=5.5 CR=0. - ZMIN=0. - FLAT END MILL)
G90 G94 G91.1 G40 G49 G17
G21
G28 G91 Z0.
G90

(2D POCKE)
M5
M9
M1
T162 M6
S12000 M3
G54
M8
G0 X97.153 Y153.387
Z33.2
Z23.2
G1 Z14.75 F1000.
X97.159 Y153.39 Z14.664
X97.178 Y153.397 Z14.58
X97.209 Y153.409 Z14.5
X97.251 Y153.425 Z14.427
X97.303 Y153.445 Z14.361
X97.364 Y153.469 Z14.305
X97.433 Y153.496 Z14.26
X97.507 Y153.525 Z14.227
X97.585 Y153.555 Z14.207
X97.666 Y153.586 Z14.2
X97.717 Y153.606
G2 X139.137 I20.71 J-53.403 F3600.
G1 X141.701 Y152.612 F1000.
X141.781 Y152.58 Z14.207
X141.859 Y152.55 Z14.227
X141.934 Y152.521 Z14.26
X142.002 Y152.495 Z14.305
X142.063 Y152.471 Z14.361
X142.116 Y152.451 Z14.427
X142.158 Y152.434 Z14.5
X142.188 Y152.422 Z14.58
X142.207 Y152.415 Z14.664
X142.214 Y152.413 Z14.75
G0 Z23.2
X73.472 Y123.705
G1 Z14.695 F1000.
X73.475 Y123.712 Z14.609
X73.484 Y123.733 Z14.526
X73.499 Y123.766 Z14.448
X73.519 Y123.811 Z14.377
X73.543 Y123.867 Z14.316
X73.571 Y123.932 Z14.266
X73.602 Y124.004 Z14.23
X73.635 Y124.08 Z14.208
X73.67 Y124.159 Z14.2
X75.977 Y129.471
X76.005 Y129.552
X76.081 Y129.85 F3600.
G2 X78.864 Y135.095 I12.345 J-3.188
X157.99 I39.563 J-34.891
X160.772 Y129.849 I-9.563 J-8.433
G1 X160.849 Y129.549
X160.877 Y129.468 F1000.
X161.973 Y126.945
X162.007 Y126.866 Z14.207
X162.041 Y126.789 Z14.227
X162.072 Y126.716 Z14.26
X162.102 Y126.649 Z14.305
X162.128 Y126.589 Z14.361
X162.15 Y126.537 Z14.427
X162.168 Y126.496 Z14.5
X162.181 Y126.466 Z14.58
X162.189 Y126.447 Z14.664
X162.192 Y126.441 Z14.75
G0 Z23.2
X97.153 Y153.387
G1 Z19.2 F1000.
Z10.75
X97.159 Y153.39 Z10.664
X97.178 Y153.397 Z10.58
X97.209 Y153.409 Z10.5
X97.251 Y153.425 Z10.427
X97.303 Y153.445 Z10.361
X97.364 Y153.469 Z10.305
X97.433 Y153.496 Z10.26
X97.507 Y153.525 Z10.227
X97.585 Y153.555 Z10.207
X97.666 Y153.586 Z10.2
X97.717 Y153.606
G2 X139.137 I20.71 J-53.403 F3600.
G1 X141.701 Y152.612 F1000.
X141.781 Y152.58 Z10.207
X141.859 Y152.55 Z10.227
X141.934 Y152.521 Z10.26
X142.002 Y152.495 Z10.305
X142.063 Y152.471 Z10.361
X142.116 Y152.451 Z10.427
X142.158 Y152.434 Z10.5
X142.188 Y152.422 Z10.58
X142.207 Y152.415 Z10.664
X142.214 Y152.413 Z10.75
G0 Z23.2
X73.472 Y123.705
G1 Z10.695 F1000.
X73.475 Y123.712 Z10.609
X73.484 Y123.733 Z10.526
X73.499 Y123.766 Z10.448
X73.519 Y123.811 Z10.377
X73.543 Y123.867 Z10.316
X73.571 Y123.932 Z10.266
X73.602 Y124.004 Z10.23
X73.635 Y124.08 Z10.208
X73.67 Y124.159 Z10.2
X75.977 Y129.471
X76.005 Y129.552
X76.081 Y129.85 F3600.
G2 X78.864 Y135.095 I12.345 J-3.188
X157.99 I39.563 J-34.891
X160.772 Y129.849 I-9.563 J-8.433
G1 X160.849 Y129.549
X160.877 Y129.468 F1000.
X161.973 Y126.945
X162.007 Y126.866 Z10.207
X162.041 Y126.789 Z10.227
X162.072 Y126.716 Z10.26
X162.102 Y126.649 Z10.305
X162.128 Y126.589 Z10.361
X162.15 Y126.537 Z10.427
X162.168 Y126.496 Z10.5
X162.181 Y126.466 Z10.58
X162.189 Y126.447 Z10.664
X162.192 Y126.441 Z10.75
G0 Z23.2
X97.153 Y153.387
G1 Z15.2 F1000.
Z8.95
X97.159 Y153.39 Z8.864
X97.178 Y153.397 Z8.78
X97.209 Y153.409 Z8.7
X97.251 Y153.425 Z8.627
X97.303 Y153.445 Z8.561
X97.364 Y153.469 Z8.505
X97.433 Y153.496 Z8.46
X97.507 Y153.525 Z8.427
X97.585 Y153.555 Z8.407
X97.666 Y153.586 Z8.4
X97.717 Y153.606
G2 X139.137 I20.71 J-53.403 F3600.
G1 X141.701 Y152.612 F1000.
X141.781 Y152.58 Z8.407
X141.859 Y152.55 Z8.427
X141.934 Y152.521 Z8.46
X142.002 Y152.495 Z8.505
X142.063 Y152.471 Z8.561
X142.116 Y152.451 Z8.627
X142.158 Y152.434 Z8.7
X142.188 Y152.422 Z8.78
X142.207 Y152.415 Z8.864
X142.214 Y152.413 Z8.95
G0 Z23.2
X73.472 Y123.705
G1 Z8.895 F1000.
X73.475 Y123.712 Z8.809
X73.484 Y123.733 Z8.726
X73.499 Y123.766 Z8.648
X73.519 Y123.811 Z8.577
X73.543 Y123.867 Z8.516
X73.571 Y123.932 Z8.466
X73.602 Y124.004 Z8.43
X73.635 Y124.08 Z8.408
X73.67 Y124.159 Z8.4
X75.977 Y129.471
X76.005 Y129.552
X76.081 Y129.85 F3600.
G2 X78.864 Y135.095 I12.345 J-3.188
X157.99 I39.563 J-34.891
X160.772 Y129.849 I-9.563 J-8.433
G1 X160.849 Y129.549
X160.877 Y129.468 F1000.
X161.973 Y126.945
X162.007 Y126.866 Z8.407
X162.041 Y126.789 Z8.427
X162.072 Y126.716 Z8.46
X162.102 Y126.649 Z8.505
X162.128 Y126.589 Z8.561
X162.15 Y126.537 Z8.627
X162.168 Y126.496 Z8.7
X162.181 Y126.466 Z8.78
X162.189 Y126.447 Z8.864
X162.192 Y126.441 Z8.95
G0 Z33.2
X97.153 Y112.834
Z23.2
G1 Z14.75 F1000.
X97.159 Y112.836 Z14.664
X97.178 Y112.843 Z14.58
X97.208 Y112.855 Z14.5
X97.25 Y112.872 Z14.427
X97.303 Y112.892 Z14.361
X97.364 Y112.916 Z14.305
X97.433 Y112.942 Z14.26
X97.507 Y112.971 Z14.227
X97.585 Y113.001 Z14.207
X97.665 Y113.033 Z14.2
X97.717 Y113.052
G2 X139.126 Y113.057 I20.71 J-53.402 F3600.
G1 X141.69 Y112.063 F1000.
X141.77 Y112.032 Z14.207
X141.848 Y112.002 Z14.227
X141.923 Y111.973 Z14.26
X141.991 Y111.946 Z14.305
X142.053 Y111.922 Z14.361
X142.105 Y111.902 Z14.427
X142.147 Y111.886 Z14.5
X142.178 Y111.874 Z14.58
X142.196 Y111.867 Z14.664
X142.203 Y111.864 Z14.75
G0 Z23.2
X73.472 Y83.151
G1 Z14.695 F1000.
X73.475 Y83.158 Z14.609
X73.484 Y83.179 Z14.526
X73.499 Y83.212 Z14.447
X73.518 Y83.257 Z14.377
X73.543 Y83.313 Z14.316
X73.571 Y83.378 Z14.266
X73.602 Y83.45 Z14.23
X73.635 Y83.526 Z14.208
X73.67 Y83.605 Z14.2
X75.977 Y88.917
X76.005 Y88.998
X76.081 Y89.296 F3600.
G2 X78.864 Y94.541 I12.345 J-3.188
X157.99 I39.563 J-34.891
X160.772 Y89.295 I-9.563 J-8.432
G1 X160.849 Y88.995
X160.877 Y88.914 F1000.
X161.973 Y86.391
X162.007 Y86.312 Z14.207
X162.041 Y86.235 Z14.227
X162.072 Y86.162 Z14.26
X162.102 Y86.095 Z14.305
X162.128 Y86.035 Z14.361
X162.15 Y85.983 Z14.427
X162.168 Y85.942 Z14.5
X162.181 Y85.911 Z14.58
X162.189 Y85.893 Z14.664
X162.192 Y85.887 Z14.75
G0 Z23.2
X97.153 Y112.834
G1 Z19.2 F1000.
Z10.75
X97.159 Y112.836 Z10.664
X97.178 Y112.843 Z10.58
X97.208 Y112.855 Z10.5
X97.25 Y112.872 Z10.427
X97.303 Y112.892 Z10.361
X97.364 Y112.916 Z10.305
X97.433 Y112.942 Z10.26
X97.507 Y112.971 Z10.227
X97.585 Y113.001 Z10.207
X97.665 Y113.033 Z10.2
X97.717 Y113.052
G2 X139.126 Y113.057 I20.71 J-53.402 F3600.
G1 X141.69 Y112.063 F1000.
X141.77 Y112.032 Z10.207
X141.848 Y112.002 Z10.227
X141.923 Y111.973 Z10.26
X141.991 Y111.946 Z10.305
X142.053 Y111.922 Z10.361
X142.105 Y111.902 Z10.427
X142.147 Y111.886 Z10.5
X142.178 Y111.874 Z10.58
X142.196 Y111.867 Z10.664
X142.203 Y111.864 Z10.75
G0 Z23.2
X73.472 Y83.151
G1 Z10.695 F1000.
X73.475 Y83.158 Z10.609
X73.484 Y83.179 Z10.526
X73.499 Y83.212 Z10.447
X73.518 Y83.257 Z10.377
X73.543 Y83.313 Z10.316
X73.571 Y83.378 Z10.266
X73.602 Y83.45 Z10.23
X73.635 Y83.526 Z10.208
X73.67 Y83.605 Z10.2
X75.977 Y88.917
X76.005 Y88.998
X76.081 Y89.296 F3600.
G2 X78.864 Y94.541 I12.345 J-3.188
X157.99 I39.563 J-34.891
X160.772 Y89.295 I-9.563 J-8.432
G1 X160.849 Y88.995
X160.877 Y88.914 F1000.
X161.973 Y86.391
X162.007 Y86.312 Z10.207
X162.041 Y86.235 Z10.227
X162.072 Y86.162 Z10.26
X162.102 Y86.095 Z10.305
X162.128 Y86.035 Z10.361
X162.15 Y85.983 Z10.427
X162.168 Y85.942 Z10.5
X162.181 Y85.911 Z10.58
X162.189 Y85.893 Z10.664
X162.192 Y85.887 Z10.75
G0 Z23.2
X97.153 Y112.834
G1 Z15.2 F1000.
Z8.95
X97.159 Y112.836 Z8.864
X97.178 Y112.843 Z8.78
X97.208 Y112.855 Z8.7
X97.25 Y112.872 Z8.627
X97.303 Y112.892 Z8.561
X97.364 Y112.916 Z8.505
X97.433 Y112.942 Z8.46
X97.507 Y112.971 Z8.427
X97.585 Y113.001 Z8.407
X97.665 Y113.033 Z8.4
X97.717 Y113.052
G2 X139.126 Y113.057 I20.71 J-53.402 F3600.
G1 X141.69 Y112.063 F1000.
X141.77 Y112.032 Z8.407
X141.848 Y112.002 Z8.427
X141.923 Y111.973 Z8.46
X141.991 Y111.946 Z8.505
X142.053 Y111.922 Z8.561
X142.105 Y111.902 Z8.627
X142.147 Y111.886 Z8.7
X142.178 Y111.874 Z8.78
X142.196 Y111.867 Z8.864
X142.203 Y111.864 Z8.95
G0 Z23.2
X73.472 Y83.151
G1 Z8.895 F1000.
X73.475 Y83.158 Z8.809
X73.484 Y83.179 Z8.726
X73.499 Y83.212 Z8.647
X73.518 Y83.257 Z8.577
X73.543 Y83.313 Z8.516
X73.571 Y83.378 Z8.466
X73.602 Y83.45 Z8.43
X73.635 Y83.526 Z8.408
X73.67 Y83.605 Z8.4
X75.977 Y88.917
X76.005 Y88.998
X76.081 Y89.296 F3600.
G2 X78.864 Y94.541 I12.345 J-3.188
X157.99 I39.563 J-34.891
X160.772 Y89.295 I-9.563 J-8.432
G1 X160.849 Y88.995
X160.877 Y88.914 F1000.
X161.973 Y86.391
X162.007 Y86.312 Z8.407
X162.041 Y86.235 Z8.427
X162.072 Y86.162 Z8.46
X162.102 Y86.095 Z8.505
X162.128 Y86.035 Z8.561
X162.15 Y85.983 Z8.627
X162.168 Y85.942 Z8.7
X162.181 Y85.911 Z8.78
X162.189 Y85.893 Z8.864
X162.192 Y85.887 Z8.95
G0 Z33.2
X97.153 Y72.28
Z23.2
G1 Z14.75 F1000.
X97.159 Y72.282 Z14.664
X97.178 Y72.289 Z14.58
X97.208 Y72.301 Z14.5
X97.25 Y72.318 Z14.427
X97.303 Y72.338 Z14.361
X97.364 Y72.362 Z14.305
X97.433 Y72.388 Z14.26
X97.507 Y72.417 Z14.227
X97.585 Y72.447 Z14.207
X97.665 Y72.479 Z14.2
X97.717 Y72.498
G2 X139.126 Y72.503 I20.71 J-53.402 F3600.
G1 X141.69 Y71.509 F1000.
X141.77 Y71.478 Z14.207
X141.848 Y71.448 Z14.227
X141.923 Y71.419 Z14.26
X141.991 Y71.392 Z14.305
X142.053 Y71.368 Z14.361
X142.105 Y71.348 Z14.427
X142.147 Y71.332 Z14.5
X142.178 Y71.32 Z14.58
X142.196 Y71.313 Z14.664
X142.203 Y71.31 Z14.75
G0 Z23.2
X73.472 Y42.597
G1 Z14.695 F1000.
X73.475 Y42.604 Z14.609
X73.484 Y42.625 Z14.526
X73.499 Y42.658 Z14.447
X73.519 Y42.703 Z14.377
X73.543 Y42.759 Z14.316
X73.571 Y42.824 Z14.266
X73.602 Y42.896 Z14.23
X73.635 Y42.972 Z14.208
X73.67 Y43.051 Z14.2
X75.977 Y48.363
X76.005 Y48.444
X76.081 Y48.742 F3600.
G2 X78.864 Y53.987 I12.345 J-3.188
X157.99 I39.563 J-34.891
X160.772 Y48.741 I-9.563 J-8.432
G1 X160.849 Y48.441
X160.877 Y48.36 F1000.
X161.973 Y45.837
X162.007 Y45.758 Z14.207
X162.041 Y45.681 Z14.227
X162.072 Y45.608 Z14.26
X162.102 Y45.541 Z14.305
X162.128 Y45.481 Z14.361
X162.15 Y45.429 Z14.427
X162.168 Y45.388 Z14.5
X162.181 Y45.357 Z14.58
X162.189 Y45.339 Z14.664
X162.192 Y45.333 Z14.75
G0 Z23.2
X97.153 Y72.28
G1 Z19.2 F1000.
Z10.75
X97.159 Y72.282 Z10.664
X97.178 Y72.289 Z10.58
X97.208 Y72.301 Z10.5
X97.25 Y72.318 Z10.427
X97.303 Y72.338 Z10.361
X97.364 Y72.362 Z10.305
X97.433 Y72.388 Z10.26
X97.507 Y72.417 Z10.227
X97.585 Y72.447 Z10.207
X97.665 Y72.479 Z10.2
X97.717 Y72.498
G2 X139.126 Y72.503 I20.71 J-53.402 F3600.
G1 X141.69 Y71.509 F1000.
X141.77 Y71.478 Z10.207
X141.848 Y71.448 Z10.227
X141.923 Y71.419 Z10.26
X141.991 Y71.392 Z10.305
X142.053 Y71.368 Z10.361
X142.105 Y71.348 Z10.427
X142.147 Y71.332 Z10.5
X142.178 Y71.32 Z10.58
X142.196 Y71.313 Z10.664
X142.203 Y71.31 Z10.75
G0 Z23.2
X73.472 Y42.597
G1 Z10.695 F1000.
X73.475 Y42.604 Z10.609
X73.484 Y42.625 Z10.526
X73.499 Y42.658 Z10.447
X73.519 Y42.703 Z10.377
X73.543 Y42.759 Z10.316
X73.571 Y42.824 Z10.266
X73.602 Y42.896 Z10.23
X73.635 Y42.972 Z10.208
X73.67 Y43.051 Z10.2
X75.977 Y48.363
X76.005 Y48.444
X76.081 Y48.742 F3600.
G2 X78.864 Y53.987 I12.345 J-3.188
X157.99 I39.563 J-34.891
X160.772 Y48.741 I-9.563 J-8.432
G1 X160.849 Y48.441
X160.877 Y48.36 F1000.
X161.973 Y45.837
X162.007 Y45.758 Z10.207
X162.041 Y45.681 Z10.227
X162.072 Y45.608 Z10.26
X162.102 Y45.541 Z10.305
X162.128 Y45.481 Z10.361
X162.15 Y45.429 Z10.427
X162.168 Y45.388 Z10.5
X162.181 Y45.357 Z10.58
X162.189 Y45.339 Z10.664
X162.192 Y45.333 Z10.75
G0 Z23.2
X97.153 Y72.28
G1 Z15.2 F1000.
Z8.95
X97.159 Y72.282 Z8.864
X97.178 Y72.289 Z8.78
X97.208 Y72.301 Z8.7
X97.25 Y72.318 Z8.627
X97.303 Y72.338 Z8.561
X97.364 Y72.362 Z8.505
X97.433 Y72.388 Z8.46
X97.507 Y72.417 Z8.427
X97.585 Y72.447 Z8.407
X97.665 Y72.479 Z8.4
X97.717 Y72.498
G2 X139.126 Y72.503 I20.71 J-53.402 F3600.
G1 X141.69 Y71.509 F1000.
X141.77 Y71.478 Z8.407
X141.848 Y71.448 Z8.427
X141.923 Y71.419 Z8.46
X141.991 Y71.392 Z8.505
X142.053 Y71.368 Z8.561
X142.105 Y71.348 Z8.627
X142.147 Y71.332 Z8.7
X142.178 Y71.32 Z8.78
X142.196 Y71.313 Z8.864
X142.203 Y71.31 Z8.95
G0 Z23.2
X73.472 Y42.597
G1 Z8.895 F1000.
X73.475 Y42.604 Z8.809
X73.484 Y42.625 Z8.726
X73.499 Y42.658 Z8.647
X73.519 Y42.703 Z8.577
X73.543 Y42.759 Z8.516
X73.571 Y42.824 Z8.466
X73.602 Y42.896 Z8.43
X73.635 Y42.972 Z8.408
X73.67 Y43.051 Z8.4
X75.977 Y48.363
X76.005 Y48.444
X76.081 Y48.742 F3600.
G2 X78.864 Y53.987 I12.345 J-3.188
X157.99 I39.563 J-34.891
X160.772 Y48.741 I-9.563 J-8.432
G1 X160.849 Y48.441
X160.877 Y48.36 F1000.
X161.973 Y45.837
X162.007 Y45.758 Z8.407
X162.041 Y45.681 Z8.427
X162.072 Y45.608 Z8.46
X162.102 Y45.541 Z8.505
X162.128 Y45.481 Z8.561
X162.15 Y45.429 Z8.627
X162.168 Y45.388 Z8.7
X162.181 Y45.357 Z8.78
X162.189 Y45.339 Z8.864
X162.192 Y45.333 Z8.95
G0 Z33.2
X97.153 Y31.726
Z23.2
G1 Z14.75 F1000.
X97.159 Y31.728 Z14.664
X97.178 Y31.735 Z14.58
X97.208 Y31.747 Z14.5
X97.25 Y31.764 Z14.427
X97.303 Y31.784 Z14.361
X97.364 Y31.808 Z14.305
X97.433 Y31.834 Z14.26
X97.507 Y31.863 Z14.227
X97.585 Y31.893 Z14.207
X97.665 Y31.925 Z14.2
X97.717 Y31.944
G2 X139.126 Y31.949 I20.71 J-53.402 F3600.
G1 X141.69 Y30.955 F1000.
X141.77 Y30.924 Z14.207
X141.848 Y30.894 Z14.227
X141.923 Y30.865 Z14.26
X141.991 Y30.838 Z14.305
X142.053 Y30.814 Z14.361
X142.105 Y30.794 Z14.427
X142.147 Y30.778 Z14.5
X142.178 Y30.766 Z14.58
X142.196 Y30.759 Z14.664
X142.203 Y30.756 Z14.75
G0 Z23.2
X73.472 Y2.043
G1 Z14.695 F1000.
X73.475 Y2.05 Z14.609
X73.484 Y2.071 Z14.526
X73.499 Y2.104 Z14.447
X73.519 Y2.149 Z14.377
X73.543 Y2.205 Z14.316
X73.571 Y2.27 Z14.266
X73.602 Y2.342 Z14.23
X73.635 Y2.418 Z14.208
X73.67 Y2.497 Z14.2
X75.977 Y7.809
X76.005 Y7.89
X76.081 Y8.188 F3600.
G2 X78.864 Y13.433 I12.345 J-3.188
X157.99 I39.563 J-34.891
X160.772 Y8.187 I-9.563 J-8.432
G1 X160.849 Y7.887
X160.877 Y7.806 F1000.
X161.973 Y5.283
X162.007 Y5.204 Z14.207
X162.041 Y5.127 Z14.227
X162.072 Y5.054 Z14.26
X162.102 Y4.987 Z14.305
X162.128 Y4.927 Z14.361
X162.15 Y4.875 Z14.427
X162.168 Y4.834 Z14.5
X162.181 Y4.803 Z14.58
X162.189 Y4.785 Z14.664
X162.192 Y4.779 Z14.75
G0 Z23.2
X97.153 Y31.726
G1 Z19.2 F1000.
Z10.75
X97.159 Y31.728 Z10.664
X97.178 Y31.735 Z10.58
X97.208 Y31.747 Z10.5
X97.25 Y31.764 Z10.427
X97.303 Y31.784 Z10.361
X97.364 Y31.808 Z10.305
X97.433 Y31.834 Z10.26
X97.507 Y31.863 Z10.227
X97.585 Y31.893 Z10.207
X97.665 Y31.925 Z10.2
X97.717 Y31.944
G2 X139.126 Y31.949 I20.71 J-53.402 F3600.
G1 X141.69 Y30.955 F1000.
X141.77 Y30.924 Z10.207
X141.848 Y30.894 Z10.227
X141.923 Y30.865 Z10.26
X141.991 Y30.838 Z10.305
X142.053 Y30.814 Z10.361
X142.105 Y30.794 Z10.427
X142.147 Y30.778 Z10.5
X142.178 Y30.766 Z10.58
X142.196 Y30.759 Z10.664
X142.203 Y30.756 Z10.75
G0 Z23.2
X73.472 Y2.043
G1 Z10.695 F1000.
X73.475 Y2.05 Z10.609
X73.484 Y2.071 Z10.526
X73.499 Y2.104 Z10.447
X73.519 Y2.149 Z10.377
X73.543 Y2.205 Z10.316
X73.571 Y2.27 Z10.266
X73.602 Y2.342 Z10.23
X73.635 Y2.418 Z10.208
X73.67 Y2.497 Z10.2
X75.977 Y7.809
X76.005 Y7.89
X76.081 Y8.188 F3600.
G2 X78.864 Y13.433 I12.345 J-3.188
X157.99 I39.563 J-34.891
X160.772 Y8.187 I-9.563 J-8.432
G1 X160.849 Y7.887
X160.877 Y7.806 F1000.
X161.973 Y5.283
X162.007 Y5.204 Z10.207
X162.041 Y5.127 Z10.227
X162.072 Y5.054 Z10.26
X162.102 Y4.987 Z10.305
X162.128 Y4.927 Z10.361
X162.15 Y4.875 Z10.427
X162.168 Y4.834 Z10.5
X162.181 Y4.803 Z10.58
X162.189 Y4.785 Z10.664
X162.192 Y4.779 Z10.75
G0 Z23.2
X97.153 Y31.726
G1 Z15.2 F1000.
Z8.95
X97.159 Y31.728 Z8.864
X97.178 Y31.735 Z8.78
X97.208 Y31.747 Z8.7
X97.25 Y31.764 Z8.627
X97.303 Y31.784 Z8.561
X97.364 Y31.808 Z8.505
X97.433 Y31.834 Z8.46
X97.507 Y31.863 Z8.427
X97.585 Y31.893 Z8.407
X97.665 Y31.925 Z8.4
X97.717 Y31.944
G2 X139.126 Y31.949 I20.71 J-53.402 F3600.
G1 X141.69 Y30.955 F1000.
X141.77 Y30.924 Z8.407
X141.848 Y30.894 Z8.427
X141.923 Y30.865 Z8.46
X141.991 Y30.838 Z8.505
X142.053 Y30.814 Z8.561
X142.105 Y30.794 Z8.627
X142.147 Y30.778 Z8.7
X142.178 Y30.766 Z8.78
X142.196 Y30.759 Z8.864
X142.203 Y30.756 Z8.95
G0 Z23.2
X73.472 Y2.043
G1 Z8.895 F1000.
X73.475 Y2.05 Z8.809
X73.484 Y2.071 Z8.726
X73.499 Y2.104 Z8.648
X73.519 Y2.149 Z8.577
X73.543 Y2.205 Z8.516
X73.571 Y2.27 Z8.466
X73.602 Y2.342 Z8.43
X73.635 Y2.418 Z8.408
X73.67 Y2.497 Z8.4
X75.977 Y7.809
X76.005 Y7.89
X76.081 Y8.188 F3600.
G2 X78.864 Y13.433 I12.345 J-3.188
X157.99 I39.563 J-34.891
X160.772 Y8.187 I-9.563 J-8.432
G1 X160.849 Y7.887
X160.877 Y7.806 F1000.
X161.973 Y5.283
X162.007 Y5.204 Z8.407
X162.041 Y5.127 Z8.427
X162.072 Y5.054 Z8.46
X162.102 Y4.987 Z8.505
X162.128 Y4.927 Z8.561
X162.15 Y4.875 Z8.627
X162.168 Y4.834 Z8.7
X162.181 Y4.803 Z8.78
X162.189 Y4.785 Z8.864
X162.192 Y4.779 Z8.95
G0 Z33.2

M9
G28 G91 Z0.
G90
G28 G91 X0. Y0.
G90
M30


