(2018-01-26 HACKSAW)
(2018-01-26 HACKSAW)
(T24  D=4. CR=0. TAPER=118DEG - ZMIN=-2.702 - DRILL)
(T42  D=0.1 CR=0. TAPER=45DEG - ZMIN=14.2 - TAPERED MILL)
(T162  D=5.5 CR=0. - ZMIN=0. - FLAT END MILL)
G90 G94 G91.1 G40 G49 G17
G21
G28 G91 Z0.
G90

(DRILL3 3)
M5
M9
T24 M6
S8000 M3
G54
M8
G0 X15.108 Y45.984
Z33.2
Z23.2
G98 G83 X15.108 Y45.984 Z-2.702 R23.2 Q4. F800.
X14.79 Y12.5
X69.79 Y12.596
X70.108 Y46.08
G80
Z33.2
G28 G91 Z0.
G90

(DRILL3 3)
M5
M9
T24 M6
S8000 M3
G54
M8
G0 X15.1088 Y362.32084
Z33.2
Z23.2
G98 G83 X15.1088 Y362.32084 Z-2.702 R23.2 Q4. F800.
X14.799 Y328.83685
X69.799 Y328.9328

(DRILL3 3)
M5
M9
T24 M6
S8000 M3
G54
M8
G0 X417.388468 Y45.9844
Z33.2
Z23.2
G98 G83 X417.388468 Y45.9844 Z-2.702 R23.2 Q4. F800.
X417.070479 Y12.55
X472.070479 Y12.596

(DRILL3 3)
M5
M9
T24 M6
S8000 M3
G54
M8
G0 X417.388468 Y362.32084
Z33.2
Z23.2
G98 G83 X417.388468 Y362.32084 Z-2.702 R23.2 Q4. F800.
X417.070479 Y328.83685
X472.070479 Y328.9328

(DRILL3 3)
M5
M9
T24 M6
S8000 M3
G54
M8
G0 X15.1088 Y204.152014
Z33.2
Z23.2
G98 G83 X15.1088 Y204.152014 Z-2.702 R23.2 Q4. F800.
X14.799 Y170.6685
X69.799 Y170.76399

(DRILL3 3)
M5
M9
T24 M6
S8000 M3
G54
M8
G0 X15.10888 Y520.48884
Z33.2
Z23.2
G98 G83 X15.10888 Y520.48884 Z-2.702 R23.2 Q4. F800.
X14.7999 Y487.0053

(DRILL3 3)
M5
M9
T24 M6
S8000 M3
G54
M8
G0 X417.389258 Y204.152014
Z33.2
Z23.2
G98 G83 X417.389258 Y204.152014 Z-2.702 R23.2 Q4. F800.
X417.079479 Y170.6685

(DRILL3 3)
M5
M9
T24 M6
S8000 M3
G54
M8
G0 X417.389258 Y520.48884
Z33.2
Z23.2
G98 G83 X417.389258 Y520.48884 Z-2.702 R23.2 Q4. F800.
X417.079479 Y487.0053

(DRILL3 3)
M5
M9
T24 M6
S8000 M3
G54
M8
G0 X216.248238 Y45.9844
Z33.2
Z23.2
G98 G83 X216.248238 Y45.9844 Z-2.702 R23.2 Q4. F800.
X215.930229 Y12.55
X270.930249 Y12.596

(DRILL3 3)
M5
M9
T24 M6
S8000 M3
G54
M8
G0 X216.248258 Y362.32124
Z33.2
Z23.2
G98 G83 X216.248258 Y362.32124 Z-2.702 R23.2 Q4. F800.
X215.930229 Y328.88678

(DRILL3 3)
M5
M9
T24 M6
S8000 M3
G54
M8
G0 X618.52878 Y45.98444
Z33.2
Z23.2
G98 G83 X618.52878 Y45.98444 Z-2.702 R23.2 Q4. F800.
X618.21079 Y12.55

(DRILL3 3)
M5
M9
T24 M6
S8000 M3
G54
M8
G0 X618.52878 Y362.32124
Z33.2
Z23.2
G98 G83 X618.52878 Y362.32124 Z-2.702 R23.2 Q4. F800.
X618.21079 Y328.88678

(DRILL3 3)
M5
M9
T24 M6
S8000 M3
G54
M8
G0 X216.248238 Y204.152014
Z33.2
Z23.2
G98 G83 X216.248238 Y204.152014 Z-2.702 R23.2 Q4. F800.
X215.930229 Y170.6685
X270.930249 Y170.76399

(DRILL3 3)
M5
M9
T24 M6
S8000 M3
G54
M8
G0 X216.248258 Y520.48884
Z33.2
Z23.2
G98 G83 X216.248258 Y520.48884 Z-2.702 R23.2 Q4. F800.
X215.930229 Y487.0053

(DRILL3 3)
M5
M9
T24 M6
S8000 M3
G54
M8
G0 X618.52878 Y204.152014
Z33.2
Z23.2
G98 G83 X618.52878 Y204.152014 Z-2.702 R23.2 Q4. F800.
X618.21079 Y170.6685

(DRILL3 3)
M5
M9
T24 M6
S8000 M3
G54
M8
G0 X618.52878 Y520.48884
Z33.2
Z23.2
G98 G83 X618.52878 Y520.48884 Z-2.702 R23.2 Q4. F800.
X618.21079 Y487.0053

(DRILL3 3)
M5
M9
T24 M6
S8000 M3
G54
M8
G0 X15.1088 Y125.0644
Z33.2
Z23.2
G98 G83 X15.1088 Y125.0644 Z-2.702 R23.2 Q4. F800.
X14.799 Y91.585
X69.799 Y91.676

(DRILL3 3)
M5
M9
T24 M6
S8000 M3
G54
M8
G0 X15.10888 Y441.401184
Z33.2
Z23.2
G98 G83 X15.10888 Y441.401184 Z-2.702 R23.2 Q4. F800.
X14.7999 Y407.92178

(DRILL3 3)
M5
M9
T24 M6
S8000 M3
G54
M8
G0 X417.389258 Y125.06444
Z33.2
Z23.2
G98 G83 X417.389258 Y125.06444 Z-2.702 R23.2 Q4. F800.
X417.079479 Y91.585

(DRILL3 3)
M5
M9
T24 M6
S8000 M3
G54
M8
G0 X417.389258 Y441.401184
Z33.2
Z23.2
G98 G83 X417.389258 Y441.401184 Z-2.702 R23.2 Q4. F800.
X417.079479 Y407.92178

(DRILL3 3)
M5
M9
T24 M6
S8000 M3
G54
M8
G0 X15.10888 Y283.23244
Z33.2
Z23.2
G98 G83 X15.10888 Y283.23244 Z-2.702 R23.2 Q4. F800.
X14.7999 Y249.75299

(DRILL3 3)
M5
M9
T24 M6
S8000 M3
G54
M8
G0 X15.108888 Y599.56924
Z33.2
Z23.2
G98 G83 X15.108888 Y599.5692

(DRILL3 3)
M5
M9
T24 M6
S8000 M3
G54
M8
G0 X417.389348 Y283.232454
Z33.2
Z23.2
G98 G83 X417.389348 Y283.23245

(DRILL3 3)
M5
M9
T24 M6
S8000 M3
G54
M8
G0 X417.389348 Y599.56924
Z33.2
Z23.2
G98 G83 X417.389348 Y599.5692

(DRILL3 3)
M5
M9
T24 M6
S8000 M3
G54
M8
G0 X216.249028 Y125.06444
Z33.2
Z23.2
G98 G83 X216.249028 Y125.06444 Z-2.702 R23.2 Q4. F800.
X215.939229 Y91.585

(DRILL3 3)
M5
M9
T24 M6
S8000 M3
G54
M8
G0 X216.249028 Y441.401254
Z33.2
Z23.2
G98 G83 X216.249028 Y441.40125

(DRILL3 3)
M5
M9
T24 M6
S8000 M3
G54
M8
G0 X618.52958 Y125.064444
Z33.2
Z23.2
G98 G83 X618.52958 Y125.06444

(DRILL3 3)
M5
M9
T24 M6
S8000 M3
G54
M8
G0 X618.52958 Y441.401254
Z33.2
Z23.2
G98 G83 X618.52958 Y441.40125

(DRILL3 3)
M5
M9
T24 M6
S8000 M3
G54
M8
G0 X216.249028 Y283.23244
Z33.2
Z23.2
G98 G83 X216.249028 Y283.23244 Z-2.702 R23.2 Q4. F800.
X215.939229 Y249.75299

(DRILL3 3)
M5
M9
T24 M6
S8000 M3
G54
M8
G0 X216.249028 Y599.56924
Z33.2
Z23.2
G98 G83 X216.249028 Y599.5692

(DRILL3 3)
M5
M9
T24 M6
S8000 M3
G54
M8
G0 X618.52958 Y283.232454
Z33.2
Z23.2
G98 G83 X618.52958 Y283.23245

(DRILL3 3)
M5
M9
T24 M6
S8000 M3
G54
M8
G0 X618.52958 Y599.56924
Z33.2
Z23.2
G98 G83 X618.52958 Y599.5692

(DRILL3 3)
M5
M9
T24 M6
S8000 M3
G54
M8
G0 X115.6788 Y45.9844
Z33.2
Z23.2
G98 G83 X115.6788 Y45.9844 Z-2.702 R23.2 Q4. F800.
X115.369 Y12.55
X170.369 Y12.596

(DRILL3 3)
M5
M9
T24 M6
S8000 M3
G54
M8
G0 X115.67888 Y362.32124
Z33.2
Z23.2
G98 G83 X115.67888 Y362.32124 Z-2.702 R23.2 Q4. F800.
X115.3699 Y328.88678

(DRILL3 3)
M5
M9
T24 M6
S8000 M3
G54
M8
G0 X517.95928 Y45.98444
Z33.2
Z23.2
G98 G83 X517.95928 Y45.98444 Z-2.702 R23.2 Q4. F800.
X517.64959 Y12.55

(DRILL3 3)
M5
M9
T24 M6
S8000 M3
G54
M8
G0 X517.95928 Y362.32124
Z33.2
Z23.2
G98 G83 X517.95928 Y362.32124 Z-2.702 R23.2 Q4. F800.
X517.64959 Y328.88678

(DRILL3 3)
M5
M9
T24 M6
S8000 M3
G54
M8
G0 X115.67888 Y204.15244
Z33.2
Z23.2
G98 G83 X115.67888 Y204.15244 Z-2.702 R23.2 Q4. F800.
X115.3699 Y170.718

(DRILL3 3)
M5
M9
T24 M6
S8000 M3
G54
M8
G0 X115.678888 Y520.489264
Z33.2
Z23.2
G98 G83 X115.678888 Y520.48926

(DRILL3 3)
M5
M9
T24 M6
S8000 M3
G54
M8
G0 X517.959358 Y204.152444
Z33.2
Z23.2
G98 G83 X517.959358 Y204.15244

(DRILL3 3)
M5
M9
T24 M6
S8000 M3
G54
M8
G0 X517.959358 Y520.489264
Z33.2
Z23.2
G98 G83 X517.959358 Y520.48926

(DRILL3 3)
M5
M9
T24 M6
S8000 M3
G54
M8
G0 X316.819038 Y45.98444
Z33.2
Z23.2
G98 G83 X316.819038 Y45.98444 Z-2.702 R23.2 Q4. F800.
X316.509229 Y12.55

(DRILL3 3)
M5
M9
T24 M6
S8000 M3
G54
M8
G0 X316.819038 Y362.321234
Z33.2
Z23.2
G98 G83 X316.819038 Y362.32123

(DRILL3 3)
M5
M9
T24 M6
S8000 M3
G54
M8
G0 X719.09958 Y45.984444
Z33.2
Z23.2
G98 G83 X719.09958 Y45.98444

(DRILL3 3)
M5
M9
T24 M6
S8000 M3
G54
M8
G0 X719.09958 Y362.321234
Z33.2
Z23.2
G98 G83 X719.09958 Y362.32123

(DRILL3 3)
M5
M9
T24 M6
S8000 M3
G54
M8
G0 X316.819038 Y204.15244
Z33.2
Z23.2
G98 G83 X316.819038 Y204.15244 Z-2.702 R23.2 Q4. F800.
X316.509229 Y170.718

(DRILL3 3)
M5
M9
T24 M6
S8000 M3
G54
M8
G0 X316.819038 Y520.489264
Z33.2
Z23.2
G98 G83 X316.819038 Y520.48926

(DRILL3 3)
M5
M9
T24 M6
S8000 M3
G54
M8
G0 X719.09958 Y204.152444
Z33.2
Z23.2
G98 G83 X719.09958 Y204.15244

(DRILL3 3)
M5
M9
T24 M6
S8000 M3
G54
M8
G0 X719.09958 Y520.489264
Z33.2
Z23.2
G98 G83 X719.09958 Y520.48926

(DRILL3 3)
M5
M9
T24 M6
S8000 M3
G54
M8
G0 X115.6788 Y125.0644
Z33.2
Z23.2
G98 G83 X115.6788 Y125.0644 Z-2.702 R23.2 Q4. F800.
X115.369 Y91.585
X170.369 Y91.676

(DRILL3 3)
M5
M9
T24 M6
S8000 M3
G54
M8
G0 X115.67888 Y441.401184
Z33.2
Z23.2
G98 G83 X115.67888 Y441.401184 Z-2.702 R23.2 Q4. F800.
X115.3699 Y407.92178

(DRILL3 3)
M5
M9
T24 M6
S8000 M3
G54
M8
G0 X517.95928 Y125.06444
Z33.2
Z23.2
G98 G83 X517.95928 Y125.06444 Z-2.702 R23.2 Q4. F800.
X517.64959 Y91.585

(DRILL3 3)
M5
M9
T24 M6
S8000 M3
G54
M8
G0 X517.95928 Y441.401184
Z33.2
Z23.2
G98 G83 X517.95928 Y441.401184 Z-2.702 R23.2 Q4. F800.
X517.64959 Y407.92178

(DRILL3 3)
M5
M9
T24 M6
S8000 M3
G54
M8
G0 X115.67888 Y283.23244
Z33.2
Z23.2
G98 G83 X115.67888 Y283.23244 Z-2.702 R23.2 Q4. F800.
X115.3699 Y249.75299

(DRILL3 3)
M5
M9
T24 M6
S8000 M3
G54
M8
G0 X115.678888 Y599.56924
Z33.2
Z23.2
G98 G83 X115.678888 Y599.5692

(DRILL3 3)
M5
M9
T24 M6
S8000 M3
G54
M8
G0 X517.959358 Y283.232454
Z33.2
Z23.2
G98 G83 X517.959358 Y283.23245

(DRILL3 3)
M5
M9
T24 M6
S8000 M3
G54
M8
G0 X517.959358 Y599.56924
Z33.2
Z23.2
G98 G83 X517.959358 Y599.5692

(DRILL3 3)
M5
M9
T24 M6
S8000 M3
G54
M8
G0 X316.819038 Y125.06444
Z33.2
Z23.2
G98 G83 X316.819038 Y125.06444 Z-2.702 R23.2 Q4. F800.
X316.509229 Y91.585

(DRILL3 3)
M5
M9
T24 M6
S8000 M3
G54
M8
G0 X316.819038 Y441.401254
Z33.2
Z23.2
G98 G83 X316.819038 Y441.40125

(DRILL3 3)
M5
M9
T24 M6
S8000 M3
G54
M8
G0 X719.09958 Y125.064444
Z33.2
Z23.2
G98 G83 X719.09958 Y125.06444

(DRILL3 3)
M5
M9
T24 M6
S8000 M3
G54
M8
G0 X719.09958 Y441.401254
Z33.2
Z23.2
G98 G83 X719.09958 Y441.40125

(DRILL3 3)
M5
M9
T24 M6
S8000 M3
G54
M8
G0 X316.819038 Y283.23244
Z33.2
Z23.2
G98 G83 X316.819038 Y283.23244 Z-2.702 R23.2 Q4. F800.
X316.509229 Y249.75299

(DRILL3 3)
M5
M9
T24 M6
S8000 M3
G54
M8
G0 X316.819038 Y599.56924
Z33.2
Z23.2
G98 G83 X316.819038 Y599.5692

(DRILL3 3)
M5
M9
T24 M6
S8000 M3
G54
M8
G0 X719.09958 Y283.232454
Z33.2
Z23.2
G98 G83 X719.09958 Y283.23245

(DRILL3 3)
M5
M9
T24 M6
S8000 M3
G54
M8
G0 X719.09958 Y599.56924
Z33.2
Z23.2
G98 G83 X719.09958 Y599.5692

(DRILL3 4)
M5
M9
M1
T42 M6
S12000 M3
G54
M8
G0 X15.108 Y45.984
Z33.2
Z23.2
G83 X15.108 Y45.984 Z14.2 R23.2 Q4. F1200.
X70.108 Y46.08
G80
Z33.2
G28 G91 Z0.
G90

(DRILL3 4)
M5
M9
M1
T42 M6
S12000 M3
G54
M8
G0 X15.1088 Y362.32084
Z33.2
Z23.2
G83 X15.1088 Y362.3208

(DRILL3 4)
M5
M9
M1
T42 M6
S12000 M3
G54
M8
G0 X417.388468 Y45.9844
Z33.2
Z23.2
G83 X417.388468 Y45.984

(DRILL3 4)
M5
M9
M1
T42 M6
S12000 M3
G54
M8
G0 X417.388468 Y362.32084
Z33.2
Z23.2
G83 X417.388468 Y362.3208

(DRILL3 4)
M5
M9
M1
T42 M6
S12000 M3
G54
M8
G0 X15.1088 Y204.152014
Z33.2
Z23.2
G83 X15.1088 Y204.15201

(DRILL3 4)
M5
M9
M1
T42 M6
S12000 M3
G54
M8
G0 X15.10888 Y520.4888

(DRILL3 4)
M5
M9
M1
T42 M6
S12000 M3
G54
M8
G0 X417.389258 Y204.15201

(DRILL3 4)
M5
M9
M1
T42 M6
S12000 M3
G54
M8
G0 X417.389258 Y520.4888

(DRILL3 4)
M5
M9
M1
T42 M6
S12000 M3
G54
M8
G0 X216.248238 Y45.9844
Z33.2
Z23.2
G83 X216.248238 Y45.984

(DRILL3 4)
M5
M9
M1
T42 M6
S12000 M3
G54
M8
G0 X216.248258 Y362.3212

(DRILL3 4)
M5
M9
M1
T42 M6
S12000 M3
G54
M8
G0 X618.52878 Y45.9844

(DRILL3 4)
M5
M9
M1
T42 M6
S12000 M3
G54
M8
G0 X618.52878 Y362.3212

(DRILL3 4)
M5
M9
M1
T42 M6
S12000 M3
G54
M8
G0 X216.248238 Y204.152014
Z33.2
Z23.2
G83 X216.248238 Y204.15201

(DRILL3 4)
M5
M9
M1
T42 M6
S12000 M3
G54
M8
G0 X216.248258 Y520.4888

(DRILL3 4)
M5
M9
M1
T42 M6
S12000 M3
G54
M8
G0 X618.52878 Y204.15201

(DRILL3 4)
M5
M9
M1
T42 M6
S12000 M3
G54
M8
G0 X618.52878 Y520.4888

(DRILL3 4)
M5
M9
M1
T42 M6
S12000 M3
G54
M8
G0 X15.1088 Y125.0644
Z33.2
Z23.2
G83 X15.1088 Y125.064

(DRILL3 4)
M5
M9
M1
T42 M6
S12000 M3
G54
M8
G0 X15.10888 Y441.40118

(DRILL3 4)
M5
M9
M1
T42 M6
S12000 M3
G54
M8
G0 X417.389258 Y125.0644

(DRILL3 4)
M5
M9
M1
T42 M6
S12000 M3
G54
M8
G0 X417.389258 Y441.40118

(DRILL3 4)
M5
M9
M1
T42 M6
S12000 M3
G54
M8
G0 X15.10888 Y283.2324







(DRILL3 4)
M5
M9
M1
T42 M6
S12000 M3
G54
M8
G0 X216.249028 Y125.0644







(DRILL3 4)
M5
M9
M1
T42 M6
S12000 M3
G54
M8
G0 X216.249028 Y283.2324







(DRILL3 4)
M5
M9
M1
T42 M6
S12000 M3
G54
M8
G0 X115.6788 Y45.9844
Z33.2
Z23.2
G83 X115.6788 Y45.984

(DRILL3 4)
M5
M9
M1
T42 M6
S12000 M3
G54
M8
G0 X115.67888 Y362.3212

(DRILL3 4)
M5
M9
M1
T42 M6
S12000 M3
G54
M8
G0 X517.95928 Y45.9844

(DRILL3 4)
M5
M9
M1
T42 M6
S12000 M3
G54
M8
G0 X517.95928 Y362.3212

(DRILL3 4)
M5
M9
M1
T42 M6
S12000 M3
G54
M8
G0 X115.67888 Y204.1524







(DRILL3 4)
M5
M9
M1
T42 M6
S12000 M3
G54
M8
G0 X316.819038 Y45.9844







(DRILL3 4)
M5
M9
M1
T42 M6
S12000 M3
G54
M8
G0 X316.819038 Y204.1524







(DRILL3 4)
M5
M9
M1
T42 M6
S12000 M3
G54
M8
G0 X115.6788 Y125.0644
Z33.2
Z23.2
G83 X115.6788 Y125.064

(DRILL3 4)
M5
M9
M1
T42 M6
S12000 M3
G54
M8
G0 X115.67888 Y441.40118

(DRILL3 4)
M5
M9
M1
T42 M6
S12000 M3
G54
M8
G0 X517.95928 Y125.0644

(DRILL3 4)
M5
M9
M1
T42 M6
S12000 M3
G54
M8
G0 X517.95928 Y441.40118

(DRILL3 4)
M5
M9
M1
T42 M6
S12000 M3
G54
M8
G0 X115.67888 Y283.2324







(DRILL3 4)
M5
M9
M1
T42 M6
S12000 M3
G54
M8
G0 X316.819038 Y125.0644







(DRILL3 4)
M5
M9
M1
T42 M6
S12000 M3
G54
M8
G0 X316.819038 Y283.2324







(2D CONTOUR4 2)
M5
M9
M1
T162 M6
S12000 M3
G54
M8
G0 X70.307 Y29.18
Z33.2
Z23.2
G1 Z22.2 F1200.
Z15.75
Y29.187 Z15.664
Y29.207 Z15.58
Y29.24 Z15.5
Y29.285 Z15.427
Y29.341 Z15.361
X70.306 Y29.407 Z15.305
Y29.48 Z15.26
Y29.56 Z15.227
Y29.644 Z15.207
Y29.73 Z15.2
X70.305 Y30.28 F1000.
G3 X69.754 Y30.829 I-0.55 J-0.001
G1 X15.139 Y30.734 F3600.
X15.077
G2 X-2.642 Y48.453 I0.031 J17.75
X15.077 Y66.234 I17.75 J0.031
G1 X70.077 Y66.33
G2 X87.858 Y48.611 I0.031 J-17.75
X70.139 Y30.83 I-17.75 J-0.031
G1 X69.754 Y30.829
G3 X69.205 Y30.278 I0.001 J-0.55 F1000.
G1 X69.206 Y29.728
Y29.642 Z15.207
Y29.558 Z15.227
Y29.479 Z15.26
Y29.405 Z15.305
X69.207 Y29.339 Z15.361
Y29.283 Z15.427
Y29.238 Z15.5
Y29.205 Z15.58
Y29.185 Z15.664
Y29.178 Z15.75
G0 Z23.2
X69.206 Y29.495
G1 Z22.2 F1200.
Z15.75
Y29.488 Z15.664
Y29.468 Z15.58
Y29.435 Z15.5
X69.207 Y29.39 Z15.427
Y29.334 Z15.361
Y29.268 Z15.305
Y29.195 Z15.26
Y29.115 Z15.227
Y29.031 Z15.207
Y28.945 Z15.2
X69.208 Y28.395 F1000.
G3 X69.759 Y27.846 I0.55 J0.001
G2 X87.292 Y13.054 I0.031 J-17.75 F3600.
Y12.138 I-2.712 J-0.458
X69.821 Y-2.654 I-17.502 J2.958
G1 X14.821 Y-2.75
G2 X-2.712 Y12.042 I-0.031 J17.75
Y12.958 I2.712 J0.458
X14.759 Y27.75 I17.502 J-2.958
G1 X69.759 Y27.846
G3 X70.308 Y28.397 I-0.001 J0.55 F1000.
G1 X70.307 Y28.947
Y29.033 Z15.207
Y29.117 Z15.227
Y29.197 Z15.26
Y29.27 Z15.305
Y29.336 Z15.361
Y29.392 Z15.427
X70.306 Y29.437 Z15.5
Y29.47 Z15.58
Y29.49 Z15.664
Y29.497 Z15.75
G0 Z23.2
X70.307 Y29.18
G1 Z19.2 F1200.
Z12.75
Y29.187 Z12.664
Y29.207 Z12.58
Y29.24 Z12.5
Y29.285 Z12.427
Y29.341 Z12.361
X70.306 Y29.407 Z12.305
Y29.48 Z12.26
Y29.56 Z12.227
Y29.644 Z12.207
Y29.73 Z12.2
X70.305 Y30.28 F1000.
G3 X69.754 Y30.829 I-0.55 J-0.001
G1 X15.139 Y30.734 F3600.
X15.077
G2 X-2.642 Y48.453 I0.031 J17.75
X15.077 Y66.234 I17.75 J0.031
G1 X70.077 Y66.33
G2 X87.858 Y48.611 I0.031 J-17.75
X70.139 Y30.83 I-17.75 J-0.031
G1 X69.754 Y30.829
G3 X69.205 Y30.278 I0.001 J-0.55 F1000.
G1 X69.206 Y29.728
Y29.642 Z12.207
Y29.558 Z12.227
Y29.479 Z12.26
Y29.405 Z12.305
X69.207 Y29.339 Z12.361
Y29.283 Z12.427
Y29.238 Z12.5
Y29.205 Z12.58
Y29.185 Z12.664
Y29.178 Z12.75
G0 Z23.2
X69.206 Y29.495
G1 Z19.2 F1200.
Z12.75
Y29.488 Z12.664
Y29.468 Z12.58
Y29.435 Z12.5
X69.207 Y29.39 Z12.427
Y29.334 Z12.361
Y29.268 Z12.305
Y29.195 Z12.26
Y29.115 Z12.227
Y29.031 Z12.207
Y28.945 Z12.2
X69.208 Y28.395 F1000.
G3 X69.759 Y27.846 I0.55 J0.001
G2 X87.292 Y13.054 I0.031 J-17.75 F3600.
Y12.138 I-2.712 J-0.458
X69.821 Y-2.654 I-17.502 J2.958
G1 X14.821 Y-2.75
G2 X-2.712 Y12.042 I-0.031 J17.75
Y12.958 I2.712 J0.458
X14.759 Y27.75 I17.502 J-2.958
G1 X69.759 Y27.846
G3 X70.308 Y28.397 I-0.001 J0.55 F1000.
G1 X70.307 Y28.947
Y29.033 Z12.207
Y29.117 Z12.227
Y29.197 Z12.26
Y29.27 Z12.305
Y29.336 Z12.361
Y29.392 Z12.427
X70.306 Y29.437 Z12.5
Y29.47 Z12.58
Y29.49 Z12.664
Y29.497 Z12.75
G0 Z23.2
X70.307 Y29.18
G1 Z16.2 F1200.
Z9.75
Y29.187 Z9.664
Y29.207 Z9.58
Y29.24 Z9.5
Y29.285 Z9.427
Y29.341 Z9.361
X70.306 Y29.407 Z9.305
Y29.48 Z9.26
Y29.56 Z9.227
Y29.644 Z9.207
Y29.73 Z9.2
X70.305 Y30.28 F1000.
G3 X69.754 Y30.829 I-0.55 J-0.001
G1 X15.139 Y30.734 F3600.
X15.077
G2 X-2.642 Y48.453 I0.031 J17.75
X15.077 Y66.234 I17.75 J0.031
G1 X70.077 Y66.33
G2 X87.858 Y48.611 I0.031 J-17.75
X70.139 Y30.83 I-17.75 J-0.031
G1 X69.754 Y30.829
G3 X69.205 Y30.278 I0.001 J-0.55 F1000.
G1 X69.206 Y29.728
Y29.642 Z9.207
Y29.558 Z9.227
Y29.479 Z9.26
Y29.405 Z9.305
X69.207 Y29.339 Z9.361
Y29.283 Z9.427
Y29.238 Z9.5
Y29.205 Z9.58
Y29.185 Z9.664
Y29.178 Z9.75
G0 Z23.2
X69.206 Y29.495
G1 Z16.2 F1200.
Z9.75
Y29.488 Z9.664
Y29.468 Z9.58
Y29.435 Z9.5
X69.207 Y29.39 Z9.427
Y29.334 Z9.361
Y29.268 Z9.305
Y29.195 Z9.26
Y29.115 Z9.227
Y29.031 Z9.207
Y28.945 Z9.2
X69.208 Y28.395 F1000.
G3 X69.759 Y27.846 I0.55 J0.001
G2 X87.292 Y13.054 I0.031 J-17.75 F3600.
Y12.138 I-2.712 J-0.458
X69.821 Y-2.654 I-17.502 J2.958
G1 X14.821 Y-2.75
G2 X-2.712 Y12.042 I-0.031 J17.75
Y12.958 I2.712 J0.458
X14.759 Y27.75 I17.502 J-2.958
G1 X69.759 Y27.846
G3 X70.308 Y28.397 I-0.001 J0.55 F1000.
G1 X70.307 Y28.947
Y29.033 Z9.207
Y29.117 Z9.227
Y29.197 Z9.26
Y29.27 Z9.305
Y29.336 Z9.361
Y29.392 Z9.427
X70.306 Y29.437 Z9.5
Y29.47 Z9.58
Y29.49 Z9.664
Y29.497 Z9.75
G0 Z23.2
X70.307 Y29.18
G1 Z13.2 F1200.
Z6.75
Y29.187 Z6.664
Y29.207 Z6.58
Y29.24 Z6.5
Y29.285 Z6.427
Y29.341 Z6.361
X70.306 Y29.407 Z6.305
Y29.48 Z6.26
Y29.56 Z6.227
Y29.644 Z6.207
Y29.73 Z6.2
X70.305 Y30.28 F1000.
G3 X69.754 Y30.829 I-0.55 J-0.001
G1 X15.139 Y30.734 F3600.
X15.077
G2 X-2.642 Y48.453 I0.031 J17.75
X15.077 Y66.234 I17.75 J0.031
G1 X70.077 Y66.33
G2 X87.858 Y48.611 I0.031 J-17.75
X70.139 Y30.83 I-17.75 J-0.031
G1 X69.754 Y30.829
G3 X69.205 Y30.278 I0.001 J-0.55 F1000.
G1 X69.206 Y29.728
Y29.642 Z6.207
Y29.558 Z6.227
Y29.479 Z6.26
Y29.405 Z6.305
X69.207 Y29.339 Z6.361
Y29.283 Z6.427
Y29.238 Z6.5
Y29.205 Z6.58
Y29.185 Z6.664
Y29.178 Z6.75
G0 Z23.2
X69.206 Y29.495
G1 Z13.2 F1200.
Z6.75
Y29.488 Z6.664
Y29.468 Z6.58
Y29.435 Z6.5
X69.207 Y29.39 Z6.427
Y29.334 Z6.361
Y29.268 Z6.305
Y29.195 Z6.26
Y29.115 Z6.227
Y29.031 Z6.207
Y28.945 Z6.2
X69.208 Y28.395 F1000.
G3 X69.759 Y27.846 I0.55 J0.001
G2 X87.292 Y13.054 I0.031 J-17.75 F3600.
Y12.138 I-2.712 J-0.458
X69.821 Y-2.654 I-17.502 J2.958
G1 X14.821 Y-2.75
G2 X-2.712 Y12.042 I-0.031 J17.75
Y12.958 I2.712 J0.458
X14.759 Y27.75 I17.502 J-2.958
G1 X69.759 Y27.846
G3 X70.308 Y28.397 I-0.001 J0.55 F1000.
G1 X70.307 Y28.947
Y29.033 Z6.207
Y29.117 Z6.227
Y29.197 Z6.26
Y29.27 Z6.305
Y29.336 Z6.361
Y29.392 Z6.427
X70.306 Y29.437 Z6.5
Y29.47 Z6.58
Y29.49 Z6.664
Y29.497 Z6.75
G0 Z23.2
X70.307 Y29.18
G1 Z10.2 F1200.
Z3.75
Y29.187 Z3.664
Y29.207 Z3.58
Y29.24 Z3.5
Y29.285 Z3.427
Y29.341 Z3.361
X70.306 Y29.407 Z3.305
Y29.48 Z3.26
Y29.56 Z3.227
Y29.644 Z3.207
Y29.73 Z3.2
X70.305 Y30.28 F1000.
G3 X69.754 Y30.829 I-0.55 J-0.001
G1 X15.139 Y30.734 F3600.
X15.077
G2 X-2.642 Y48.453 I0.031 J17.75
X15.077 Y66.234 I17.75 J0.031
G1 X70.077 Y66.33
G2 X87.858 Y48.611 I0.031 J-17.75
X70.139 Y30.83 I-17.75 J-0.031
G1 X69.754 Y30.829
G3 X69.205 Y30.278 I0.001 J-0.55 F1000.
G1 X69.206 Y29.728
Y29.642 Z3.207
Y29.558 Z3.227
Y29.479 Z3.26
Y29.405 Z3.305
X69.207 Y29.339 Z3.361
Y29.283 Z3.427
Y29.238 Z3.5
Y29.205 Z3.58
Y29.185 Z3.664
Y29.178 Z3.75
G0 Z23.2
X69.206 Y29.495
G1 Z10.2 F1200.
Z3.75
Y29.488 Z3.664
Y29.468 Z3.58
Y29.435 Z3.5
X69.207 Y29.39 Z3.427
Y29.334 Z3.361
Y29.268 Z3.305
Y29.195 Z3.26
Y29.115 Z3.227
Y29.031 Z3.207
Y28.945 Z3.2
X69.208 Y28.395 F1000.
G3 X69.759 Y27.846 I0.55 J0.001
G2 X87.292 Y13.054 I0.031 J-17.75 F3600.
Y12.138 I-2.712 J-0.458
X69.821 Y-2.654 I-17.502 J2.958
G1 X14.821 Y-2.75
G2 X-2.712 Y12.042 I-0.031 J17.75
Y12.958 I2.712 J0.458
X14.759 Y27.75 I17.502 J-2.958
G1 X69.759 Y27.846
G3 X70.308 Y28.397 I-0.001 J0.55 F1000.
G1 X70.307 Y28.947
Y29.033 Z3.207
Y29.117 Z3.227
Y29.197 Z3.26
Y29.27 Z3.305
Y29.336 Z3.361
Y29.392 Z3.427
X70.306 Y29.437 Z3.5
Y29.47 Z3.58
Y29.49 Z3.664
Y29.497 Z3.75
G0 Z23.2
X70.307 Y29.18
G1 Z7.2 F1200.
Z2.15
Y29.187 Z2.064
Y29.207 Z1.98
Y29.24 Z1.9
Y29.285 Z1.827
Y29.341 Z1.761
X70.306 Y29.407 Z1.705
Y29.48 Z1.66
Y29.56 Z1.627
Y29.644 Z1.607
Y29.73 Z1.6
X70.305 Y30.28 F1000.
G3 X69.754 Y30.829 I-0.55 J-0.001
G1 X15.139 Y30.734 F3600.
X15.077
G2 X-2.642 Y48.453 I0.031 J17.75
X15.077 Y66.234 I17.75 J0.031
G1 X70.077 Y66.33
G2 X87.858 Y48.611 I0.031 J-17.75
X70.139 Y30.83 I-17.75 J-0.031
G1 X69.754 Y30.829
G3 X69.205 Y30.278 I0.001 J-0.55 F1000.
G1 X69.206 Y29.728
Y29.642 Z1.607
Y29.558 Z1.627
Y29.479 Z1.66
Y29.405 Z1.705
X69.207 Y29.339 Z1.761
Y29.283 Z1.827
Y29.238 Z1.9
Y29.205 Z1.98
Y29.185 Z2.064
Y29.178 Z2.15
G0 Z23.2
X69.206 Y29.495
G1 Z7.2 F1200.
Z2.15
Y29.488 Z2.064
Y29.468 Z1.98
Y29.435 Z1.9
X69.207 Y29.39 Z1.827
Y29.334 Z1.761
Y29.268 Z1.705
Y29.195 Z1.66
Y29.115 Z1.627
Y29.031 Z1.607
Y28.945 Z1.6
X69.208 Y28.395 F1000.
G3 X69.759 Y27.846 I0.55 J0.001
G2 X87.292 Y13.054 I0.031 J-17.75 F3600.
Y12.138 I-2.712 J-0.458
X69.821 Y-2.654 I-17.502 J2.958
G1 X14.821 Y-2.75
G2 X-2.712 Y12.042 I-0.031 J17.75
Y12.958 I2.712 J0.458
X14.759 Y27.75 I17.502 J-2.958
G1 X69.759 Y27.846
G3 X70.308 Y28.397 I-0.001 J0.55 F1000.
G1 X70.307 Y28.947
Y29.033 Z1.607
Y29.117 Z1.627
Y29.197 Z1.66
Y29.27 Z1.705
Y29.336 Z1.761
Y29.392 Z1.827
X70.306 Y29.437 Z1.9
Y29.47 Z1.98
Y29.49 Z2.064
Y29.497 Z2.15
G0 Z23.2
X70.307 Y29.18
G1 Z5.6 F1200.
Z0.55
Y29.187 Z0.464
Y29.207 Z0.38
Y29.24 Z0.3
Y29.285 Z0.227
Y29.341 Z0.161
X70.306 Y29.407 Z0.105
Y29.48 Z0.06
Y29.56 Z0.027
Y29.644 Z0.007
Y29.73 Z0.
X70.305 Y30.28 F1000.
G3 X69.754 Y30.829 I-0.55 J-0.001
G1 X15.139 Y30.734 F3600.
X15.077
G2 X-2.642 Y48.453 I0.031 J17.75
X15.077 Y66.234 I17.75 J0.031
G1 X70.077 Y66.33
G2 X87.858 Y48.611 I0.031 J-17.75
X70.139 Y30.83 I-17.75 J-0.031
G1 X69.754 Y30.829
G3 X69.205 Y30.278 I0.001 J-0.55 F1000.
G1 X69.206 Y29.728
Y29.642 Z0.007
Y29.558 Z0.027
Y29.479 Z0.06
Y29.405 Z0.105
X69.207 Y29.339 Z0.161
Y29.283 Z0.227
Y29.238 Z0.3
Y29.205 Z0.38
Y29.185 Z0.464
Y29.178 Z0.55
G0 Z23.2
X69.206 Y29.495
G1 Z5.6 F1200.
Z0.55
Y29.488 Z0.464
Y29.468 Z0.38
Y29.435 Z0.3
X69.207 Y29.39 Z0.227
Y29.334 Z0.161
Y29.268 Z0.105
Y29.195 Z0.06
Y29.115 Z0.027
Y29.031 Z0.007
Y28.945 Z0.
X69.208 Y28.395 F1000.
G3 X69.759 Y27.846 I0.55 J0.001
G2 X87.292 Y13.054 I0.031 J-17.75 F3600.
Y12.138 I-2.712 J-0.458
X69.821 Y-2.654 I-17.502 J2.958
G1 X14.821 Y-2.75
G2 X-2.712 Y12.042 I-0.031 J17.75
Y12.958 I2.712 J0.458
X14.759 Y27.75 I17.502 J-2.958
G1 X69.759 Y27.846
G3 X70.308 Y28.397 I-0.001 J0.55 F1000.
G1 X70.307 Y28.947
Y29.033 Z0.007
Y29.117 Z0.027
Y29.197 Z0.06
Y29.27 Z0.105
Y29.336 Z0.161
Y29.392 Z0.227
X70.306 Y29.437 Z0.3
Y29.47 Z0.38
Y29.49 Z0.464
Y29.497 Z0.55
G0 Z33.2

(2D CONTOUR4 2)
M5
M9
M1
T162 M6
S12000 M3
G54
M8
G0 X70.3077 Y345.516788
Z33.2
Z23.2
G1 Z22.2 F1200.
Z15.75
Y345.52387 Z15.664
Y345.54387 Z15.58
Y345.576784 Z15.5
Y345.62185 Z15.427
Y345.67781 Z15.361
X70.3066 Y345.74387 Z15.305
Y345.81688 Z15.26
Y345.89686 Z15.227
Y345.98084 Z15.207
Y346.06683 Z15.2
X70.3055 Y346.61688 F1000.
G3 X69.7544 Y347.16589 I-0.55 J-0.001
G1 X15.1399 Y347.07084 F3600.
X15.0777
G2 X-2.6422 Y364.78983 I0.031 J17.75
X15.0777 Y382.57084 I17.75 J0.031
G1 X70.0777 Y382.66683
G2 X87.8588 Y364.947781 I0.031 J-17.75
X70.1399 Y347.166783 I-17.75 J-0.031
G1 X69.7544 Y347.16589
G3 X69.2055 Y346.61488 I0.001 J-0.55 F1000.
G1 X69.2066 Y346.06488
Y345.97882 Z15.207
Y345.89488 Z15.227
Y345.81589 Z15.26
Y345.74185 Z15.305
X69.2077 Y345.675789 Z15.361
Y345.619783 Z15.427
Y345.57488 Z15.5
Y345.541785 Z15.58
Y345.52185 Z15.664
Y345.51488 Z15.75
G0 Z23.2
X69.2066 Y345.83185
G1 Z22.2 F1200.
Z15.75
Y345.82488 Z15.664
Y345.804788 Z15.58
Y345.77185 Z15.5
X69.2077 Y345.72689 Z15.427
Y345.670784 Z15.361
Y345.60488 Z15.305
Y345.53185 Z15.26
Y345.451785 Z15.227
Y345.36781 Z15.207
Y345.28185 Z15.2
X69.2088 Y344.731785 F1000.
G3 X69.7599 Y344.18286 I0.55 J0.001
G2 X87.2922 Y329.390784 I0.031 J-17.75 F3600.
Y328.47488 I-2.712 J-0.458
X69.8211 Y313.68284 I-17.502 J2.958
G1 X14.8211 Y313.58685
G2 X-2.7122 Y328.378782 I-0.031 J17.75
Y329.29488 I2.712 J0.458
X14.7599 Y344.08685 I17.502 J-2.958
G1 X69.7599 Y344.18286
G3 X70.3088 Y344.73387 I-0.001 J0.55 F1000.
G1 X70.3077 Y345.283787
Y345.369783 Z15.207
Y345.45387 Z15.227
Y345.533787 Z15.26
Y345.606787 Z15.305
Y345.67286 Z15.361
Y345.72882 Z15.427
X70.3066 Y345.77387 Z15.5
Y345.80687 Z15.58
Y345.826789 Z15.664
Y345.83387 Z15.75
G0 Z23.2
X70.3077 Y345.516788
G1 Z19.2 F1200.
Z12.75
Y345.52387 Z12.664
Y345.54387 Z12.58
Y345.576784 Z12.5
Y345.62185 Z12.427
Y345.67781 Z12.361
X70.3066 Y345.74387 Z12.305
Y345.81688 Z12.26
Y345.89686 Z12.227
Y345.98084 Z12.207
Y346.06683 Z12.2
X70.3055 Y346.61688 F1000.
G3 X69.7544 Y347.16589 I-0.55 J-0.001
G1 X15.1399 Y347.07084 F3600.
X15.0777
G2 X-2.6422 Y364.78983 I0.031 J17.75
X15.0777 Y382.57084 I17.75 J0.031
G1 X70.0777 Y382.66683
G2 X87.8588 Y364.947781 I0.031 J-17.75
X70.1399 Y347.166783 I-17.75 J-0.031
G1 X69.7544 Y347.16589
G3 X69.2055 Y346.61488 I0.001 J-0.55 F1000.
G1 X69.2066 Y346.06488
Y345.97882 Z12.207
Y345.89488 Z12.227
Y345.81589 Z12.26
Y345.74185 Z12.305
X69.2077 Y345.675789 Z12.361
Y345.619783 Z12.427
Y345.57488 Z12.5
Y345.541785 Z12.58
Y345.52185 Z12.664
Y345.51488 Z12.75
G0 Z23.2
X69.2066 Y345.83185
G1 Z19.2 F1200.
Z12.75
Y345.82488 Z12.664
Y345.804788 Z12.58
Y345.77185 Z12.5
X69.2077 Y345.72689 Z12.427
Y345.670784 Z12.361
Y345.60488 Z12.305
Y345.53185 Z12.26
Y345.451785 Z12.227
Y345.36781 Z12.207
Y345.28185 Z12.2
X69.2088 Y344.731785 F1000.
G3 X69.7599 Y344.18286 I0.55 J0.001
G2 X87.2922 Y329.390784 I0.031 J-17.75 F3600.
Y328.47488 I-2.712 J-0.458
X69.8211 Y313.68284 I-17.502 J2.958
G1 X14.8211 Y313.58685
G2 X-2.7122 Y328.378782 I-0.031 J17.75
Y329.29488 I2.712 J0.458
X14.7599 Y344.08685 I17.502 J-2.958
G1 X69.7599 Y344.18286
G3 X70.3088 Y344.73387 I-0.001 J0.55 F1000.
G1 X70.3077 Y345.283787
Y345.369783 Z12.207
Y345.45387 Z12.227
Y345.533787 Z12.26
Y345.606787 Z12.305
Y345.67286 Z12.361
Y345.72882 Z12.427
X70.3066 Y345.77387 Z12.5
Y345.80687 Z12.58
Y345.826789 Z12.664
Y345.83387 Z12.75
G0 Z23.2
X70.3077 Y345.516788
G1 Z16.2 F1200.
Z9.75
Y345.52387 Z9.664
Y345.54387 Z9.58
Y345.576784 Z9.5
Y345.62185 Z9.427
Y345.67781 Z9.361
X70.3066 Y345.74387 Z9.305
Y345.81688 Z9.26
Y345.89686 Z9.227
Y345.98084 Z9.207
Y346.06683 Z9.2
X70.3055 Y346.61688 F1000.
G3 X69.7544 Y347.16589 I-0.55 J-0.001
G1 X15.1399 Y347.07084 F3600.
X15.0777
G2 X-2.6422 Y364.78983 I0.031 J17.75
X15.0777 Y382.57084 I17.75 J0.031
G1 X70.0777 Y382.66683
G2 X87.8588 Y364.947781 I0.031 J-17.75
X70.1399 Y347.166783 I-17.75 J-0.031
G1 X69.7544 Y347.16589
G3 X69.2055 Y346.61488 I0.001 J-0.55 F1000.
G1 X69.2066 Y346.06488
Y345.97882 Z9.207
Y345.89488 Z9.227
Y345.81589 Z9.26
Y345.74185 Z9.305
X69.2077 Y345.675789 Z9.361
Y345.619783 Z9.427
Y345.57488 Z9.5
Y345.541785 Z9.58
Y345.52185 Z9.664
Y345.51488 Z9.75
G0 Z23.2
X69.2066 Y345.83185
G1 Z16.2 F1200.
Z9.75
Y345.82488 Z9.664
Y345.804788 Z9.58
Y345.77185 Z9.5
X69.2077 Y345.72689 Z9.427
Y345.670784 Z9.361
Y345.60488 Z9.305
Y345.53185 Z9.26
Y345.451785 Z9.227
Y345.36781 Z9.207
Y345.28185 Z9.2
X69.2088 Y344.731785 F1000.
G3 X69.7599 Y344.18286 I0.55 J0.001
G2 X87.2922 Y329.390784 I0.031 J-17.75 F3600.
Y328.47488 I-2.712 J-0.458
X69.8211 Y313.68284 I-17.502 J2.958
G1 X14.8211 Y313.58685
G2 X-2.7122 Y328.378782 I-0.031 J17.75
Y329.29488 I2.712 J0.458
X14.7599 Y344.08685 I17.502 J-2.958
G1 X69.7599 Y344.18286
G3 X70.3088 Y344.73387 I-0.001 J0.55 F1000.
G1 X70.3077 Y345.283787
Y345.369783 Z9.207
Y345.45387 Z9.227
Y345.533787 Z9.26
Y345.606787 Z9.305
Y345.67286 Z9.361
Y345.72882 Z9.427
X70.3066 Y345.77387 Z9.5
Y345.80687 Z9.58
Y345.826789 Z9.664
Y345.83387 Z9.75
G0 Z23.2
X70.3077 Y345.516788
G1 Z13.2 F1200.
Z6.75
Y345.52387 Z6.664
Y345.54387 Z6.58
Y345.576784 Z6.5
Y345.62185 Z6.427
Y345.67781 Z6.361
X70.3066 Y345.74387 Z6.305
Y345.81688 Z6.26
Y345.89686 Z6.227
Y345.98084 Z6.207
Y346.06683 Z6.2
X70.3055 Y346.61688 F1000.
G3 X69.7544 Y347.16589 I-0.55 J-0.001
G1 X15.1399 Y347.07084 F3600.
X15.0777
G2 X-2.6422 Y364.78983 I0.031 J17.75
X15.0777 Y382.57084 I17.75 J0.031
G1 X70.0777 Y382.66683
G2 X87.8588 Y364.947781 I0.031 J-17.75
X70.1399 Y347.166783 I-17.75 J-0.031
G1 X69.7544 Y347.16589
G3 X69.2055 Y346.61488 I0.001 J-0.55 F1000.
G1 X69.2066 Y346.06488
Y345.97882 Z6.207
Y345.89488 Z6.227
Y345.81589 Z6.26
Y345.74185 Z6.305
X69.2077 Y345.675789 Z6.361
Y345.619783 Z6.427
Y345.57488 Z6.5
Y345.541785 Z6.58
Y345.52185 Z6.664
Y345.51488 Z6.75
G0 Z23.2
X69.2066 Y345.83185
G1 Z13.2 F1200.
Z6.75
Y345.82488 Z6.664
Y345.804788 Z6.58
Y345.77185 Z6.5
X69.2077 Y345.72689 Z6.427
Y345.670784 Z6.361
Y345.60488 Z6.305
Y345.53185 Z6.26
Y345.451785 Z6.227
Y345.36781 Z6.207
Y345.28185 Z6.2
X69.2088 Y344.731785 F1000.
G3 X69.7599 Y344.18286 I0.55 J0.001
G2 X87.2922 Y329.390784 I0.031 J-17.75 F3600.
Y328.47488 I-2.712 J-0.458
X69.8211 Y313.68284 I-17.502 J2.958
G1 X14.8211 Y313.58685
G2 X-2.7122 Y328.378782 I-0.031 J17.75
Y329.29488 I2.712 J0.458
X14.7599 Y344.08685 I17.502 J-2.958
G1 X69.7599 Y344.18286
G3 X70.3088 Y344.73387 I-0.001 J0.55 F1000.
G1 X70.3077 Y345.283787
Y345.369783 Z6.207
Y345.45387 Z6.227
Y345.533787 Z6.26
Y345.606787 Z6.305
Y345.67286 Z6.361
Y345.72882 Z6.427
X70.3066 Y345.77387 Z6.5
Y345.80687 Z6.58
Y345.826789 Z6.664
Y345.83387 Z6.75
G0 Z23.2
X70.3077 Y345.516788
G1 Z10.2 F1200.
Z3.75
Y345.52387 Z3.664
Y345.54387 Z3.58
Y345.576784 Z3.5
Y345.62185 Z3.427
Y345.67781 Z3.361
X70.3066 Y345.74387 Z3.305
Y345.81688 Z3.26
Y345.89686 Z3.227
Y345.98084 Z3.207
Y346.06683 Z3.2
X70.3055 Y346.61688 F1000.
G3 X69.7544 Y347.16589 I-0.55 J-0.001
G1 X15.1399 Y347.07084 F3600.
X15.0777
G2 X-2.6422 Y364.78983 I0.031 J17.75
X15.0777 Y382.57084 I17.75 J0.031
G1 X70.0777 Y382.66683
G2 X87.8588 Y364.947781 I0.031 J-17.75
X70.1399 Y347.166783 I-17.75 J-0.031
G1 X69.7544 Y347.16589
G3 X69.2055 Y346.61488 I0.001 J-0.55 F1000.
G1 X69.2066 Y346.06488
Y345.97882 Z3.207
Y345.89488 Z3.227
Y345.81589 Z3.26
Y345.74185 Z3.305
X69.2077 Y345.675789 Z3.361
Y345.619783 Z3.427
Y345.57488 Z3.5
Y345.541785 Z3.58
Y345.52185 Z3.664
Y345.51488 Z3.75
G0 Z23.2
X69.2066 Y345.83185
G1 Z10.2 F1200.
Z3.75
Y345.82488 Z3.664
Y345.804788 Z3.58
Y345.77185 Z3.5
X69.2077 Y345.72689 Z3.427
Y345.670784 Z3.361
Y345.60488 Z3.305
Y345.53185 Z3.26
Y345.451785 Z3.227
Y345.36781 Z3.207
Y345.28185 Z3.2
X69.2088 Y344.731785 F1000.
G3 X69.7599 Y344.18286 I0.55 J0.001
G2 X87.2922 Y329.390784 I0.031 J-17.75 F3600.
Y328.47488 I-2.712 J-0.458
X69.8211 Y313.68284 I-17.502 J2.958
G1 X14.8211 Y313.58685
G2 X-2.7122 Y328.378782 I-0.031 J17.75
Y329.29488 I2.712 J0.458
X14.7599 Y344.08685 I17.502 J-2.958
G1 X69.7599 Y344.18286
G3 X70.3088 Y344.73387 I-0.001 J0.55 F1000.
G1 X70.3077 Y345.283787
Y345.369783 Z3.207
Y345.45387 Z3.227
Y345.533787 Z3.26
Y345.606787 Z3.305
Y345.67286 Z3.361
Y345.72882 Z3.427
X70.3066 Y345.77387 Z3.5
Y345.80687 Z3.58
Y345.826789 Z3.664
Y345.83387 Z3.75
G0 Z23.2
X70.3077 Y345.516788
G1 Z7.2 F1200.
Z2.15
Y345.52387 Z2.064
Y345.54387 Z1.98
Y345.576784 Z1.9
Y345.62185 Z1.827
Y345.67781 Z1.761
X70.3066 Y345.74387 Z1.705
Y345.81688 Z1.66
Y345.89686 Z1.627
Y345.98084 Z1.607
Y346.06683 Z1.6
X70.3055 Y346.61688 F1000.
G3 X69.7544 Y347.16589 I-0.55 J-0.001
G1 X15.1399 Y347.07084 F3600.
X15.0777
G2 X-2.6422 Y364.78983 I0.031 J17.75
X15.0777 Y382.57084 I17.75 J0.031
G1 X70.0777 Y382.66683
G2 X87.8588 Y364.947781 I0.031 J-17.75
X70.1399 Y347.166783 I-17.75 J-0.031
G1 X69.7544 Y347.16589
G3 X69.2055 Y346.61488 I0.001 J-0.55 F1000.
G1 X69.2066 Y346.06488
Y345.97882 Z1.607
Y345.89488 Z1.627
Y345.81589 Z1.66
Y345.74185 Z1.705
X69.2077 Y345.675789 Z1.761
Y345.619783 Z1.827
Y345.57488 Z1.9
Y345.541785 Z1.98
Y345.52185 Z2.064
Y345.51488 Z2.15
G0 Z23.2
X69.2066 Y345.83185
G1 Z7.2 F1200.
Z2.15
Y345.82488 Z2.064
Y345.804788 Z1.98
Y345.77185 Z1.9
X69.2077 Y345.72689 Z1.827
Y345.670784 Z1.761
Y345.60488 Z1.705
Y345.53185 Z1.66
Y345.451785 Z1.627
Y345.36781 Z1.607
Y345.28185 Z1.6
X69.2088 Y344.731785 F1000.
G3 X69.7599 Y344.18286 I0.55 J0.001
G2 X87.2922 Y329.390784 I0.031 J-17.75 F3600.
Y328.47488 I-2.712 J-0.458
X69.8211 Y313.68284 I-17.502 J2.958
G1 X14.8211 Y313.58685
G2 X-2.7122 Y328.378782 I-0.031 J17.75
Y329.29488 I2.712 J0.458
X14.7599 Y344.08685 I17.502 J-2.958
G1 X69.7599 Y344.18286
G3 X70.3088 Y344.73387 I-0.001 J0.55 F1000.
G1 X70.3077 Y345.283787
Y345.369783 Z1.607
Y345.45387 Z1.627
Y345.533787 Z1.66
Y345.606787 Z1.705
Y345.67286 Z1.761
Y345.72882 Z1.827
X70.3066 Y345.77387 Z1.9
Y345.80687 Z1.98
Y345.826789 Z2.064
Y345.83387 Z2.15
G0 Z23.2
X70.3077 Y345.516788
G1 Z5.6 F1200.
Z0.55
Y345.52387 Z0.464
Y345.54387 Z0.38
Y345.576784 Z0.3
Y345.62185 Z0.227
Y345.67781 Z0.161
X70.3066 Y345.74387 Z0.105
Y345.81688 Z0.06
Y345.89686 Z0.027
Y345.98084 Z0.007
Y346.06683 Z0.
X70.3055 Y346.61688 F1000.
G3 X69.7544 Y347.16589 I-0.55 J-0.001
G1 X15.1399 Y347.07084 F3600.
X15.0777
G2 X-2.6422 Y364.78983 I0.031 J17.75
X15.0777 Y382.57084 I17.75 J0.031
G1 X70.0777 Y382.66683
G2 X87.8588 Y364.947781 I0.031 J-17.75
X70.1399 Y347.166783 I-17.75 J-0.031
G1 X69.7544 Y347.16589
G3 X69.2055 Y346.61488 I0.001 J-0.55 F1000.
G1 X69.2066 Y346.06488
Y345.97882 Z0.007
Y345.89488 Z0.027
Y345.81589 Z0.06
Y345.74185 Z0.105
X69.2077 Y345.675789 Z0.161
Y345.619783 Z0.227
Y345.57488 Z0.3
Y345.541785 Z0.38
Y345.52185 Z0.464
Y345.51488 Z0.55
G0 Z23.2
X69.2066 Y345.83185
G1 Z5.6 F1200.
Z0.55
Y345.82488 Z0.464
Y345.804788 Z0.38
Y345.77185 Z0.3
X69.2077 Y345.72689 Z0.227
Y345.670784 Z0.161
Y345.60488 Z0.105
Y345.53185 Z0.06
Y345.451785 Z0.027
Y345.36781 Z0.007
Y345.28185 Z0.
X69.2088 Y344.731785 F1000.
G3 X69.7599 Y344.18286 I0.55 J0.001
G2 X87.2922 Y329.390784 I0.031 J-17.75 F3600.
Y328.47488 I-2.712 J-0.458
X69.8211 Y313.68284 I-17.502 J2.958
G1 X14.8211 Y313.58685
G2 X-2.7122 Y328.378782 I-0.031 J17.75
Y329.29488 I2.712 J0.458
X14.7599 Y344.08685 I17.502 J-2.958
G1 X69.7599 Y344.18286
G3 X70.3088 Y344.73387 I-0.001 J0.55 F1000.
G1 X70.3077 Y345.283787
Y345.369783 Z0.007
Y345.45387 Z0.027
Y345.533787 Z0.06
Y345.606787 Z0.105
Y345.67286 Z0.161
Y345.7288

(2D CONTOUR4 2)
M5
M9
M1
T162 M6
S12000 M3
G54
M8
G0 X472.587467 Y29.188
Z33.2
Z23.2
G1 Z22.2 F1200.
Z15.75
Y29.1877 Z15.664
Y29.2077 Z15.58
Y29.244 Z15.5
Y29.2855 Z15.427
Y29.3411 Z15.361
X472.586466 Y29.4077 Z15.305
Y29.488 Z15.26
Y29.566 Z15.227
Y29.6444 Z15.207
Y29.733 Z15.2
X472.585455 Y30.288 F1000.
G3 X472.034454 Y30.8299 I-0.55 J-0.001
G1 X417.419469 Y30.7344 F3600.
X417.357457
G2 X399.638462 Y48.4533 I0.031 J17.75
X417.357457 Y66.2344 I17.75 J0.031
G1 X472.357457 Y66.333
G2 X490.138468 Y48.6111 I0.031 J-17.75
X472.419469 Y30.833 I-17.75 J-0.031
G1 X472.034454 Y30.8299
G3 X471.485475 Y30.2788 I0.001 J-0.55 F1000.
G1 X471.486456 Y29.7288
Y29.6422 Z15.207
Y29.5588 Z15.227
Y29.4799 Z15.26
Y29.4055 Z15.305
X471.487467 Y29.3399 Z15.361
Y29.2833 Z15.427
Y29.2388 Z15.5
Y29.2055 Z15.58
Y29.1855 Z15.664
Y29.1788 Z15.75
G0 Z23.2
X471.486456 Y29.4955
G1 Z22.2 F1200.
Z15.75
Y29.4888 Z15.664
Y29.4688 Z15.58
Y29.4355 Z15.5
X471.487467 Y29.399 Z15.427
Y29.3344 Z15.361
Y29.2688 Z15.305
Y29.1955 Z15.26
Y29.1155 Z15.227
Y29.0311 Z15.207
Y28.9455 Z15.2
X471.488468 Y28.3955 F1000.
G3 X472.039469 Y27.8466 I0.55 J0.001
G2 X489.572452 Y13.0544 I0.031 J-17.75 F3600.
Y12.1388 I-2.712 J-0.458
X472.101441 Y-2.6544 I-17.502 J2.958
G1 X417.101471 Y-2.755
G2 X399.568452 Y12.0422 I-0.031 J17.75
Y12.9588 I2.712 J0.458
X417.039469 Y27.755 I17.502 J-2.958
G1 X472.039469 Y27.8466
G3 X472.588448 Y28.3977 I-0.001 J0.55 F1000.
G1 X472.587467 Y28.9477
Y29.0333 Z15.207
Y29.1177 Z15.227
Y29.1977 Z15.26
Y29.277 Z15.305
Y29.3366 Z15.361
Y29.3922 Z15.427
X472.586466 Y29.4377 Z15.5
Y29.477 Z15.58
Y29.499 Z15.664
Y29.4977 Z15.75
G0 Z23.2
X472.587467 Y29.188
G1 Z19.2 F1200.
Z12.75
Y29.1877 Z12.664
Y29.2077 Z12.58
Y29.244 Z12.5
Y29.2855 Z12.427
Y29.3411 Z12.361
X472.586466 Y29.4077 Z12.305
Y29.488 Z12.26
Y29.566 Z12.227
Y29.6444 Z12.207
Y29.733 Z12.2
X472.585455 Y30.288 F1000.
G3 X472.034454 Y30.8299 I-0.55 J-0.001
G1 X417.419469 Y30.7344 F3600.
X417.357457
G2 X399.638462 Y48.4533 I0.031 J17.75
X417.357457 Y66.2344 I17.75 J0.031
G1 X472.357457 Y66.333
G2 X490.138468 Y48.6111 I0.031 J-17.75
X472.419469 Y30.833 I-17.75 J-0.031
G1 X472.034454 Y30.8299
G3 X471.485475 Y30.2788 I0.001 J-0.55 F1000.
G1 X471.486456 Y29.7288
Y29.6422 Z12.207
Y29.5588 Z12.227
Y29.4799 Z12.26
Y29.4055 Z12.305
X471.487467 Y29.3399 Z12.361
Y29.2833 Z12.427
Y29.2388 Z12.5
Y29.2055 Z12.58
Y29.1855 Z12.664
Y29.1788 Z12.75
G0 Z23.2
X471.486456 Y29.4955
G1 Z19.2 F1200.
Z12.75
Y29.4888 Z12.664
Y29.4688 Z12.58
Y29.4355 Z12.5
X471.487467 Y29.399 Z12.427
Y29.3344 Z12.361
Y29.2688 Z12.305
Y29.1955 Z12.26
Y29.1155 Z12.227
Y29.0311 Z12.207
Y28.9455 Z12.2
X471.488468 Y28.3955 F1000.
G3 X472.039469 Y27.8466 I0.55 J0.001
G2 X489.572452 Y13.0544 I0.031 J-17.75 F3600.
Y12.1388 I-2.712 J-0.458
X472.101441 Y-2.6544 I-17.502 J2.958
G1 X417.101471 Y-2.755
G2 X399.568452 Y12.0422 I-0.031 J17.75
Y12.9588 I2.712 J0.458
X417.039469 Y27.755 I17.502 J-2.958
G1 X472.039469 Y27.8466
G3 X472.588448 Y28.3977 I-0.001 J0.55 F1000.
G1 X472.587467 Y28.9477
Y29.0333 Z12.207
Y29.1177 Z12.227
Y29.1977 Z12.26
Y29.277 Z12.305
Y29.3366 Z12.361
Y29.3922 Z12.427
X472.586466 Y29.4377 Z12.5
Y29.477 Z12.58
Y29.499 Z12.664
Y29.4977 Z12.75
G0 Z23.2
X472.587467 Y29.188
G1 Z16.2 F1200.
Z9.75
Y29.1877 Z9.664
Y29.2077 Z9.58
Y29.244 Z9.5
Y29.2855 Z9.427
Y29.3411 Z9.361
X472.586466 Y29.4077 Z9.305
Y29.488 Z9.26
Y29.566 Z9.227
Y29.6444 Z9.207
Y29.733 Z9.2
X472.585455 Y30.288 F1000.
G3 X472.034454 Y30.8299 I-0.55 J-0.001
G1 X417.419469 Y30.7344 F3600.
X417.357457
G2 X399.638462 Y48.4533 I0.031 J17.75
X417.357457 Y66.2344 I17.75 J0.031
G1 X472.357457 Y66.333
G2 X490.138468 Y48.6111 I0.031 J-17.75
X472.419469 Y30.833 I-17.75 J-0.031
G1 X472.034454 Y30.8299
G3 X471.485475 Y30.2788 I0.001 J-0.55 F1000.
G1 X471.486456 Y29.7288
Y29.6422 Z9.207
Y29.5588 Z9.227
Y29.4799 Z9.26
Y29.4055 Z9.305
X471.487467 Y29.3399 Z9.361
Y29.2833 Z9.427
Y29.2388 Z9.5
Y29.2055 Z9.58
Y29.1855 Z9.664
Y29.1788 Z9.75
G0 Z23.2
X471.486456 Y29.4955
G1 Z16.2 F1200.
Z9.75
Y29.4888 Z9.664
Y29.4688 Z9.58
Y29.4355 Z9.5
X471.487467 Y29.399 Z9.427
Y29.3344 Z9.361
Y29.2688 Z9.305
Y29.1955 Z9.26
Y29.1155 Z9.227
Y29.0311 Z9.207
Y28.9455 Z9.2
X471.488468 Y28.3955 F1000.
G3 X472.039469 Y27.8466 I0.55 J0.001
G2 X489.572452 Y13.0544 I0.031 J-17.75 F3600.
Y12.1388 I-2.712 J-0.458
X472.101441 Y-2.6544 I-17.502 J2.958
G1 X417.101471 Y-2.755
G2 X399.568452 Y12.0422 I-0.031 J17.75
Y12.9588 I2.712 J0.458
X417.039469 Y27.755 I17.502 J-2.958
G1 X472.039469 Y27.8466
G3 X472.588448 Y28.3977 I-0.001 J0.55 F1000.
G1 X472.587467 Y28.9477
Y29.0333 Z9.207
Y29.1177 Z9.227
Y29.1977 Z9.26
Y29.277 Z9.305
Y29.3366 Z9.361
Y29.3922 Z9.427
X472.586466 Y29.4377 Z9.5
Y29.477 Z9.58
Y29.499 Z9.664
Y29.4977 Z9.75
G0 Z23.2
X472.587467 Y29.188
G1 Z13.2 F1200.
Z6.75
Y29.1877 Z6.664
Y29.2077 Z6.58
Y29.244 Z6.5
Y29.2855 Z6.427
Y29.3411 Z6.361
X472.586466 Y29.4077 Z6.305
Y29.488 Z6.26
Y29.566 Z6.227
Y29.6444 Z6.207
Y29.733 Z6.2
X472.585455 Y30.288 F1000.
G3 X472.034454 Y30.8299 I-0.55 J-0.001
G1 X417.419469 Y30.7344 F3600.
X417.357457
G2 X399.638462 Y48.4533 I0.031 J17.75
X417.357457 Y66.2344 I17.75 J0.031
G1 X472.357457 Y66.333
G2 X490.138468 Y48.6111 I0.031 J-17.75
X472.419469 Y30.833 I-17.75 J-0.031
G1 X472.034454 Y30.8299
G3 X471.485475 Y30.2788 I0.001 J-0.55 F1000.
G1 X471.486456 Y29.7288
Y29.6422 Z6.207
Y29.5588 Z6.227
Y29.4799 Z6.26
Y29.4055 Z6.305
X471.487467 Y29.3399 Z6.361
Y29.2833 Z6.427
Y29.2388 Z6.5
Y29.2055 Z6.58
Y29.1855 Z6.664
Y29.1788 Z6.75
G0 Z23.2
X471.486456 Y29.4955
G1 Z13.2 F1200.
Z6.75
Y29.4888 Z6.664
Y29.4688 Z6.58
Y29.4355 Z6.5
X471.487467 Y29.399 Z6.427
Y29.3344 Z6.361
Y29.2688 Z6.305
Y29.1955 Z6.26
Y29.1155 Z6.227
Y29.0311 Z6.207
Y28.9455 Z6.2
X471.488468 Y28.3955 F1000.
G3 X472.039469 Y27.8466 I0.55 J0.001
G2 X489.572452 Y13.0544 I0.031 J-17.75 F3600.
Y12.1388 I-2.712 J-0.458
X472.101441 Y-2.6544 I-17.502 J2.958
G1 X417.101471 Y-2.755
G2 X399.568452 Y12.0422 I-0.031 J17.75
Y12.9588 I2.712 J0.458
X417.039469 Y27.755 I17.502 J-2.958
G1 X472.039469 Y27.8466
G3 X472.588448 Y28.3977 I-0.001 J0.55 F1000.
G1 X472.587467 Y28.9477
Y29.0333 Z6.207
Y29.1177 Z6.227
Y29.1977 Z6.26
Y29.277 Z6.305
Y29.3366 Z6.361
Y29.3922 Z6.427
X472.586466 Y29.4377 Z6.5
Y29.477 Z6.58
Y29.499 Z6.664
Y29.4977 Z6.75
G0 Z23.2
X472.587467 Y29.188
G1 Z10.2 F1200.
Z3.75
Y29.1877 Z3.664
Y29.2077 Z3.58
Y29.244 Z3.5
Y29.2855 Z3.427
Y29.3411 Z3.361
X472.586466 Y29.4077 Z3.305
Y29.488 Z3.26
Y29.566 Z3.227
Y29.6444 Z3.207
Y29.733 Z3.2
X472.585455 Y30.288 F1000.
G3 X472.034454 Y30.8299 I-0.55 J-0.001
G1 X417.419469 Y30.7344 F3600.
X417.357457
G2 X399.638462 Y48.4533 I0.031 J17.75
X417.357457 Y66.2344 I17.75 J0.031
G1 X472.357457 Y66.333
G2 X490.138468 Y48.6111 I0.031 J-17.75
X472.419469 Y30.833 I-17.75 J-0.031
G1 X472.034454 Y30.8299
G3 X471.485475 Y30.2788 I0.001 J-0.55 F1000.
G1 X471.486456 Y29.7288
Y29.6422 Z3.207
Y29.5588 Z3.227
Y29.4799 Z3.26
Y29.4055 Z3.305
X471.487467 Y29.3399 Z3.361
Y29.2833 Z3.427
Y29.2388 Z3.5
Y29.2055 Z3.58
Y29.1855 Z3.664
Y29.1788 Z3.75
G0 Z23.2
X471.486456 Y29.4955
G1 Z10.2 F1200.
Z3.75
Y29.4888 Z3.664
Y29.4688 Z3.58
Y29.4355 Z3.5
X471.487467 Y29.399 Z3.427
Y29.3344 Z3.361
Y29.2688 Z3.305
Y29.1955 Z3.26
Y29.1155 Z3.227
Y29.0311 Z3.207
Y28.9455 Z3.2
X471.488468 Y28.3955 F1000.
G3 X472.039469 Y27.8466 I0.55 J0.001
G2 X489.572452 Y13.0544 I0.031 J-17.75 F3600.
Y12.1388 I-2.712 J-0.458
X472.101441 Y-2.6544 I-17.502 J2.958
G1 X417.101471 Y-2.755
G2 X399.568452 Y12.0422 I-0.031 J17.75
Y12.9588 I2.712 J0.458
X417.039469 Y27.755 I17.502 J-2.958
G1 X472.039469 Y27.8466
G3 X472.588448 Y28.3977 I-0.001 J0.55 F1000.
G1 X472.587467 Y28.9477
Y29.0333 Z3.207
Y29.1177 Z3.227
Y29.1977 Z3.26
Y29.277 Z3.305
Y29.3366 Z3.361
Y29.3922 Z3.427
X472.586466 Y29.4377 Z3.5
Y29.477 Z3.58
Y29.499 Z3.664
Y29.4977 Z3.75
G0 Z23.2
X472.587467 Y29.188
G1 Z7.2 F1200.
Z2.15
Y29.1877 Z2.064
Y29.2077 Z1.98
Y29.244 Z1.9
Y29.2855 Z1.827
Y29.3411 Z1.761
X472.586466 Y29.4077 Z1.705
Y29.488 Z1.66
Y29.566 Z1.627
Y29.6444 Z1.607
Y29.733 Z1.6
X472.585455 Y30.288 F1000.
G3 X472.034454 Y30.8299 I-0.55 J-0.001
G1 X417.419469 Y30.7344 F3600.
X417.357457
G2 X399.638462 Y48.4533 I0.031 J17.75
X417.357457 Y66.2344 I17.75 J0.031
G1 X472.357457 Y66.333
G2 X490.138468 Y48.6111 I0.031 J-17.75
X472.419469 Y30.833 I-17.75 J-0.031
G1 X472.034454 Y30.8299
G3 X471.485475 Y30.2788 I0.001 J-0.55 F1000.
G1 X471.486456 Y29.7288
Y29.6422 Z1.607
Y29.5588 Z1.627
Y29.4799 Z1.66
Y29.4055 Z1.705
X471.487467 Y29.3399 Z1.761
Y29.2833 Z1.827
Y29.2388 Z1.9
Y29.2055 Z1.98
Y29.1855 Z2.064
Y29.1788 Z2.15
G0 Z23.2
X471.486456 Y29.4955
G1 Z7.2 F1200.
Z2.15
Y29.4888 Z2.064
Y29.4688 Z1.98
Y29.4355 Z1.9
X471.487467 Y29.399 Z1.827
Y29.3344 Z1.761
Y29.2688 Z1.705
Y29.1955 Z1.66
Y29.1155 Z1.627
Y29.0311 Z1.607
Y28.9455 Z1.6
X471.488468 Y28.3955 F1000.
G3 X472.039469 Y27.8466 I0.55 J0.001
G2 X489.572452 Y13.0544 I0.031 J-17.75 F3600.
Y12.1388 I-2.712 J-0.458
X472.101441 Y-2.6544 I-17.502 J2.958
G1 X417.101471 Y-2.755
G2 X399.568452 Y12.0422 I-0.031 J17.75
Y12.9588 I2.712 J0.458
X417.039469 Y27.755 I17.502 J-2.958
G1 X472.039469 Y27.8466
G3 X472.588448 Y28.3977 I-0.001 J0.55 F1000.
G1 X472.587467 Y28.9477
Y29.0333 Z1.607
Y29.1177 Z1.627
Y29.1977 Z1.66
Y29.277 Z1.705
Y29.3366 Z1.761
Y29.3922 Z1.827
X472.586466 Y29.4377 Z1.9
Y29.477 Z1.98
Y29.499 Z2.064
Y29.4977 Z2.15
G0 Z23.2
X472.587467 Y29.188
G1 Z5.6 F1200.
Z0.55
Y29.1877 Z0.464
Y29.2077 Z0.38
Y29.244 Z0.3
Y29.2855 Z0.227
Y29.3411 Z0.161
X472.586466 Y29.4077 Z0.105
Y29.488 Z0.06
Y29.566 Z0.027
Y29.6444 Z0.007
Y29.733 Z0.
X472.585455 Y30.288 F1000.
G3 X472.034454 Y30.8299 I-0.55 J-0.001
G1 X417.419469 Y30.7344 F3600.
X417.357457
G2 X399.638462 Y48.4533 I0.031 J17.75
X417.357457 Y66.2344 I17.75 J0.031
G1 X472.357457 Y66.333
G2 X490.138468 Y48.6111 I0.031 J-17.75
X472.419469 Y30.833 I-17.75 J-0.031
G1 X472.034454 Y30.8299
G3 X471.485475 Y30.2788 I0.001 J-0.55 F1000.
G1 X471.486456 Y29.7288
Y29.6422 Z0.007
Y29.5588 Z0.027
Y29.4799 Z0.06
Y29.4055 Z0.105
X471.487467 Y29.3399 Z0.161
Y29.2833 Z0.227
Y29.2388 Z0.3
Y29.2055 Z0.38
Y29.1855 Z0.464
Y29.1788 Z0.55
G0 Z23.2
X471.486456 Y29.4955
G1 Z5.6 F1200.
Z0.55
Y29.4888 Z0.464
Y29.4688 Z0.38
Y29.4355 Z0.3
X471.487467 Y29.399 Z0.227
Y29.3344 Z0.161
Y29.2688 Z0.105
Y29.1955 Z0.06
Y29.1155 Z0.027
Y29.0311 Z0.007
Y28.9455 Z0.
X471.488468 Y28.3955 F1000.
G3 X472.039469 Y27.8466 I0.55 J0.001
G2 X489.572452 Y13.0544 I0.031 J-17.75 F3600.
Y12.1388 I-2.712 J-0.458
X472.101441 Y-2.6544 I-17.502 J2.958
G1 X417.101471 Y-2.755
G2 X399.568452 Y12.0422 I-0.031 J17.75
Y12.9588 I2.712 J0.458
X417.039469 Y27.755 I17.502 J-2.958
G1 X472.039469 Y27.8466
G3 X472.588448 Y28.3977 I-0.001 J0.55 F1000.
G1 X472.587467 Y28.9477
Y29.0333 Z0.007
Y29.1177 Z0.027
Y29.1977 Z0.06
Y29.277 Z0.105
Y29.3366 Z0.161
Y29.392

(2D CONTOUR4 2)
M5
M9
M1
T162 M6
S12000 M3
G54
M8
G0 X472.587467 Y345.516788
Z33.2
Z23.2
G1 Z22.2 F1200.
Z15.75
Y345.52387 Z15.664
Y345.54387 Z15.58
Y345.576784 Z15.5
Y345.62185 Z15.427
Y345.67781 Z15.361
X472.586466 Y345.74387 Z15.305
Y345.81688 Z15.26
Y345.89686 Z15.227
Y345.98084 Z15.207
Y346.06683 Z15.2
X472.585455 Y346.61688 F1000.
G3 X472.034454 Y347.16589 I-0.55 J-0.001
G1 X417.419469 Y347.07084 F3600.
X417.357457
G2 X399.638462 Y364.78983 I0.031 J17.75
X417.357457 Y382.57084 I17.75 J0.031
G1 X472.357457 Y382.66683
G2 X490.138468 Y364.947781 I0.031 J-17.75
X472.419469 Y347.166783 I-17.75 J-0.031
G1 X472.034454 Y347.16589
G3 X471.485475 Y346.61488 I0.001 J-0.55 F1000.
G1 X471.486456 Y346.06488
Y345.97882 Z15.207
Y345.89488 Z15.227
Y345.81589 Z15.26
Y345.74185 Z15.305
X471.487467 Y345.675789 Z15.361
Y345.619783 Z15.427
Y345.57488 Z15.5
Y345.541785 Z15.58
Y345.52185 Z15.664
Y345.51488 Z15.75
G0 Z23.2
X471.486456 Y345.83185
G1 Z22.2 F1200.
Z15.75
Y345.82488 Z15.664
Y345.804788 Z15.58
Y345.77185 Z15.5
X471.487467 Y345.72689 Z15.427
Y345.670784 Z15.361
Y345.60488 Z15.305
Y345.53185 Z15.26
Y345.451785 Z15.227
Y345.36781 Z15.207
Y345.28185 Z15.2
X471.488468 Y344.731785 F1000.
G3 X472.039469 Y344.18286 I0.55 J0.001
G2 X489.572452 Y329.390784 I0.031 J-17.75 F3600.
Y328.47488 I-2.712 J-0.458
X472.101441 Y313.68284 I-17.502 J2.958
G1 X417.101471 Y313.58685
G2 X399.568452 Y328.378782 I-0.031 J17.75
Y329.29488 I2.712 J0.458
X417.039469 Y344.08685 I17.502 J-2.958
G1 X472.039469 Y344.18286
G3 X472.588448 Y344.73387 I-0.001 J0.55 F1000.
G1 X472.587467 Y345.283787
Y345.369783 Z15.207
Y345.45387 Z15.227
Y345.533787 Z15.26
Y345.606787 Z15.305
Y345.67286 Z15.361
Y345.72882 Z15.427
X472.586466 Y345.77387 Z15.5
Y345.80687 Z15.58
Y345.826789 Z15.664
Y345.83387 Z15.75
G0 Z23.2
X472.587467 Y345.516788
G1 Z19.2 F1200.
Z12.75
Y345.52387 Z12.664
Y345.54387 Z12.58
Y345.576784 Z12.5
Y345.62185 Z12.427
Y345.67781 Z12.361
X472.586466 Y345.74387 Z12.305
Y345.81688 Z12.26
Y345.89686 Z12.227
Y345.98084 Z12.207
Y346.06683 Z12.2
X472.585455 Y346.61688 F1000.
G3 X472.034454 Y347.16589 I-0.55 J-0.001
G1 X417.419469 Y347.07084 F3600.
X417.357457
G2 X399.638462 Y364.78983 I0.031 J17.75
X417.357457 Y382.57084 I17.75 J0.031
G1 X472.357457 Y382.66683
G2 X490.138468 Y364.947781 I0.031 J-17.75
X472.419469 Y347.166783 I-17.75 J-0.031
G1 X472.034454 Y347.16589
G3 X471.485475 Y346.61488 I0.001 J-0.55 F1000.
G1 X471.486456 Y346.06488
Y345.97882 Z12.207
Y345.89488 Z12.227
Y345.81589 Z12.26
Y345.74185 Z12.305
X471.487467 Y345.675789 Z12.361
Y345.619783 Z12.427
Y345.57488 Z12.5
Y345.541785 Z12.58
Y345.52185 Z12.664
Y345.51488 Z12.75
G0 Z23.2
X471.486456 Y345.83185
G1 Z19.2 F1200.
Z12.75
Y345.82488 Z12.664
Y345.804788 Z12.58
Y345.77185 Z12.5
X471.487467 Y345.72689 Z12.427
Y345.670784 Z12.361
Y345.60488 Z12.305
Y345.53185 Z12.26
Y345.451785 Z12.227
Y345.36781 Z12.207
Y345.28185 Z12.2
X471.488468 Y344.731785 F1000.
G3 X472.039469 Y344.18286 I0.55 J0.001
G2 X489.572452 Y329.390784 I0.031 J-17.75 F3600.
Y328.47488 I-2.712 J-0.458
X472.101441 Y313.68284 I-17.502 J2.958
G1 X417.101471 Y313.58685
G2 X399.568452 Y328.378782 I-0.031 J17.75
Y329.29488 I2.712 J0.458
X417.039469 Y344.08685 I17.502 J-2.958
G1 X472.039469 Y344.18286
G3 X472.588448 Y344.73387 I-0.001 J0.55 F1000.
G1 X472.587467 Y345.283787
Y345.369783 Z12.207
Y345.45387 Z12.227
Y345.533787 Z12.26
Y345.606787 Z12.305
Y345.67286 Z12.361
Y345.72882 Z12.427
X472.586466 Y345.77387 Z12.5
Y345.80687 Z12.58
Y345.826789 Z12.664
Y345.83387 Z12.75
G0 Z23.2
X472.587467 Y345.516788
G1 Z16.2 F1200.
Z9.75
Y345.52387 Z9.664
Y345.54387 Z9.58
Y345.576784 Z9.5
Y345.62185 Z9.427
Y345.67781 Z9.361
X472.586466 Y345.74387 Z9.305
Y345.81688 Z9.26
Y345.89686 Z9.227
Y345.98084 Z9.207
Y346.06683 Z9.2
X472.585455 Y346.61688 F1000.
G3 X472.034454 Y347.16589 I-0.55 J-0.001
G1 X417.419469 Y347.07084 F3600.
X417.357457
G2 X399.638462 Y364.78983 I0.031 J17.75
X417.357457 Y382.57084 I17.75 J0.031
G1 X472.357457 Y382.66683
G2 X490.138468 Y364.947781 I0.031 J-17.75
X472.419469 Y347.166783 I-17.75 J-0.031
G1 X472.034454 Y347.16589
G3 X471.485475 Y346.61488 I0.001 J-0.55 F1000.
G1 X471.486456 Y346.06488
Y345.97882 Z9.207
Y345.89488 Z9.227
Y345.81589 Z9.26
Y345.74185 Z9.305
X471.487467 Y345.675789 Z9.361
Y345.619783 Z9.427
Y345.57488 Z9.5
Y345.541785 Z9.58
Y345.52185 Z9.664
Y345.51488 Z9.75
G0 Z23.2
X471.486456 Y345.83185
G1 Z16.2 F1200.
Z9.75
Y345.82488 Z9.664
Y345.804788 Z9.58
Y345.77185 Z9.5
X471.487467 Y345.72689 Z9.427
Y345.670784 Z9.361
Y345.60488 Z9.305
Y345.53185 Z9.26
Y345.451785 Z9.227
Y345.36781 Z9.207
Y345.28185 Z9.2
X471.488468 Y344.731785 F1000.
G3 X472.039469 Y344.18286 I0.55 J0.001
G2 X489.572452 Y329.390784 I0.031 J-17.75 F3600.
Y328.47488 I-2.712 J-0.458
X472.101441 Y313.68284 I-17.502 J2.958
G1 X417.101471 Y313.58685
G2 X399.568452 Y328.378782 I-0.031 J17.75
Y329.29488 I2.712 J0.458
X417.039469 Y344.08685 I17.502 J-2.958
G1 X472.039469 Y344.18286
G3 X472.588448 Y344.73387 I-0.001 J0.55 F1000.
G1 X472.587467 Y345.283787
Y345.369783 Z9.207
Y345.45387 Z9.227
Y345.533787 Z9.26
Y345.606787 Z9.305
Y345.67286 Z9.361
Y345.72882 Z9.427
X472.586466 Y345.77387 Z9.5
Y345.80687 Z9.58
Y345.826789 Z9.664
Y345.83387 Z9.75
G0 Z23.2
X472.587467 Y345.516788
G1 Z13.2 F1200.
Z6.75
Y345.52387 Z6.664
Y345.54387 Z6.58
Y345.576784 Z6.5
Y345.62185 Z6.427
Y345.67781 Z6.361
X472.586466 Y345.74387 Z6.305
Y345.81688 Z6.26
Y345.89686 Z6.227
Y345.98084 Z6.207
Y346.06683 Z6.2
X472.585455 Y346.61688 F1000.
G3 X472.034454 Y347.16589 I-0.55 J-0.001
G1 X417.419469 Y347.07084 F3600.
X417.357457
G2 X399.638462 Y364.78983 I0.031 J17.75
X417.357457 Y382.57084 I17.75 J0.031
G1 X472.357457 Y382.66683
G2 X490.138468 Y364.947781 I0.031 J-17.75
X472.419469 Y347.166783 I-17.75 J-0.031
G1 X472.034454 Y347.16589
G3 X471.485475 Y346.61488 I0.001 J-0.55 F1000.
G1 X471.486456 Y346.06488
Y345.97882 Z6.207
Y345.89488 Z6.227
Y345.81589 Z6.26
Y345.74185 Z6.305
X471.487467 Y345.675789 Z6.361
Y345.619783 Z6.427
Y345.57488 Z6.5
Y345.541785 Z6.58
Y345.52185 Z6.664
Y345.51488 Z6.75
G0 Z23.2
X471.486456 Y345.83185
G1 Z13.2 F1200.
Z6.75
Y345.82488 Z6.664
Y345.804788 Z6.58
Y345.77185 Z6.5
X471.487467 Y345.72689 Z6.427
Y345.670784 Z6.361
Y345.60488 Z6.305
Y345.53185 Z6.26
Y345.451785 Z6.227
Y345.36781 Z6.207
Y345.28185 Z6.2
X471.488468 Y344.731785 F1000.
G3 X472.039469 Y344.18286 I0.55 J0.001
G2 X489.572452 Y329.390784 I0.031 J-17.75 F3600.
Y328.47488 I-2.712 J-0.458
X472.101441 Y313.68284 I-17.502 J2.958
G1 X417.101471 Y313.58685
G2 X399.568452 Y328.378782 I-0.031 J17.75
Y329.29488 I2.712 J0.458
X417.039469 Y344.08685 I17.502 J-2.958
G1 X472.039469 Y344.18286
G3 X472.588448 Y344.73387 I-0.001 J0.55 F1000.
G1 X472.587467 Y345.283787
Y345.369783 Z6.207
Y345.45387 Z6.227
Y345.533787 Z6.26
Y345.606787 Z6.305
Y345.67286 Z6.361
Y345.72882 Z6.427
X472.586466 Y345.77387 Z6.5
Y345.80687 Z6.58
Y345.826789 Z6.664
Y345.83387 Z6.75
G0 Z23.2
X472.587467 Y345.516788
G1 Z10.2 F1200.
Z3.75
Y345.52387 Z3.664
Y345.54387 Z3.58
Y345.576784 Z3.5
Y345.62185 Z3.427
Y345.67781 Z3.361
X472.586466 Y345.74387 Z3.305
Y345.81688 Z3.26
Y345.89686 Z3.227
Y345.98084 Z3.207
Y346.06683 Z3.2
X472.585455 Y346.61688 F1000.
G3 X472.034454 Y347.16589 I-0.55 J-0.001
G1 X417.419469 Y347.07084 F3600.
X417.357457
G2 X399.638462 Y364.78983 I0.031 J17.75
X417.357457 Y382.57084 I17.75 J0.031
G1 X472.357457 Y382.66683
G2 X490.138468 Y364.947781 I0.031 J-17.75
X472.419469 Y347.166783 I-17.75 J-0.031
G1 X472.034454 Y347.16589
G3 X471.485475 Y346.61488 I0.001 J-0.55 F1000.
G1 X471.486456 Y346.06488
Y345.97882 Z3.207
Y345.89488 Z3.227
Y345.81589 Z3.26
Y345.74185 Z3.305
X471.487467 Y345.675789 Z3.361
Y345.619783 Z3.427
Y345.57488 Z3.5
Y345.541785 Z3.58
Y345.52185 Z3.664
Y345.51488 Z3.75
G0 Z23.2
X471.486456 Y345.83185
G1 Z10.2 F1200.
Z3.75
Y345.82488 Z3.664
Y345.804788 Z3.58
Y345.77185 Z3.5
X471.487467 Y345.72689 Z3.427
Y345.670784 Z3.361
Y345.60488 Z3.305
Y345.53185 Z3.26
Y345.451785 Z3.227
Y345.36781 Z3.207
Y345.28185 Z3.2
X471.488468 Y344.731785 F1000.
G3 X472.039469 Y344.18286 I0.55 J0.001
G2 X489.572452 Y329.390784 I0.031 J-17.75 F3600.
Y328.47488 I-2.712 J-0.458
X472.101441 Y313.68284 I-17.502 J2.958
G1 X417.101471 Y313.58685
G2 X399.568452 Y328.378782 I-0.031 J17.75
Y329.29488 I2.712 J0.458
X417.039469 Y344.08685 I17.502 J-2.958
G1 X472.039469 Y344.18286
G3 X472.588448 Y344.73387 I-0.001 J0.55 F1000.
G1 X472.587467 Y345.283787
Y345.369783 Z3.207
Y345.45387 Z3.227
Y345.533787 Z3.26
Y345.606787 Z3.305
Y345.67286 Z3.361
Y345.72882 Z3.427
X472.586466 Y345.77387 Z3.5
Y345.80687 Z3.58
Y345.826789 Z3.664
Y345.83387 Z3.75
G0 Z23.2
X472.587467 Y345.516788
G1 Z7.2 F1200.
Z2.15
Y345.52387 Z2.064
Y345.54387 Z1.98
Y345.576784 Z1.9
Y345.62185 Z1.827
Y345.67781 Z1.761
X472.586466 Y345.74387 Z1.705
Y345.81688 Z1.66
Y345.89686 Z1.627
Y345.98084 Z1.607
Y346.06683 Z1.6
X472.585455 Y346.61688 F1000.
G3 X472.034454 Y347.16589 I-0.55 J-0.001
G1 X417.419469 Y347.07084 F3600.
X417.357457
G2 X399.638462 Y364.78983 I0.031 J17.75
X417.357457 Y382.57084 I17.75 J0.031
G1 X472.357457 Y382.66683
G2 X490.138468 Y364.947781 I0.031 J-17.75
X472.419469 Y347.166783 I-17.75 J-0.031
G1 X472.034454 Y347.16589
G3 X471.485475 Y346.61488 I0.001 J-0.55 F1000.
G1 X471.486456 Y346.06488
Y345.97882 Z1.607
Y345.89488 Z1.627
Y345.81589 Z1.66
Y345.74185 Z1.705
X471.487467 Y345.675789 Z1.761
Y345.619783 Z1.827
Y345.57488 Z1.9
Y345.541785 Z1.98
Y345.52185 Z2.064
Y345.51488 Z2.15
G0 Z23.2
X471.486456 Y345.83185
G1 Z7.2 F1200.
Z2.15
Y345.82488 Z2.064
Y345.804788 Z1.98
Y345.77185 Z1.9
X471.487467 Y345.72689 Z1.827
Y345.670784 Z1.761
Y345.60488 Z1.705
Y345.53185 Z1.66
Y345.451785 Z1.627
Y345.36781 Z1.607
Y345.28185 Z1.6
X471.488468 Y344.731785 F1000.
G3 X472.039469 Y344.18286 I0.55 J0.001
G2 X489.572452 Y329.390784 I0.031 J-17.75 F3600.
Y328.47488 I-2.712 J-0.458
X472.101441 Y313.68284 I-17.502 J2.958
G1 X417.101471 Y313.58685
G2 X399.568452 Y328.378782 I-0.031 J17.75
Y329.29488 I2.712 J0.458
X417.039469 Y344.08685 I17.502 J-2.958
G1 X472.039469 Y344.18286
G3 X472.588448 Y344.73387 I-0.001 J0.55 F1000.
G1 X472.587467 Y345.283787
Y345.369783 Z1.607
Y345.45387 Z1.627
Y345.533787 Z1.66
Y345.606787 Z1.705
Y345.67286 Z1.761
Y345.72882 Z1.827
X472.586466 Y345.77387 Z1.9
Y345.80687 Z1.98
Y345.826789 Z2.064
Y345.83387 Z2.15
G0 Z23.2
X472.587467 Y345.516788
G1 Z5.6 F1200.
Z0.55
Y345.52387 Z0.464
Y345.54387 Z0.38
Y345.576784 Z0.3
Y345.62185 Z0.227
Y345.67781 Z0.161
X472.586466 Y345.74387 Z0.105
Y345.81688 Z0.06
Y345.89686 Z0.027
Y345.98084 Z0.007
Y346.06683 Z0.
X472.585455 Y346.61688 F1000.
G3 X472.034454 Y347.16589 I-0.55 J-0.001
G1 X417.419469 Y347.07084 F3600.
X417.357457
G2 X399.638462 Y364.78983 I0.031 J17.75
X417.357457 Y382.57084 I17.75 J0.031
G1 X472.357457 Y382.66683
G2 X490.138468 Y364.947781 I0.031 J-17.75
X472.419469 Y347.166783 I-17.75 J-0.031
G1 X472.034454 Y347.16589
G3 X471.485475 Y346.61488 I0.001 J-0.55 F1000.
G1 X471.486456 Y346.06488
Y345.97882 Z0.007
Y345.89488 Z0.027
Y345.81589 Z0.06
Y345.74185 Z0.105
X471.487467 Y345.675789 Z0.161
Y345.619783 Z0.227
Y345.57488 Z0.3
Y345.541785 Z0.38
Y345.52185 Z0.464
Y345.51488 Z0.55
G0 Z23.2
X471.486456 Y345.83185
G1 Z5.6 F1200.
Z0.55
Y345.82488 Z0.464
Y345.804788 Z0.38
Y345.77185 Z0.3
X471.487467 Y345.72689 Z0.227
Y345.670784 Z0.161
Y345.60488 Z0.105
Y345.53185 Z0.06
Y345.451785 Z0.027
Y345.36781 Z0.007
Y345.28185 Z0.
X471.488468 Y344.731785 F1000.
G3 X472.039469 Y344.18286 I0.55 J0.001
G2 X489.572452 Y329.390784 I0.031 J-17.75 F3600.
Y328.47488 I-2.712 J-0.458
X472.101441 Y313.68284 I-17.502 J2.958
G1 X417.101471 Y313.58685
G2 X399.568452 Y328.378782 I-0.031 J17.75
Y329.29488 I2.712 J0.458
X417.039469 Y344.08685 I17.502 J-2.958
G1 X472.039469 Y344.18286
G3 X472.588448 Y344.73387 I-0.001 J0.55 F1000.
G1 X472.587467 Y345.283787
Y345.369783 Z0.007
Y345.45387 Z0.027
Y345.533787 Z0.06
Y345.606787 Z0.105
Y345.67286 Z0.161
Y345.7288

(2D CONTOUR4 2)
M5
M9
M1
T162 M6
S12000 M3
G54
M8
G0 X70.3077 Y187.347998
Z33.2
Z23.2
G1 Z22.2 F1200.
Z15.75
Y187.3557 Z15.664
Y187.3757 Z15.58
Y187.4084 Z15.5
Y187.4535 Z15.427
Y187.5091 Z15.361
X70.3066 Y187.5757 Z15.305
Y187.6488 Z15.26
Y187.7286 Z15.227
Y187.8124 Z15.207
Y187.8983 Z15.2
X70.3055 Y188.4488 F1000.
G3 X69.7544 Y188.9979 I-0.55 J-0.001
G1 X15.1399 Y188.9024 F3600.
X15.0777
G2 X-2.6422 Y206.6213 I0.031 J17.75
X15.0777 Y224.402014 I17.75 J0.031
G1 X70.0777 Y224.4983
G2 X87.8588 Y206.778991 I0.031 J-17.75
X70.1399 Y188.9983 I-17.75 J-0.031
G1 X69.7544 Y188.9979
G3 X69.2055 Y188.4468 I0.001 J-0.55 F1000.
G1 X69.2066 Y187.8968
Y187.812 Z15.207
Y187.7268 Z15.227
Y187.6479 Z15.26
Y187.5735 Z15.305
X69.2077 Y187.5079 Z15.361
Y187.4513 Z15.427
Y187.4068 Z15.5
Y187.3735 Z15.58
Y187.3535 Z15.664
Y187.3468 Z15.75
G0 Z23.2
X69.2066 Y187.6635
G1 Z22.2 F1200.
Z15.75
Y187.6568 Z15.664
Y187.6368 Z15.58
Y187.6035 Z15.5
X69.2077 Y187.5589 Z15.427
Y187.5024 Z15.361
Y187.4368 Z15.305
Y187.3635 Z15.26
Y187.2835 Z15.227
Y187.1991 Z15.207
Y187.1135 Z15.2
X69.2088 Y186.5635 F1000.
G3 X69.7599 Y186.0146 I0.55 J0.001
G2 X87.2922 Y171.2224 I0.031 J-17.75 F3600.
Y170.3068 I-2.712 J-0.458
X69.8211 Y155.513994 I-17.502 J2.958
G1 X14.8211 Y155.4185
G2 X-2.7122 Y170.209992 I-0.031 J17.75
Y171.1268 I2.712 J0.458
X14.7599 Y185.9185 I17.502 J-2.958
G1 X69.7599 Y186.0146
G3 X70.3088 Y186.5657 I-0.001 J0.55 F1000.
G1 X70.3077 Y187.1157
Y187.2013 Z15.207
Y187.2857 Z15.227
Y187.3657 Z15.26
Y187.4387 Z15.305
Y187.5046 Z15.361
Y187.562 Z15.427
X70.3066 Y187.6057 Z15.5
Y187.6387 Z15.58
Y187.6589 Z15.664
Y187.6657 Z15.75
G0 Z23.2
X70.3077 Y187.347998
G1 Z19.2 F1200.
Z12.75
Y187.3557 Z12.664
Y187.3757 Z12.58
Y187.4084 Z12.5
Y187.4535 Z12.427
Y187.5091 Z12.361
X70.3066 Y187.5757 Z12.305
Y187.6488 Z12.26
Y187.7286 Z12.227
Y187.8124 Z12.207
Y187.8983 Z12.2
X70.3055 Y188.4488 F1000.
G3 X69.7544 Y188.9979 I-0.55 J-0.001
G1 X15.1399 Y188.9024 F3600.
X15.0777
G2 X-2.6422 Y206.6213 I0.031 J17.75
X15.0777 Y224.402014 I17.75 J0.031
G1 X70.0777 Y224.4983
G2 X87.8588 Y206.778991 I0.031 J-17.75
X70.1399 Y188.9983 I-17.75 J-0.031
G1 X69.7544 Y188.9979
G3 X69.2055 Y188.4468 I0.001 J-0.55 F1000.
G1 X69.2066 Y187.8968
Y187.812 Z12.207
Y187.7268 Z12.227
Y187.6479 Z12.26
Y187.5735 Z12.305
X69.2077 Y187.5079 Z12.361
Y187.4513 Z12.427
Y187.4068 Z12.5
Y187.3735 Z12.58
Y187.3535 Z12.664
Y187.3468 Z12.75
G0 Z23.2
X69.2066 Y187.6635
G1 Z19.2 F1200.
Z12.75
Y187.6568 Z12.664
Y187.6368 Z12.58
Y187.6035 Z12.5
X69.2077 Y187.5589 Z12.427
Y187.5024 Z12.361
Y187.4368 Z12.305
Y187.3635 Z12.26
Y187.2835 Z12.227
Y187.1991 Z12.207
Y187.1135 Z12.2
X69.2088 Y186.5635 F1000.
G3 X69.7599 Y186.0146 I0.55 J0.001
G2 X87.2922 Y171.2224 I0.031 J-17.75 F3600.
Y170.3068 I-2.712 J-0.458
X69.8211 Y155.513994 I-17.502 J2.958
G1 X14.8211 Y155.4185
G2 X-2.7122 Y170.209992 I-0.031 J17.75
Y171.1268 I2.712 J0.458
X14.7599 Y185.9185 I17.502 J-2.958
G1 X69.7599 Y186.0146
G3 X70.3088 Y186.5657 I-0.001 J0.55 F1000.
G1 X70.3077 Y187.1157
Y187.2013 Z12.207
Y187.2857 Z12.227
Y187.3657 Z12.26
Y187.4387 Z12.305
Y187.5046 Z12.361
Y187.562 Z12.427
X70.3066 Y187.6057 Z12.5
Y187.6387 Z12.58
Y187.6589 Z12.664
Y187.6657 Z12.75
G0 Z23.2
X70.3077 Y187.347998
G1 Z16.2 F1200.
Z9.75
Y187.3557 Z9.664
Y187.3757 Z9.58
Y187.4084 Z9.5
Y187.4535 Z9.427
Y187.5091 Z9.361
X70.3066 Y187.5757 Z9.305
Y187.6488 Z9.26
Y187.7286 Z9.227
Y187.8124 Z9.207
Y187.8983 Z9.2
X70.3055 Y188.4488 F1000.
G3 X69.7544 Y188.9979 I-0.55 J-0.001
G1 X15.1399 Y188.9024 F3600.
X15.0777
G2 X-2.6422 Y206.6213 I0.031 J17.75
X15.0777 Y224.402014 I17.75 J0.031
G1 X70.0777 Y224.4983
G2 X87.8588 Y206.778991 I0.031 J-17.75
X70.1399 Y188.9983 I-17.75 J-0.031
G1 X69.7544 Y188.9979
G3 X69.2055 Y188.4468 I0.001 J-0.55 F1000.
G1 X69.2066 Y187.8968
Y187.812 Z9.207
Y187.7268 Z9.227
Y187.6479 Z9.26
Y187.5735 Z9.305
X69.2077 Y187.5079 Z9.361
Y187.4513 Z9.427
Y187.4068 Z9.5
Y187.3735 Z9.58
Y187.3535 Z9.664
Y187.3468 Z9.75
G0 Z23.2
X69.2066 Y187.6635
G1 Z16.2 F1200.
Z9.75
Y187.6568 Z9.664
Y187.6368 Z9.58
Y187.6035 Z9.5
X69.2077 Y187.5589 Z9.427
Y187.5024 Z9.361
Y187.4368 Z9.305
Y187.3635 Z9.26
Y187.2835 Z9.227
Y187.1991 Z9.207
Y187.1135 Z9.2
X69.2088 Y186.5635 F1000.
G3 X69.7599 Y186.0146 I0.55 J0.001
G2 X87.2922 Y171.2224 I0.031 J-17.75 F3600.
Y170.3068 I-2.712 J-0.458
X69.8211 Y155.513994 I-17.502 J2.958
G1 X14.8211 Y155.4185
G2 X-2.7122 Y170.209992 I-0.031 J17.75
Y171.1268 I2.712 J0.458
X14.7599 Y185.9185 I17.502 J-2.958
G1 X69.7599 Y186.0146
G3 X70.3088 Y186.5657 I-0.001 J0.55 F1000.
G1 X70.3077 Y187.1157
Y187.2013 Z9.207
Y187.2857 Z9.227
Y187.3657 Z9.26
Y187.4387 Z9.305
Y187.5046 Z9.361
Y187.562 Z9.427
X70.3066 Y187.6057 Z9.5
Y187.6387 Z9.58
Y187.6589 Z9.664
Y187.6657 Z9.75
G0 Z23.2
X70.3077 Y187.347998
G1 Z13.2 F1200.
Z6.75
Y187.3557 Z6.664
Y187.3757 Z6.58
Y187.4084 Z6.5
Y187.4535 Z6.427
Y187.5091 Z6.361
X70.3066 Y187.5757 Z6.305
Y187.6488 Z6.26
Y187.7286 Z6.227
Y187.8124 Z6.207
Y187.8983 Z6.2
X70.3055 Y188.4488 F1000.
G3 X69.7544 Y188.9979 I-0.55 J-0.001
G1 X15.1399 Y188.9024 F3600.
X15.0777
G2 X-2.6422 Y206.6213 I0.031 J17.75
X15.0777 Y224.402014 I17.75 J0.031
G1 X70.0777 Y224.4983
G2 X87.8588 Y206.778991 I0.031 J-17.75
X70.1399 Y188.9983 I-17.75 J-0.031
G1 X69.7544 Y188.9979
G3 X69.2055 Y188.4468 I0.001 J-0.55 F1000.
G1 X69.2066 Y187.8968
Y187.812 Z6.207
Y187.7268 Z6.227
Y187.6479 Z6.26
Y187.5735 Z6.305
X69.2077 Y187.5079 Z6.361
Y187.4513 Z6.427
Y187.4068 Z6.5
Y187.3735 Z6.58
Y187.3535 Z6.664
Y187.3468 Z6.75
G0 Z23.2
X69.2066 Y187.6635
G1 Z13.2 F1200.
Z6.75
Y187.6568 Z6.664
Y187.6368 Z6.58
Y187.6035 Z6.5
X69.2077 Y187.5589 Z6.427
Y187.5024 Z6.361
Y187.4368 Z6.305
Y187.3635 Z6.26
Y187.2835 Z6.227
Y187.1991 Z6.207
Y187.1135 Z6.2
X69.2088 Y186.5635 F1000.
G3 X69.7599 Y186.0146 I0.55 J0.001
G2 X87.2922 Y171.2224 I0.031 J-17.75 F3600.
Y170.3068 I-2.712 J-0.458
X69.8211 Y155.513994 I-17.502 J2.958
G1 X14.8211 Y155.4185
G2 X-2.7122 Y170.209992 I-0.031 J17.75
Y171.1268 I2.712 J0.458
X14.7599 Y185.9185 I17.502 J-2.958
G1 X69.7599 Y186.0146
G3 X70.3088 Y186.5657 I-0.001 J0.55 F1000.
G1 X70.3077 Y187.1157
Y187.2013 Z6.207
Y187.2857 Z6.227
Y187.3657 Z6.26
Y187.4387 Z6.305
Y187.5046 Z6.361
Y187.562 Z6.427
X70.3066 Y187.6057 Z6.5
Y187.6387 Z6.58
Y187.6589 Z6.664
Y187.6657 Z6.75
G0 Z23.2
X70.3077 Y187.347998
G1 Z10.2 F1200.
Z3.75
Y187.3557 Z3.664
Y187.3757 Z3.58
Y187.4084 Z3.5
Y187.4535 Z3.427
Y187.5091 Z3.361
X70.3066 Y187.5757 Z3.305
Y187.6488 Z3.26
Y187.7286 Z3.227
Y187.8124 Z3.207
Y187.8983 Z3.2
X70.3055 Y188.4488 F1000.
G3 X69.7544 Y188.9979 I-0.55 J-0.001
G1 X15.1399 Y188.9024 F3600.
X15.0777
G2 X-2.6422 Y206.6213 I0.031 J17.75
X15.0777 Y224.402014 I17.75 J0.031
G1 X70.0777 Y224.4983
G2 X87.8588 Y206.778991 I0.031 J-17.75
X70.1399 Y188.9983 I-17.75 J-0.031
G1 X69.7544 Y188.9979
G3 X69.2055 Y188.4468 I0.001 J-0.55 F1000.
G1 X69.2066 Y187.8968
Y187.812 Z3.207
Y187.7268 Z3.227
Y187.6479 Z3.26
Y187.5735 Z3.305
X69.2077 Y187.5079 Z3.361
Y187.4513 Z3.427
Y187.4068 Z3.5
Y187.3735 Z3.58
Y187.3535 Z3.664
Y187.3468 Z3.75
G0 Z23.2
X69.2066 Y187.6635
G1 Z10.2 F1200.
Z3.75
Y187.6568 Z3.664
Y187.6368 Z3.58
Y187.6035 Z3.5
X69.2077 Y187.5589 Z3.427
Y187.5024 Z3.361
Y187.4368 Z3.305
Y187.3635 Z3.26
Y187.2835 Z3.227
Y187.1991 Z3.207
Y187.1135 Z3.2
X69.2088 Y186.5635 F1000.
G3 X69.7599 Y186.0146 I0.55 J0.001
G2 X87.2922 Y171.2224 I0.031 J-17.75 F3600.
Y170.3068 I-2.712 J-0.458
X69.8211 Y155.513994 I-17.502 J2.958
G1 X14.8211 Y155.4185
G2 X-2.7122 Y170.209992 I-0.031 J17.75
Y171.1268 I2.712 J0.458
X14.7599 Y185.9185 I17.502 J-2.958
G1 X69.7599 Y186.0146
G3 X70.3088 Y186.5657 I-0.001 J0.55 F1000.
G1 X70.3077 Y187.1157
Y187.2013 Z3.207
Y187.2857 Z3.227
Y187.3657 Z3.26
Y187.4387 Z3.305
Y187.5046 Z3.361
Y187.562 Z3.427
X70.3066 Y187.6057 Z3.5
Y187.6387 Z3.58
Y187.6589 Z3.664
Y187.6657 Z3.75
G0 Z23.2
X70.3077 Y187.347998
G1 Z7.2 F1200.
Z2.15
Y187.3557 Z2.064
Y187.3757 Z1.98
Y187.4084 Z1.9
Y187.4535 Z1.827
Y187.5091 Z1.761
X70.3066 Y187.5757 Z1.705
Y187.6488 Z1.66
Y187.7286 Z1.627
Y187.8124 Z1.607
Y187.8983 Z1.6
X70.3055 Y188.4488 F1000.
G3 X69.7544 Y188.9979 I-0.55 J-0.001
G1 X15.1399 Y188.9024 F3600.
X15.0777
G2 X-2.6422 Y206.6213 I0.031 J17.75
X15.0777 Y224.402014 I17.75 J0.031
G1 X70.0777 Y224.4983
G2 X87.8588 Y206.778991 I0.031 J-17.75
X70.1399 Y188.9983 I-17.75 J-0.031
G1 X69.7544 Y188.9979
G3 X69.2055 Y188.4468 I0.001 J-0.55 F1000.
G1 X69.2066 Y187.8968
Y187.812 Z1.607
Y187.7268 Z1.627
Y187.6479 Z1.66
Y187.5735 Z1.705
X69.2077 Y187.5079 Z1.761
Y187.4513 Z1.827
Y187.4068 Z1.9
Y187.3735 Z1.98
Y187.3535 Z2.064
Y187.3468 Z2.15
G0 Z23.2
X69.2066 Y187.6635
G1 Z7.2 F1200.
Z2.15
Y187.6568 Z2.064
Y187.6368 Z1.98
Y187.6035 Z1.9
X69.2077 Y187.5589 Z1.827
Y187.5024 Z1.761
Y187.4368 Z1.705
Y187.3635 Z1.66
Y187.2835 Z1.627
Y187.1991 Z1.607
Y187.1135 Z1.6
X69.2088 Y186.5635 F1000.
G3 X69.7599 Y186.0146 I0.55 J0.001
G2 X87.2922 Y171.2224 I0.031 J-17.75 F3600.
Y170.3068 I-2.712 J-0.458
X69.8211 Y155.513994 I-17.502 J2.958
G1 X14.8211 Y155.4185
G2 X-2.7122 Y170.209992 I-0.031 J17.75
Y171.1268 I2.712 J0.458
X14.7599 Y185.9185 I17.502 J-2.958
G1 X69.7599 Y186.0146
G3 X70.3088 Y186.5657 I-0.001 J0.55 F1000.
G1 X70.3077 Y187.1157
Y187.2013 Z1.607
Y187.2857 Z1.627
Y187.3657 Z1.66
Y187.4387 Z1.705
Y187.5046 Z1.761
Y187.562 Z1.827
X70.3066 Y187.6057 Z1.9
Y187.6387 Z1.98
Y187.6589 Z2.064
Y187.6657 Z2.15
G0 Z23.2
X70.3077 Y187.347998
G1 Z5.6 F1200.
Z0.55
Y187.3557 Z0.464
Y187.3757 Z0.38
Y187.4084 Z0.3
Y187.4535 Z0.227
Y187.5091 Z0.161
X70.3066 Y187.5757 Z0.105
Y187.6488 Z0.06
Y187.7286 Z0.027
Y187.8124 Z0.007
Y187.8983 Z0.
X70.3055 Y188.4488 F1000.
G3 X69.7544 Y188.9979 I-0.55 J-0.001
G1 X15.1399 Y188.9024 F3600.
X15.0777
G2 X-2.6422 Y206.6213 I0.031 J17.75
X15.0777 Y224.402014 I17.75 J0.031
G1 X70.0777 Y224.4983
G2 X87.8588 Y206.778991 I0.031 J-17.75
X70.1399 Y188.9983 I-17.75 J-0.031
G1 X69.7544 Y188.9979
G3 X69.2055 Y188.4468 I0.001 J-0.55 F1000.
G1 X69.2066 Y187.8968
Y187.812 Z0.007
Y187.7268 Z0.027
Y187.6479 Z0.06
Y187.5735 Z0.105
X69.2077 Y187.5079 Z0.161
Y187.4513 Z0.227
Y187.4068 Z0.3
Y187.3735 Z0.38
Y187.3535 Z0.464
Y187.3468 Z0.55
G0 Z23.2
X69.2066 Y187.6635
G1 Z5.6 F1200.
Z0.55
Y187.6568 Z0.464
Y187.6368 Z0.38
Y187.6035 Z0.3
X69.2077 Y187.5589 Z0.227
Y187.5024 Z0.161
Y187.4368 Z0.105
Y187.3635 Z0.06
Y187.2835 Z0.027
Y187.1991 Z0.007
Y187.1135 Z0.
X69.2088 Y186.5635 F1000.
G3 X69.7599 Y186.0146 I0.55 J0.001
G2 X87.2922 Y171.2224 I0.031 J-17.75 F3600.
Y170.3068 I-2.712 J-0.458
X69.8211 Y155.513994 I-17.502 J2.958
G1 X14.8211 Y155.4185
G2 X-2.7122 Y170.209992 I-0.031 J17.75
Y171.1268 I2.712 J0.458
X14.7599 Y185.9185 I17.502 J-2.958
G1 X69.7599 Y186.0146
G3 X70.3088 Y186.5657 I-0.001 J0.55 F1000.
G1 X70.3077 Y187.1157
Y187.2013 Z0.007
Y187.2857 Z0.027
Y187.3657 Z0.06
Y187.4387 Z0.105
Y187.5046 Z0.161
Y187.56

(2D CONTOUR4 2)
M5
M9
M1
T162 M6
S12000 M3
G54
M8
G0 X70.30777 Y503.684788
Z33.2
Z23.2
G1 Z22.2 F1200.
Z15.75
Y503.69257 Z15.664
Y503.71257 Z15.58
Y503.745184 Z15.5
Y503.790285 Z15.427
Y503.84591 Z15.361
X70.30666 Y503.912487 Z15.305
Y503.98568 Z15.26
Y504.06546 Z15.227
Y504.149174 Z15.207
Y504.23513 Z15.2
X70.30555 Y504.785588 F1000.
G3 X69.75444 Y505.33479 I-0.55 J-0.001
G1 X15.13999 Y505.23924 F3600.
X15.07777
G2 X-2.64222 Y522.95813 I0.031 J17.75
X15.07777 Y540.73884 I17.75 J0.031
G1 X70.07777 Y540.83513
G2 X87.85888 Y523.11581 I0.031 J-17.75
X70.13999 Y505.335083 I-17.75 J-0.031
G1 X69.75444 Y505.33479
G3 X69.20555 Y504.783578 I0.001 J-0.55 F1000.
G1 X69.20666 Y504.233588
Y504.14882 Z15.207
Y504.06368 Z15.227
Y503.984689 Z15.26
Y503.910285 Z15.305
X69.20777 Y503.84479 Z15.361
Y503.78813 Z15.427
Y503.74368 Z15.5
Y503.71035 Z15.58
Y503.69035 Z15.664
Y503.68368 Z15.75
G0 Z23.2
X69.20666 Y504.00035
G1 Z22.2 F1200.
Z15.75
Y503.99368 Z15.664
Y503.973578 Z15.58
Y503.94035 Z15.5
X69.20777 Y503.89579 Z15.427
Y503.839174 Z15.361
Y503.77368 Z15.305
Y503.70035 Z15.26
Y503.62035 Z15.227
Y503.53591 Z15.207
Y503.45035 Z15.2
X69.20888 Y502.90035 F1000.
G3 X69.75999 Y502.351386 I0.55 J0.001
G2 X87.29222 Y487.55924 I0.031 J-17.75 F3600.
Y486.64368 I-2.712 J-0.458
X69.82111 Y471.850774 I-17.502 J2.958
G1 X14.82111 Y471.75535
G2 X-2.71222 Y486.546782 I-0.031 J17.75
Y487.46368 I2.712 J0.458
X14.75999 Y502.25535 I17.502 J-2.958
G1 X69.75999 Y502.351386
G3 X70.30888 Y502.90257 I-0.001 J0.55 F1000.
G1 X70.30777 Y503.45257
Y503.53813 Z15.207
Y503.62257 Z15.227
Y503.70257 Z15.26
Y503.77557 Z15.305
Y503.841376 Z15.361
Y503.89882 Z15.427
X70.30666 Y503.94257 Z15.5
Y503.97557 Z15.58
Y503.99579 Z15.664
Y504.00257 Z15.75
G0 Z23.2
X70.30777 Y503.684788
G1 Z19.2 F1200.
Z12.75
Y503.69257 Z12.664
Y503.71257 Z12.58
Y503.745184 Z12.5
Y503.790285 Z12.427
Y503.84591 Z12.361
X70.30666 Y503.912487 Z12.305
Y503.98568 Z12.26
Y504.06546 Z12.227
Y504.149174 Z12.207
Y504.23513 Z12.2
X70.30555 Y504.785588 F1000.
G3 X69.75444 Y505.33479 I-0.55 J-0.001
G1 X15.13999 Y505.23924 F3600.
X15.07777
G2 X-2.64222 Y522.95813 I0.031 J17.75
X15.07777 Y540.73884 I17.75 J0.031
G1 X70.07777 Y540.83513
G2 X87.85888 Y523.11581 I0.031 J-17.75
X70.13999 Y505.335083 I-17.75 J-0.031
G1 X69.75444 Y505.33479
G3 X69.20555 Y504.783578 I0.001 J-0.55 F1000.
G1 X69.20666 Y504.233588
Y504.14882 Z12.207
Y504.06368 Z12.227
Y503.984689 Z12.26
Y503.910285 Z12.305
X69.20777 Y503.84479 Z12.361
Y503.78813 Z12.427
Y503.74368 Z12.5
Y503.71035 Z12.58
Y503.69035 Z12.664
Y503.68368 Z12.75
G0 Z23.2
X69.20666 Y504.00035
G1 Z19.2 F1200.
Z12.75
Y503.99368 Z12.664
Y503.973578 Z12.58
Y503.94035 Z12.5
X69.20777 Y503.89579 Z12.427
Y503.839174 Z12.361
Y503.77368 Z12.305
Y503.70035 Z12.26
Y503.62035 Z12.227
Y503.53591 Z12.207
Y503.45035 Z12.2
X69.20888 Y502.90035 F1000.
G3 X69.75999 Y502.351386 I0.55 J0.001
G2 X87.29222 Y487.55924 I0.031 J-17.75 F3600.
Y486.64368 I-2.712 J-0.458
X69.82111 Y471.850774 I-17.502 J2.958
G1 X14.82111 Y471.75535
G2 X-2.71222 Y486.546782 I-0.031 J17.75
Y487.46368 I2.712 J0.458
X14.75999 Y502.25535 I17.502 J-2.958
G1 X69.75999 Y502.351386
G3 X70.30888 Y502.90257 I-0.001 J0.55 F1000.
G1 X70.30777 Y503.45257
Y503.53813 Z12.207
Y503.62257 Z12.227
Y503.70257 Z12.26
Y503.77557 Z12.305
Y503.841376 Z12.361
Y503.89882 Z12.427
X70.30666 Y503.94257 Z12.5
Y503.97557 Z12.58
Y503.99579 Z12.664
Y504.00257 Z12.75
G0 Z23.2
X70.30777 Y503.684788
G1 Z16.2 F1200.
Z9.75
Y503.69257 Z9.664
Y503.71257 Z9.58
Y503.745184 Z9.5
Y503.790285 Z9.427
Y503.84591 Z9.361
X70.30666 Y503.912487 Z9.305
Y503.98568 Z9.26
Y504.06546 Z9.227
Y504.149174 Z9.207
Y504.23513 Z9.2
X70.30555 Y504.785588 F1000.
G3 X69.75444 Y505.33479 I-0.55 J-0.001
G1 X15.13999 Y505.23924 F3600.
X15.07777
G2 X-2.64222 Y522.95813 I0.031 J17.75
X15.07777 Y540.73884 I17.75 J0.031
G1 X70.07777 Y540.83513
G2 X87.85888 Y523.11581 I0.031 J-17.75
X70.13999 Y505.335083 I-17.75 J-0.031
G1 X69.75444 Y505.33479
G3 X69.20555 Y504.783578 I0.001 J-0.55 F1000.
G1 X69.20666 Y504.233588
Y504.14882 Z9.207
Y504.06368 Z9.227
Y503.984689 Z9.26
Y503.910285 Z9.305
X69.20777 Y503.84479 Z9.361
Y503.78813 Z9.427
Y503.74368 Z9.5
Y503.71035 Z9.58
Y503.69035 Z9.664
Y503.68368 Z9.75
G0 Z23.2
X69.20666 Y504.00035
G1 Z16.2 F1200.
Z9.75
Y503.99368 Z9.664
Y503.973578 Z9.58
Y503.94035 Z9.5
X69.20777 Y503.89579 Z9.427
Y503.839174 Z9.361
Y503.77368 Z9.305
Y503.70035 Z9.26
Y503.62035 Z9.227
Y503.53591 Z9.207
Y503.45035 Z9.2
X69.20888 Y502.90035 F1000.
G3 X69.75999 Y502.351386 I0.55 J0.001
G2 X87.29222 Y487.55924 I0.031 J-17.75 F3600.
Y486.64368 I-2.712 J-0.458
X69.82111 Y471.850774 I-17.502 J2.958
G1 X14.82111 Y471.75535
G2 X-2.71222 Y486.546782 I-0.031 J17.75
Y487.46368 I2.712 J0.458
X14.75999 Y502.25535 I17.502 J-2.958
G1 X69.75999 Y502.351386
G3 X70.30888 Y502.90257 I-0.001 J0.55 F1000.
G1 X70.30777 Y503.45257
Y503.53813 Z9.207
Y503.62257 Z9.227
Y503.70257 Z9.26
Y503.77557 Z9.305
Y503.841376 Z9.361
Y503.89882 Z9.427
X70.30666 Y503.94257 Z9.5
Y503.97557 Z9.58
Y503.99579 Z9.664
Y504.00257 Z9.75
G0 Z23.2
X70.30777 Y503.684788
G1 Z13.2 F1200.
Z6.75
Y503.69257 Z6.664
Y503.71257 Z6.58
Y503.745184 Z6.5
Y503.790285 Z6.427
Y503.84591 Z6.361
X70.30666 Y503.912487 Z6.305
Y503.98568 Z6.26
Y504.06546 Z6.227
Y504.149174 Z6.207
Y504.23513 Z6.2
X70.30555 Y504.785588 F1000.
G3 X69.75444 Y505.33479 I-0.55 J-0.001
G1 X15.13999 Y505.23924 F3600.
X15.07777
G2 X-2.64222 Y522.95813 I0.031 J17.75
X15.07777 Y540.73884 I17.75 J0.031
G1 X70.07777 Y540.83513
G2 X87.85888 Y523.11581 I0.031 J-17.75
X70.13999 Y505.335083 I-17.75 J-0.031
G1 X69.75444 Y505.33479
G3 X69.20555 Y504.783578 I0.001 J-0.55 F1000.
G1 X69.20666 Y504.233588
Y504.14882 Z6.207
Y504.06368 Z6.227
Y503.984689 Z6.26
Y503.910285 Z6.305
X69.20777 Y503.84479 Z6.361
Y503.78813 Z6.427
Y503.74368 Z6.5
Y503.71035 Z6.58
Y503.69035 Z6.664
Y503.68368 Z6.75
G0 Z23.2
X69.20666 Y504.00035
G1 Z13.2 F1200.
Z6.75
Y503.99368 Z6.664
Y503.973578 Z6.58
Y503.94035 Z6.5
X69.20777 Y503.89579 Z6.427
Y503.839174 Z6.361
Y503.77368 Z6.305
Y503.70035 Z6.26
Y503.62035 Z6.227
Y503.53591 Z6.207
Y503.45035 Z6.2
X69.20888 Y502.90035 F1000.
G3 X69.75999 Y502.351386 I0.55 J0.001
G2 X87.29222 Y487.55924 I0.031 J-17.75 F3600.
Y486.64368 I-2.712 J-0.458
X69.82111 Y471.850774 I-17.502 J2.958
G1 X14.82111 Y471.75535
G2 X-2.71222 Y486.546782 I-0.031 J17.75
Y487.46368 I2.712 J0.458
X14.75999 Y502.25535 I17.502 J-2.958
G1 X69.75999 Y502.351386
G3 X70.30888 Y502.90257 I-0.001 J0.55 F1000.
G1 X70.30777 Y503.45257
Y503.53813 Z6.207
Y503.62257 Z6.227
Y503.70257 Z6.26
Y503.77557 Z6.305
Y503.841376 Z6.361
Y503.89882 Z6.427
X70.30666 Y503.94257 Z6.5
Y503.97557 Z6.58
Y503.99579 Z6.664
Y504.00257 Z6.75
G0 Z23.2
X70.30777 Y503.684788
G1 Z10.2 F1200.
Z3.75
Y503.69257 Z3.664
Y503.71257 Z3.58
Y503.745184 Z3.5
Y503.790285 Z3.427
Y503.84591 Z3.361
X70.30666 Y503.912487 Z3.305
Y503.98568 Z3.26
Y504.06546 Z3.227
Y504.149174 Z3.207
Y504.23513 Z3.2
X70.30555 Y504.785588 F1000.
G3 X69.75444 Y505.33479 I-0.55 J-0.001
G1 X15.13999 Y505.23924 F3600.
X15.07777
G2 X-2.64222 Y522.95813 I0.031 J17.75
X15.07777 Y540.73884 I17.75 J0.031
G1 X70.07777 Y540.83513
G2 X87.85888 Y523.11581 I0.031 J-17.75
X70.13999 Y505.335083 I-17.75 J-0.031
G1 X69.75444 Y505.33479
G3 X69.20555 Y504.783578 I0.001 J-0.55 F1000.
G1 X69.20666 Y504.233588
Y504.14882 Z3.207
Y504.06368 Z3.227
Y503.984689 Z3.26
Y503.910285 Z3.305
X69.20777 Y503.84479 Z3.361
Y503.78813 Z3.427
Y503.74368 Z3.5
Y503.71035 Z3.58
Y503.69035 Z3.664
Y503.68368 Z3.75
G0 Z23.2
X69.20666 Y504.00035
G1 Z10.2 F1200.
Z3.75
Y503.99368 Z3.664
Y503.973578 Z3.58
Y503.94035 Z3.5
X69.20777 Y503.89579 Z3.427
Y503.839174 Z3.361
Y503.77368 Z3.305
Y503.70035 Z3.26
Y503.62035 Z3.227
Y503.53591 Z3.207
Y503.45035 Z3.2
X69.20888 Y502.90035 F1000.
G3 X69.75999 Y502.351386 I0.55 J0.001
G2 X87.29222 Y487.55924 I0.031 J-17.75 F3600.
Y486.64368 I-2.712 J-0.458
X69.82111 Y471.850774 I-17.502 J2.958
G1 X14.82111 Y471.75535
G2 X-2.71222 Y486.546782 I-0.031 J17.75
Y487.46368 I2.712 J0.458
X14.75999 Y502.25535 I17.502 J-2.958
G1 X69.75999 Y502.351386
G3 X70.30888 Y502.90257 I-0.001 J0.55 F1000.
G1 X70.30777 Y503.45257
Y503.53813 Z3.207
Y503.62257 Z3.227
Y503.70257 Z3.26
Y503.77557 Z3.305
Y503.841376 Z3.361
Y503.89882 Z3.427
X70.30666 Y503.94257 Z3.5
Y503.97557 Z3.58
Y503.99579 Z3.664
Y504.00257 Z3.75
G0 Z23.2
X70.30777 Y503.684788
G1 Z7.2 F1200.
Z2.15
Y503.69257 Z2.064
Y503.71257 Z1.98
Y503.745184 Z1.9
Y503.790285 Z1.827
Y503.84591 Z1.761
X70.30666 Y503.912487 Z1.705
Y503.98568 Z1.66
Y504.06546 Z1.627
Y504.149174 Z1.607
Y504.23513 Z1.6
X70.30555 Y504.785588 F1000.
G3 X69.75444 Y505.33479 I-0.55 J-0.001
G1 X15.13999 Y505.23924 F3600.
X15.07777
G2 X-2.64222 Y522.95813 I0.031 J17.75
X15.07777 Y540.73884 I17.75 J0.031
G1 X70.07777 Y540.83513
G2 X87.85888 Y523.11581 I0.031 J-17.75
X70.13999 Y505.335083 I-17.75 J-0.031
G1 X69.75444 Y505.33479
G3 X69.20555 Y504.783578 I0.001 J-0.55 F1000.
G1 X69.20666 Y504.233588
Y504.14882 Z1.607
Y504.06368 Z1.627
Y503.984689 Z1.66
Y503.910285 Z1.705
X69.20777 Y503.84479 Z1.761
Y503.78813 Z1.827
Y503.74368 Z1.9
Y503.71035 Z1.98
Y503.69035 Z2.064
Y503.68368 Z2.15
G0 Z23.2
X69.20666 Y504.00035
G1 Z7.2 F1200.
Z2.15
Y503.99368 Z2.064
Y503.973578 Z1.98
Y503.94035 Z1.9
X69.20777 Y503.89579 Z1.827
Y503.839174 Z1.761
Y503.77368 Z1.705
Y503.70035 Z1.66
Y503.62035 Z1.627
Y503.53591 Z1.607
Y503.45035 Z1.6
X69.20888 Y502.90035 F1000.
G3 X69.75999 Y502.351386 I0.55 J0.001
G2 X87.29222 Y487.55924 I0.031 J-17.75 F3600.
Y486.64368 I-2.712 J-0.458
X69.82111 Y471.850774 I-17.502 J2.958
G1 X14.82111 Y471.75535
G2 X-2.71222 Y486.546782 I-0.031 J17.75
Y487.46368 I2.712 J0.458
X14.75999 Y502.25535 I17.502 J-2.958
G1 X69.75999 Y502.351386
G3 X70.30888 Y502.90257 I-0.001 J0.55 F1000.
G1 X70.30777 Y503.45257
Y503.53813 Z1.607
Y503.62257 Z1.627
Y503.70257 Z1.66
Y503.77557 Z1.705
Y503.841376 Z1.761
Y503.89882 Z1.827
X70.30666 Y503.94257 Z1.9
Y503.97557 Z1.98
Y503.99579 Z2.064
Y504.00257 Z2.15
G0 Z23.2
X70.30777 Y503.684788
G1 Z5.6 F1200.
Z0.55
Y503.69257 Z0.464
Y503.71257 Z0.38
Y503.745184 Z0.3
Y503.790285 Z0.227
Y503.84591 Z0.161
X70.30666 Y503.912487 Z0.105
Y503.98568 Z0.06
Y504.06546 Z0.027
Y504.149174 Z0.007
Y504.23513 Z0.
X70.30555 Y504.785588 F1000.
G3 X69.75444 Y505.33479 I-0.55 J-0.001
G1 X15.13999 Y505.23924 F3600.
X15.07777
G2 X-2.64222 Y522.95813 I0.031 J17.75
X15.07777 Y540.73884 I17.75 J0.031
G1 X70.07777 Y540.83513
G2 X87.85888 Y523.11581 I0.031 J-17.75
X70.13999 Y505.335083 I-17.75 J-0.031
G1 X69.75444 Y505.33479
G3 X69.20555 Y504.783578 I0.001 J-0.55 F1000.
G1 X69.20666 Y504.233588
Y504.14882 Z0.007
Y504.06368 Z0.027
Y503.984689 Z0.06
Y503.910285 Z0.105
X69.20777 Y503.84479 Z0.161
Y503.78813 Z0.227
Y503.74368 Z0.3
Y503.71035 Z0.38
Y503.69035 Z0.464
Y503.68368 Z0.55
G0 Z23.2
X69.20666 Y504.00035
G1 Z5.6 F1200.
Z0.55
Y503.99368 Z0.464
Y503.973578 Z0.38
Y503.94035 Z0.3
X69.20777 Y503.89579 Z0.227
Y503.839174 Z0.161
Y503.77368 Z0.105
Y503.70035 Z0.06
Y503.62035 Z0.027
Y503.53591 Z0.007
Y503.45035 Z0.
X69.20888 Y502.90035 F1000.
G3 X69.75999 Y502.351386 I0.55 J0.001
G2 X87.29222 Y487.55924 I0.031 J-17.75 F3600.
Y486.64368 I-2.712 J-0.458
X69.82111 Y471.850774 I-17.502 J2.958
G1 X14.82111 Y471.75535
G2 X-2.71222 Y486.546782 I-0.031 J17.75
Y487.46368 I2.712 J0.458
X14.75999 Y502.25535 I17.502 J-2.958
G1 X69.75999 Y502.351386
G3 X70.30888 Y502.9025

(2D CONTOUR4 2)
M5
M9
M1
T162 M6
S12000 M3
G54
M8
G0 X472.588177 Y187.347998
Z33.2
Z23.2
G1 Z22.2 F1200.
Z15.75
Y187.35577 Z15.664
Y187.37577 Z15.58
Y187.40844 Z15.5
Y187.45355 Z15.427
Y187.50911 Z15.361
X472.587076 Y187.57577 Z15.305
Y187.64888 Z15.26
Y187.72866 Z15.227
Y187.81244 Z15.207
Y187.89833 Z15.2
X472.585945 Y188.44888 F1000.
G3 X472.034854 Y188.99799 I-0.55 J-0.001
G1 X417.420359 Y188.90244 F3600.
X417.358157
G2 X399.638242 Y206.62133 I0.031 J17.75
X417.358157 Y224.402014 I17.75 J0.031
G1 X472.358157 Y224.49833
G2 X490.139258 Y206.778991 I0.031 J-17.75
X472.420359 Y188.99833 I-17.75 J-0.031
G1 X472.034854 Y188.99799
G3 X471.485965 Y188.44688 I0.001 J-0.55 F1000.
G1 X471.487066 Y187.89688
Y187.8122 Z15.207
Y187.72688 Z15.227
Y187.64799 Z15.26
Y187.57355 Z15.305
X471.488167 Y187.50799 Z15.361
Y187.45133 Z15.427
Y187.40688 Z15.5
Y187.37355 Z15.58
Y187.35355 Z15.664
Y187.34688 Z15.75
G0 Z23.2
X471.487066 Y187.66355
G1 Z22.2 F1200.
Z15.75
Y187.65688 Z15.664
Y187.63688 Z15.58
Y187.60355 Z15.5
X471.488167 Y187.55899 Z15.427
Y187.50244 Z15.361
Y187.43688 Z15.305
Y187.36355 Z15.26
Y187.28355 Z15.227
Y187.19911 Z15.207
Y187.11355 Z15.2
X471.489268 Y186.56355 F1000.
G3 X472.040349 Y186.01466 I0.55 J0.001
G2 X489.572662 Y171.22244 I0.031 J-17.75 F3600.
Y170.30688 I-2.712 J-0.458
X472.101561 Y155.513994 I-17.502 J2.958
G1 X417.101561 Y155.41855
G2 X399.568272 Y170.209992 I-0.031 J17.75
Y171.12688 I2.712 J0.458
X417.040349 Y185.91855 I17.502 J-2.958
G1 X472.040349 Y186.01466
G3 X472.589268 Y186.56577 I-0.001 J0.55 F1000.
G1 X472.588177 Y187.11577
Y187.20133 Z15.207
Y187.28577 Z15.227
Y187.36577 Z15.26
Y187.43877 Z15.305
Y187.50466 Z15.361
Y187.5622 Z15.427
X472.587076 Y187.60577 Z15.5
Y187.63877 Z15.58
Y187.65899 Z15.664
Y187.66577 Z15.75
G0 Z23.2
X472.588177 Y187.347998
G1 Z19.2 F1200.
Z12.75
Y187.35577 Z12.664
Y187.37577 Z12.58
Y187.40844 Z12.5
Y187.45355 Z12.427
Y187.50911 Z12.361
X472.587076 Y187.57577 Z12.305
Y187.64888 Z12.26
Y187.72866 Z12.227
Y187.81244 Z12.207
Y187.89833 Z12.2
X472.585945 Y188.44888 F1000.
G3 X472.034854 Y188.99799 I-0.55 J-0.001
G1 X417.420359 Y188.90244 F3600.
X417.358157
G2 X399.638242 Y206.62133 I0.031 J17.75
X417.358157 Y224.402014 I17.75 J0.031
G1 X472.358157 Y224.49833
G2 X490.139258 Y206.778991 I0.031 J-17.75
X472.420359 Y188.99833 I-17.75 J-0.031
G1 X472.034854 Y188.99799
G3 X471.485965 Y188.44688 I0.001 J-0.55 F1000.
G1 X471.487066 Y187.89688
Y187.8122 Z12.207
Y187.72688 Z12.227
Y187.64799 Z12.26
Y187.57355 Z12.305
X471.488167 Y187.50799 Z12.361
Y187.45133 Z12.427
Y187.40688 Z12.5
Y187.37355 Z12.58
Y187.35355 Z12.664
Y187.34688 Z12.75
G0 Z23.2
X471.487066 Y187.66355
G1 Z19.2 F1200.
Z12.75
Y187.65688 Z12.664
Y187.63688 Z12.58
Y187.60355 Z12.5
X471.488167 Y187.55899 Z12.427
Y187.50244 Z12.361
Y187.43688 Z12.305
Y187.36355 Z12.26
Y187.28355 Z12.227
Y187.19911 Z12.207
Y187.11355 Z12.2
X471.489268 Y186.56355 F1000.
G3 X472.040349 Y186.01466 I0.55 J0.001
G2 X489.572662 Y171.22244 I0.031 J-17.75 F3600.
Y170.30688 I-2.712 J-0.458
X472.101561 Y155.513994 I-17.502 J2.958
G1 X417.101561 Y155.41855
G2 X399.568272 Y170.209992 I-0.031 J17.75
Y171.12688 I2.712 J0.458
X417.040349 Y185.91855 I17.502 J-2.958
G1 X472.040349 Y186.01466
G3 X472.589268 Y186.56577 I-0.001 J0.55 F1000.
G1 X472.588177 Y187.11577
Y187.20133 Z12.207
Y187.28577 Z12.227
Y187.36577 Z12.26
Y187.43877 Z12.305
Y187.50466 Z12.361
Y187.5622 Z12.427
X472.587076 Y187.60577 Z12.5
Y187.63877 Z12.58
Y187.65899 Z12.664
Y187.66577 Z12.75
G0 Z23.2
X472.588177 Y187.347998
G1 Z16.2 F1200.
Z9.75
Y187.35577 Z9.664
Y187.37577 Z9.58
Y187.40844 Z9.5
Y187.45355 Z9.427
Y187.50911 Z9.361
X472.587076 Y187.57577 Z9.305
Y187.64888 Z9.26
Y187.72866 Z9.227
Y187.81244 Z9.207
Y187.89833 Z9.2
X472.585945 Y188.44888 F1000.
G3 X472.034854 Y188.99799 I-0.55 J-0.001
G1 X417.420359 Y188.90244 F3600.
X417.358157
G2 X399.638242 Y206.62133 I0.031 J17.75
X417.358157 Y224.402014 I17.75 J0.031
G1 X472.358157 Y224.49833
G2 X490.139258 Y206.778991 I0.031 J-17.75
X472.420359 Y188.99833 I-17.75 J-0.031
G1 X472.034854 Y188.99799
G3 X471.485965 Y188.44688 I0.001 J-0.55 F1000.
G1 X471.487066 Y187.89688
Y187.8122 Z9.207
Y187.72688 Z9.227
Y187.64799 Z9.26
Y187.57355 Z9.305
X471.488167 Y187.50799 Z9.361
Y187.45133 Z9.427
Y187.40688 Z9.5
Y187.37355 Z9.58
Y187.35355 Z9.664
Y187.34688 Z9.75
G0 Z23.2
X471.487066 Y187.66355
G1 Z16.2 F1200.
Z9.75
Y187.65688 Z9.664
Y187.63688 Z9.58
Y187.60355 Z9.5
X471.488167 Y187.55899 Z9.427
Y187.50244 Z9.361
Y187.43688 Z9.305
Y187.36355 Z9.26
Y187.28355 Z9.227
Y187.19911 Z9.207
Y187.11355 Z9.2
X471.489268 Y186.56355 F1000.
G3 X472.040349 Y186.01466 I0.55 J0.001
G2 X489.572662 Y171.22244 I0.031 J-17.75 F3600.
Y170.30688 I-2.712 J-0.458
X472.101561 Y155.513994 I-17.502 J2.958
G1 X417.101561 Y155.41855
G2 X399.568272 Y170.209992 I-0.031 J17.75
Y171.12688 I2.712 J0.458
X417.040349 Y185.91855 I17.502 J-2.958
G1 X472.040349 Y186.01466
G3 X472.589268 Y186.56577 I-0.001 J0.55 F1000.
G1 X472.588177 Y187.11577
Y187.20133 Z9.207
Y187.28577 Z9.227
Y187.36577 Z9.26
Y187.43877 Z9.305
Y187.50466 Z9.361
Y187.5622 Z9.427
X472.587076 Y187.60577 Z9.5
Y187.63877 Z9.58
Y187.65899 Z9.664
Y187.66577 Z9.75
G0 Z23.2
X472.588177 Y187.347998
G1 Z13.2 F1200.
Z6.75
Y187.35577 Z6.664
Y187.37577 Z6.58
Y187.40844 Z6.5
Y187.45355 Z6.427
Y187.50911 Z6.361
X472.587076 Y187.57577 Z6.305
Y187.64888 Z6.26
Y187.72866 Z6.227
Y187.81244 Z6.207
Y187.89833 Z6.2
X472.585945 Y188.44888 F1000.
G3 X472.034854 Y188.99799 I-0.55 J-0.001
G1 X417.420359 Y188.90244 F3600.
X417.358157
G2 X399.638242 Y206.62133 I0.031 J17.75
X417.358157 Y224.402014 I17.75 J0.031
G1 X472.358157 Y224.49833
G2 X490.139258 Y206.778991 I0.031 J-17.75
X472.420359 Y188.99833 I-17.75 J-0.031
G1 X472.034854 Y188.99799
G3 X471.485965 Y188.44688 I0.001 J-0.55 F1000.
G1 X471.487066 Y187.89688
Y187.8122 Z6.207
Y187.72688 Z6.227
Y187.64799 Z6.26
Y187.57355 Z6.305
X471.488167 Y187.50799 Z6.361
Y187.45133 Z6.427
Y187.40688 Z6.5
Y187.37355 Z6.58
Y187.35355 Z6.664
Y187.34688 Z6.75
G0 Z23.2
X471.487066 Y187.66355
G1 Z13.2 F1200.
Z6.75
Y187.65688 Z6.664
Y187.63688 Z6.58
Y187.60355 Z6.5
X471.488167 Y187.55899 Z6.427
Y187.50244 Z6.361
Y187.43688 Z6.305
Y187.36355 Z6.26
Y187.28355 Z6.227
Y187.19911 Z6.207
Y187.11355 Z6.2
X471.489268 Y186.56355 F1000.
G3 X472.040349 Y186.01466 I0.55 J0.001
G2 X489.572662 Y171.22244 I0.031 J-17.75 F3600.
Y170.30688 I-2.712 J-0.458
X472.101561 Y155.513994 I-17.502 J2.958
G1 X417.101561 Y155.41855
G2 X399.568272 Y170.209992 I-0.031 J17.75
Y171.12688 I2.712 J0.458
X417.040349 Y185.91855 I17.502 J-2.958
G1 X472.040349 Y186.01466
G3 X472.589268 Y186.56577 I-0.001 J0.55 F1000.
G1 X472.588177 Y187.11577
Y187.20133 Z6.207
Y187.28577 Z6.227
Y187.36577 Z6.26
Y187.43877 Z6.305
Y187.50466 Z6.361
Y187.5622 Z6.427
X472.587076 Y187.60577 Z6.5
Y187.63877 Z6.58
Y187.65899 Z6.664
Y187.66577 Z6.75
G0 Z23.2
X472.588177 Y187.347998
G1 Z10.2 F1200.
Z3.75
Y187.35577 Z3.664
Y187.37577 Z3.58
Y187.40844 Z3.5
Y187.45355 Z3.427
Y187.50911 Z3.361
X472.587076 Y187.57577 Z3.305
Y187.64888 Z3.26
Y187.72866 Z3.227
Y187.81244 Z3.207
Y187.89833 Z3.2
X472.585945 Y188.44888 F1000.
G3 X472.034854 Y188.99799 I-0.55 J-0.001
G1 X417.420359 Y188.90244 F3600.
X417.358157
G2 X399.638242 Y206.62133 I0.031 J17.75
X417.358157 Y224.402014 I17.75 J0.031
G1 X472.358157 Y224.49833
G2 X490.139258 Y206.778991 I0.031 J-17.75
X472.420359 Y188.99833 I-17.75 J-0.031
G1 X472.034854 Y188.99799
G3 X471.485965 Y188.44688 I0.001 J-0.55 F1000.
G1 X471.487066 Y187.89688
Y187.8122 Z3.207
Y187.72688 Z3.227
Y187.64799 Z3.26
Y187.57355 Z3.305
X471.488167 Y187.50799 Z3.361
Y187.45133 Z3.427
Y187.40688 Z3.5
Y187.37355 Z3.58
Y187.35355 Z3.664
Y187.34688 Z3.75
G0 Z23.2
X471.487066 Y187.66355
G1 Z10.2 F1200.
Z3.75
Y187.65688 Z3.664
Y187.63688 Z3.58
Y187.60355 Z3.5
X471.488167 Y187.55899 Z3.427
Y187.50244 Z3.361
Y187.43688 Z3.305
Y187.36355 Z3.26
Y187.28355 Z3.227
Y187.19911 Z3.207
Y187.11355 Z3.2
X471.489268 Y186.56355 F1000.
G3 X472.040349 Y186.01466 I0.55 J0.001
G2 X489.572662 Y171.22244 I0.031 J-17.75 F3600.
Y170.30688 I-2.712 J-0.458
X472.101561 Y155.513994 I-17.502 J2.958
G1 X417.101561 Y155.41855
G2 X399.568272 Y170.209992 I-0.031 J17.75
Y171.12688 I2.712 J0.458
X417.040349 Y185.91855 I17.502 J-2.958
G1 X472.040349 Y186.01466
G3 X472.589268 Y186.56577 I-0.001 J0.55 F1000.
G1 X472.588177 Y187.11577
Y187.20133 Z3.207
Y187.28577 Z3.227
Y187.36577 Z3.26
Y187.43877 Z3.305
Y187.50466 Z3.361
Y187.5622 Z3.427
X472.587076 Y187.60577 Z3.5
Y187.63877 Z3.58
Y187.65899 Z3.664
Y187.66577 Z3.75
G0 Z23.2
X472.588177 Y187.347998
G1 Z7.2 F1200.
Z2.15
Y187.35577 Z2.064
Y187.37577 Z1.98
Y187.40844 Z1.9
Y187.45355 Z1.827
Y187.50911 Z1.761
X472.587076 Y187.57577 Z1.705
Y187.64888 Z1.66
Y187.72866 Z1.627
Y187.81244 Z1.607
Y187.89833 Z1.6
X472.585945 Y188.44888 F1000.
G3 X472.034854 Y188.99799 I-0.55 J-0.001
G1 X417.420359 Y188.90244 F3600.
X417.358157
G2 X399.638242 Y206.62133 I0.031 J17.75
X417.358157 Y224.402014 I17.75 J0.031
G1 X472.358157 Y224.49833
G2 X490.139258 Y206.778991 I0.031 J-17.75
X472.420359 Y188.99833 I-17.75 J-0.031
G1 X472.034854 Y188.99799
G3 X471.485965 Y188.44688 I0.001 J-0.55 F1000.
G1 X471.487066 Y187.89688
Y187.8122 Z1.607
Y187.72688 Z1.627
Y187.64799 Z1.66
Y187.57355 Z1.705
X471.488167 Y187.50799 Z1.761
Y187.45133 Z1.827
Y187.40688 Z1.9
Y187.37355 Z1.98
Y187.35355 Z2.064
Y187.34688 Z2.15
G0 Z23.2
X471.487066 Y187.66355
G1 Z7.2 F1200.
Z2.15
Y187.65688 Z2.064
Y187.63688 Z1.98
Y187.60355 Z1.9
X471.488167 Y187.55899 Z1.827
Y187.50244 Z1.761
Y187.43688 Z1.705
Y187.36355 Z1.66
Y187.28355 Z1.627
Y187.19911 Z1.607
Y187.11355 Z1.6
X471.489268 Y186.56355 F1000.
G3 X472.040349 Y186.01466 I0.55 J0.001
G2 X489.572662 Y171.22244 I0.031 J-17.75 F3600.
Y170.30688 I-2.712 J-0.458
X472.101561 Y155.513994 I-17.502 J2.958
G1 X417.101561 Y155.41855
G2 X399.568272 Y170.209992 I-0.031 J17.75
Y171.12688 I2.712 J0.458
X417.040349 Y185.91855 I17.502 J-2.958
G1 X472.040349 Y186.01466
G3 X472.589268 Y186.56577 I-0.001 J0.55 F1000.
G1 X472.588177 Y187.11577
Y187.20133 Z1.607
Y187.28577 Z1.627
Y187.36577 Z1.66
Y187.43877 Z1.705
Y187.50466 Z1.761
Y187.5622 Z1.827
X472.587076 Y187.60577 Z1.9
Y187.63877 Z1.98
Y187.65899 Z2.064
Y187.66577 Z2.15
G0 Z23.2
X472.588177 Y187.347998
G1 Z5.6 F1200.
Z0.55
Y187.35577 Z0.464
Y187.37577 Z0.38
Y187.40844 Z0.3
Y187.45355 Z0.227
Y187.50911 Z0.161
X472.587076 Y187.57577 Z0.105
Y187.64888 Z0.06
Y187.72866 Z0.027
Y187.81244 Z0.007
Y187.89833 Z0.
X472.585945 Y188.44888 F1000.
G3 X472.034854 Y188.99799 I-0.55 J-0.001
G1 X417.420359 Y188.90244 F3600.
X417.358157
G2 X399.638242 Y206.62133 I0.031 J17.75
X417.358157 Y224.402014 I17.75 J0.031
G1 X472.358157 Y224.49833
G2 X490.139258 Y206.778991 I0.031 J-17.75
X472.420359 Y188.99833 I-17.75 J-0.031
G1 X472.034854 Y188.99799
G3 X471.485965 Y188.44688 I0.001 J-0.55 F1000.
G1 X471.487066 Y187.89688
Y187.8122 Z0.007
Y187.72688 Z0.027
Y187.64799 Z0.06
Y187.57355 Z0.105
X471.488167 Y187.50799 Z0.161
Y187.45133 Z0.227
Y187.40688 Z0.3
Y187.37355 Z0.38
Y187.35355 Z0.464
Y187.34688 Z0.55
G0 Z23.2
X471.487066 Y187.66355
G1 Z5.6 F1200.
Z0.55
Y187.65688 Z0.464
Y187.63688 Z0.38
Y187.60355 Z0.3
X471.488167 Y187.55899 Z0.227
Y187.50244 Z0.161
Y187.43688 Z0.105
Y187.36355 Z0.06
Y187.28355 Z0.027
Y187.19911 Z0.007
Y187.11355 Z0.
X471.489268 Y186.56355 F1000.
G3 X472.040349 Y186.01466 I0.55 J0.001
G2 X489.572662 Y171.22244 I0.031 J-17.75 F3600.
Y170.30688 I-2.712 J-0.458
X472.101561 Y155.513994 I-17.502 J2.958
G1 X417.101561 Y155.41855
G2 X399.568272 Y170.209992 I-0.031 J17.75
Y171.12688 I2.712 J0.458
X417.040349 Y185.91855 I17.502 J-2.958
G1 X472.040349 Y186.01466
G3 X472.589268 Y186.5657

(2D CONTOUR4 2)
M5
M9
M1
T162 M6
S12000 M3
G54
M8
G0 X472.588177 Y503.684788
Z33.2
Z23.2
G1 Z22.2 F1200.
Z15.75
Y503.69257 Z15.664
Y503.71257 Z15.58
Y503.745184 Z15.5
Y503.790285 Z15.427
Y503.84591 Z15.361
X472.587076 Y503.912487 Z15.305
Y503.98568 Z15.26
Y504.06546 Z15.227
Y504.149174 Z15.207
Y504.23513 Z15.2
X472.585945 Y504.785588 F1000.
G3 X472.034854 Y505.33479 I-0.55 J-0.001
G1 X417.420359 Y505.23924 F3600.
X417.358157
G2 X399.638242 Y522.95813 I0.031 J17.75
X417.358157 Y540.73884 I17.75 J0.031
G1 X472.358157 Y540.83513
G2 X490.139258 Y523.11581 I0.031 J-17.75
X472.420359 Y505.335083 I-17.75 J-0.031
G1 X472.034854 Y505.33479
G3 X471.485965 Y504.783578 I0.001 J-0.55 F1000.
G1 X471.487066 Y504.233588
Y504.14882 Z15.207
Y504.06368 Z15.227
Y503.984689 Z15.26
Y503.910285 Z15.305
X471.488167 Y503.84479 Z15.361
Y503.78813 Z15.427
Y503.74368 Z15.5
Y503.71035 Z15.58
Y503.69035 Z15.664
Y503.68368 Z15.75
G0 Z23.2
X471.487066 Y504.00035
G1 Z22.2 F1200.
Z15.75
Y503.99368 Z15.664
Y503.973578 Z15.58
Y503.94035 Z15.5
X471.488167 Y503.89579 Z15.427
Y503.839174 Z15.361
Y503.77368 Z15.305
Y503.70035 Z15.26
Y503.62035 Z15.227
Y503.53591 Z15.207
Y503.45035 Z15.2
X471.489268 Y502.90035 F1000.
G3 X472.040349 Y502.351386 I0.55 J0.001
G2 X489.572662 Y487.55924 I0.031 J-17.75 F3600.
Y486.64368 I-2.712 J-0.458
X472.101561 Y471.850774 I-17.502 J2.958
G1 X417.101561 Y471.75535
G2 X399.568272 Y486.546782 I-0.031 J17.75
Y487.46368 I2.712 J0.458
X417.040349 Y502.25535 I17.502 J-2.958
G1 X472.040349 Y502.351386
G3 X472.589268 Y502.90257 I-0.001 J0.55 F1000.
G1 X472.588177 Y503.45257
Y503.53813 Z15.207
Y503.62257 Z15.227
Y503.70257 Z15.26
Y503.77557 Z15.305
Y503.841376 Z15.361
Y503.89882 Z15.427
X472.587076 Y503.94257 Z15.5
Y503.97557 Z15.58
Y503.99579 Z15.664
Y504.00257 Z15.75
G0 Z23.2
X472.588177 Y503.684788
G1 Z19.2 F1200.
Z12.75
Y503.69257 Z12.664
Y503.71257 Z12.58
Y503.745184 Z12.5
Y503.790285 Z12.427
Y503.84591 Z12.361
X472.587076 Y503.912487 Z12.305
Y503.98568 Z12.26
Y504.06546 Z12.227
Y504.149174 Z12.207
Y504.23513 Z12.2
X472.585945 Y504.785588 F1000.
G3 X472.034854 Y505.33479 I-0.55 J-0.001
G1 X417.420359 Y505.23924 F3600.
X417.358157
G2 X399.638242 Y522.95813 I0.031 J17.75
X417.358157 Y540.73884 I17.75 J0.031
G1 X472.358157 Y540.83513
G2 X490.139258 Y523.11581 I0.031 J-17.75
X472.420359 Y505.335083 I-17.75 J-0.031
G1 X472.034854 Y505.33479
G3 X471.485965 Y504.783578 I0.001 J-0.55 F1000.
G1 X471.487066 Y504.233588
Y504.14882 Z12.207
Y504.06368 Z12.227
Y503.984689 Z12.26
Y503.910285 Z12.305
X471.488167 Y503.84479 Z12.361
Y503.78813 Z12.427
Y503.74368 Z12.5
Y503.71035 Z12.58
Y503.69035 Z12.664
Y503.68368 Z12.75
G0 Z23.2
X471.487066 Y504.00035
G1 Z19.2 F1200.
Z12.75
Y503.99368 Z12.664
Y503.973578 Z12.58
Y503.94035 Z12.5
X471.488167 Y503.89579 Z12.427
Y503.839174 Z12.361
Y503.77368 Z12.305
Y503.70035 Z12.26
Y503.62035 Z12.227
Y503.53591 Z12.207
Y503.45035 Z12.2
X471.489268 Y502.90035 F1000.
G3 X472.040349 Y502.351386 I0.55 J0.001
G2 X489.572662 Y487.55924 I0.031 J-17.75 F3600.
Y486.64368 I-2.712 J-0.458
X472.101561 Y471.850774 I-17.502 J2.958
G1 X417.101561 Y471.75535
G2 X399.568272 Y486.546782 I-0.031 J17.75
Y487.46368 I2.712 J0.458
X417.040349 Y502.25535 I17.502 J-2.958
G1 X472.040349 Y502.351386
G3 X472.589268 Y502.90257 I-0.001 J0.55 F1000.
G1 X472.588177 Y503.45257
Y503.53813 Z12.207
Y503.62257 Z12.227
Y503.70257 Z12.26
Y503.77557 Z12.305
Y503.841376 Z12.361
Y503.89882 Z12.427
X472.587076 Y503.94257 Z12.5
Y503.97557 Z12.58
Y503.99579 Z12.664
Y504.00257 Z12.75
G0 Z23.2
X472.588177 Y503.684788
G1 Z16.2 F1200.
Z9.75
Y503.69257 Z9.664
Y503.71257 Z9.58
Y503.745184 Z9.5
Y503.790285 Z9.427
Y503.84591 Z9.361
X472.587076 Y503.912487 Z9.305
Y503.98568 Z9.26
Y504.06546 Z9.227
Y504.149174 Z9.207
Y504.23513 Z9.2
X472.585945 Y504.785588 F1000.
G3 X472.034854 Y505.33479 I-0.55 J-0.001
G1 X417.420359 Y505.23924 F3600.
X417.358157
G2 X399.638242 Y522.95813 I0.031 J17.75
X417.358157 Y540.73884 I17.75 J0.031
G1 X472.358157 Y540.83513
G2 X490.139258 Y523.11581 I0.031 J-17.75
X472.420359 Y505.335083 I-17.75 J-0.031
G1 X472.034854 Y505.33479
G3 X471.485965 Y504.783578 I0.001 J-0.55 F1000.
G1 X471.487066 Y504.233588
Y504.14882 Z9.207
Y504.06368 Z9.227
Y503.984689 Z9.26
Y503.910285 Z9.305
X471.488167 Y503.84479 Z9.361
Y503.78813 Z9.427
Y503.74368 Z9.5
Y503.71035 Z9.58
Y503.69035 Z9.664
Y503.68368 Z9.75
G0 Z23.2
X471.487066 Y504.00035
G1 Z16.2 F1200.
Z9.75
Y503.99368 Z9.664
Y503.973578 Z9.58
Y503.94035 Z9.5
X471.488167 Y503.89579 Z9.427
Y503.839174 Z9.361
Y503.77368 Z9.305
Y503.70035 Z9.26
Y503.62035 Z9.227
Y503.53591 Z9.207
Y503.45035 Z9.2
X471.489268 Y502.90035 F1000.
G3 X472.040349 Y502.351386 I0.55 J0.001
G2 X489.572662 Y487.55924 I0.031 J-17.75 F3600.
Y486.64368 I-2.712 J-0.458
X472.101561 Y471.850774 I-17.502 J2.958
G1 X417.101561 Y471.75535
G2 X399.568272 Y486.546782 I-0.031 J17.75
Y487.46368 I2.712 J0.458
X417.040349 Y502.25535 I17.502 J-2.958
G1 X472.040349 Y502.351386
G3 X472.589268 Y502.90257 I-0.001 J0.55 F1000.
G1 X472.588177 Y503.45257
Y503.53813 Z9.207
Y503.62257 Z9.227
Y503.70257 Z9.26
Y503.77557 Z9.305
Y503.841376 Z9.361
Y503.89882 Z9.427
X472.587076 Y503.94257 Z9.5
Y503.97557 Z9.58
Y503.99579 Z9.664
Y504.00257 Z9.75
G0 Z23.2
X472.588177 Y503.684788
G1 Z13.2 F1200.
Z6.75
Y503.69257 Z6.664
Y503.71257 Z6.58
Y503.745184 Z6.5
Y503.790285 Z6.427
Y503.84591 Z6.361
X472.587076 Y503.912487 Z6.305
Y503.98568 Z6.26
Y504.06546 Z6.227
Y504.149174 Z6.207
Y504.23513 Z6.2
X472.585945 Y504.785588 F1000.
G3 X472.034854 Y505.33479 I-0.55 J-0.001
G1 X417.420359 Y505.23924 F3600.
X417.358157
G2 X399.638242 Y522.95813 I0.031 J17.75
X417.358157 Y540.73884 I17.75 J0.031
G1 X472.358157 Y540.83513
G2 X490.139258 Y523.11581 I0.031 J-17.75
X472.420359 Y505.335083 I-17.75 J-0.031
G1 X472.034854 Y505.33479
G3 X471.485965 Y504.783578 I0.001 J-0.55 F1000.
G1 X471.487066 Y504.233588
Y504.14882 Z6.207
Y504.06368 Z6.227
Y503.984689 Z6.26
Y503.910285 Z6.305
X471.488167 Y503.84479 Z6.361
Y503.78813 Z6.427
Y503.74368 Z6.5
Y503.71035 Z6.58
Y503.69035 Z6.664
Y503.68368 Z6.75
G0 Z23.2
X471.487066 Y504.00035
G1 Z13.2 F1200.
Z6.75
Y503.99368 Z6.664
Y503.973578 Z6.58
Y503.94035 Z6.5
X471.488167 Y503.89579 Z6.427
Y503.839174 Z6.361
Y503.77368 Z6.305
Y503.70035 Z6.26
Y503.62035 Z6.227
Y503.53591 Z6.207
Y503.45035 Z6.2
X471.489268 Y502.90035 F1000.
G3 X472.040349 Y502.351386 I0.55 J0.001
G2 X489.572662 Y487.55924 I0.031 J-17.75 F3600.
Y486.64368 I-2.712 J-0.458
X472.101561 Y471.850774 I-17.502 J2.958
G1 X417.101561 Y471.75535
G2 X399.568272 Y486.546782 I-0.031 J17.75
Y487.46368 I2.712 J0.458
X417.040349 Y502.25535 I17.502 J-2.958
G1 X472.040349 Y502.351386
G3 X472.589268 Y502.90257 I-0.001 J0.55 F1000.
G1 X472.588177 Y503.45257
Y503.53813 Z6.207
Y503.62257 Z6.227
Y503.70257 Z6.26
Y503.77557 Z6.305
Y503.841376 Z6.361
Y503.89882 Z6.427
X472.587076 Y503.94257 Z6.5
Y503.97557 Z6.58
Y503.99579 Z6.664
Y504.00257 Z6.75
G0 Z23.2
X472.588177 Y503.684788
G1 Z10.2 F1200.
Z3.75
Y503.69257 Z3.664
Y503.71257 Z3.58
Y503.745184 Z3.5
Y503.790285 Z3.427
Y503.84591 Z3.361
X472.587076 Y503.912487 Z3.305
Y503.98568 Z3.26
Y504.06546 Z3.227
Y504.149174 Z3.207
Y504.23513 Z3.2
X472.585945 Y504.785588 F1000.
G3 X472.034854 Y505.33479 I-0.55 J-0.001
G1 X417.420359 Y505.23924 F3600.
X417.358157
G2 X399.638242 Y522.95813 I0.031 J17.75
X417.358157 Y540.73884 I17.75 J0.031
G1 X472.358157 Y540.83513
G2 X490.139258 Y523.11581 I0.031 J-17.75
X472.420359 Y505.335083 I-17.75 J-0.031
G1 X472.034854 Y505.33479
G3 X471.485965 Y504.783578 I0.001 J-0.55 F1000.
G1 X471.487066 Y504.233588
Y504.14882 Z3.207
Y504.06368 Z3.227
Y503.984689 Z3.26
Y503.910285 Z3.305
X471.488167 Y503.84479 Z3.361
Y503.78813 Z3.427
Y503.74368 Z3.5
Y503.71035 Z3.58
Y503.69035 Z3.664
Y503.68368 Z3.75
G0 Z23.2
X471.487066 Y504.00035
G1 Z10.2 F1200.
Z3.75
Y503.99368 Z3.664
Y503.973578 Z3.58
Y503.94035 Z3.5
X471.488167 Y503.89579 Z3.427
Y503.839174 Z3.361
Y503.77368 Z3.305
Y503.70035 Z3.26
Y503.62035 Z3.227
Y503.53591 Z3.207
Y503.45035 Z3.2
X471.489268 Y502.90035 F1000.
G3 X472.040349 Y502.351386 I0.55 J0.001
G2 X489.572662 Y487.55924 I0.031 J-17.75 F3600.
Y486.64368 I-2.712 J-0.458
X472.101561 Y471.850774 I-17.502 J2.958
G1 X417.101561 Y471.75535
G2 X399.568272 Y486.546782 I-0.031 J17.75
Y487.46368 I2.712 J0.458
X417.040349 Y502.25535 I17.502 J-2.958
G1 X472.040349 Y502.351386
G3 X472.589268 Y502.90257 I-0.001 J0.55 F1000.
G1 X472.588177 Y503.45257
Y503.53813 Z3.207
Y503.62257 Z3.227
Y503.70257 Z3.26
Y503.77557 Z3.305
Y503.841376 Z3.361
Y503.89882 Z3.427
X472.587076 Y503.94257 Z3.5
Y503.97557 Z3.58
Y503.99579 Z3.664
Y504.00257 Z3.75
G0 Z23.2
X472.588177 Y503.684788
G1 Z7.2 F1200.
Z2.15
Y503.69257 Z2.064
Y503.71257 Z1.98
Y503.745184 Z1.9
Y503.790285 Z1.827
Y503.84591 Z1.761
X472.587076 Y503.912487 Z1.705
Y503.98568 Z1.66
Y504.06546 Z1.627
Y504.149174 Z1.607
Y504.23513 Z1.6
X472.585945 Y504.785588 F1000.
G3 X472.034854 Y505.33479 I-0.55 J-0.001
G1 X417.420359 Y505.23924 F3600.
X417.358157
G2 X399.638242 Y522.95813 I0.031 J17.75
X417.358157 Y540.73884 I17.75 J0.031
G1 X472.358157 Y540.83513
G2 X490.139258 Y523.11581 I0.031 J-17.75
X472.420359 Y505.335083 I-17.75 J-0.031
G1 X472.034854 Y505.33479
G3 X471.485965 Y504.783578 I0.001 J-0.55 F1000.
G1 X471.487066 Y504.233588
Y504.14882 Z1.607
Y504.06368 Z1.627
Y503.984689 Z1.66
Y503.910285 Z1.705
X471.488167 Y503.84479 Z1.761
Y503.78813 Z1.827
Y503.74368 Z1.9
Y503.71035 Z1.98
Y503.69035 Z2.064
Y503.68368 Z2.15
G0 Z23.2
X471.487066 Y504.00035
G1 Z7.2 F1200.
Z2.15
Y503.99368 Z2.064
Y503.973578 Z1.98
Y503.94035 Z1.9
X471.488167 Y503.89579 Z1.827
Y503.839174 Z1.761
Y503.77368 Z1.705
Y503.70035 Z1.66
Y503.62035 Z1.627
Y503.53591 Z1.607
Y503.45035 Z1.6
X471.489268 Y502.90035 F1000.
G3 X472.040349 Y502.351386 I0.55 J0.001
G2 X489.572662 Y487.55924 I0.031 J-17.75 F3600.
Y486.64368 I-2.712 J-0.458
X472.101561 Y471.850774 I-17.502 J2.958
G1 X417.101561 Y471.75535
G2 X399.568272 Y486.546782 I-0.031 J17.75
Y487.46368 I2.712 J0.458
X417.040349 Y502.25535 I17.502 J-2.958
G1 X472.040349 Y502.351386
G3 X472.589268 Y502.90257 I-0.001 J0.55 F1000.
G1 X472.588177 Y503.45257
Y503.53813 Z1.607
Y503.62257 Z1.627
Y503.70257 Z1.66
Y503.77557 Z1.705
Y503.841376 Z1.761
Y503.89882 Z1.827
X472.587076 Y503.94257 Z1.9
Y503.97557 Z1.98
Y503.99579 Z2.064
Y504.00257 Z2.15
G0 Z23.2
X472.588177 Y503.684788
G1 Z5.6 F1200.
Z0.55
Y503.69257 Z0.464
Y503.71257 Z0.38
Y503.745184 Z0.3
Y503.790285 Z0.227
Y503.84591 Z0.161
X472.587076 Y503.912487 Z0.105
Y503.98568 Z0.06
Y504.06546 Z0.027
Y504.149174 Z0.007
Y504.23513 Z0.
X472.585945 Y504.785588 F1000.
G3 X472.034854 Y505.33479 I-0.55 J-0.001
G1 X417.420359 Y505.23924 F3600.
X417.358157
G2 X399.638242 Y522.95813 I0.031 J17.75
X417.358157 Y540.73884 I17.75 J0.031
G1 X472.358157 Y540.83513
G2 X490.139258 Y523.11581 I0.031 J-17.75
X472.420359 Y505.335083 I-17.75 J-0.031
G1 X472.034854 Y505.33479
G3 X471.485965 Y504.783578 I0.001 J-0.55 F1000.
G1 X471.487066 Y504.233588
Y504.14882 Z0.007
Y504.06368 Z0.027
Y503.984689 Z0.06
Y503.910285 Z0.105
X471.488167 Y503.84479 Z0.161
Y503.78813 Z0.227
