(TRIANGLE)
(TRIANGLE)
(T161  D=6. CR=0. - ZMIN=0. - FLAT END MILL)
G90 G94 G91.1 G40 G49 G17
G21
G28 G91 Z0.
G90

(DRILL1)
M5
M9
T161 M6
S12000 M3
G54
M8
G0 X50. Y66.603
Z25.
Z15.
G98 G81 X50. Y66.603 Z0. R15. F1200.
X17.321 Y10.
X82.679
G80
Z25.

(DRILL1)
M5
M9
T161 M6
S12000 M3
G54
M8
G0 X50.0. Y159.7093
Z25.
Z15.
G98 G81 X50.0. Y159.7093 Z0. R15. F1200.
X17.3211 Y103.106

(DRILL1)
M5
M9
T161 M6
S12000 M3
G54
M8
G0 X159.332. Y66.6033
Z25.
Z15.
G98 G81 X159.332. Y66.6033 Z0. R15. F1200.
X126.6531 Y10.0

(DRILL1)
M5
M9
T161 M6
S12000 M3
G54
M8
G0 X159.332. Y159.7093
Z25.
Z15.
G98 G81 X159.332. Y159.7093 Z0. R15. F1200.
X126.6531 Y103.106

(DRILL1)
M5
M9
T161 M6
S12000 M3
G54
M8
G0 X268.664. Y66.6033
Z25.
Z15.
G98 G81 X268.664. Y66.6033 Z0. R15. F1200.
X235.9851 Y10.0

(DRILL1)
M5
M9
T161 M6
S12000 M3
G54
M8
G0 X268.664. Y159.7093
Z25.
Z15.
G98 G81 X268.664. Y159.7093 Z0. R15. F1200.
X235.9851 Y103.106

(DRILL1)
M5
M9
T161 M6
S12000 M3
G54
M8
G0 X377.996. Y66.6033
Z25.
Z15.
G98 G81 X377.996. Y66.6033 Z0. R15. F1200.
X345.317021 Y10.0

(DRILL1)
M5
M9
T161 M6
S12000 M3
G54
M8
G0 X377.996. Y159.7093
Z25.
Z15.
G98 G81 X377.996. Y159.7093 Z0. R15. F1200.
X345.317021 Y103.106

(DRILL1)
M5
M9
T161 M6
S12000 M3
G54
M8
G0 X487.328. Y66.6033
Z25.
Z15.
G98 G81 X487.328. Y66.6033 Z0. R15. F1200.
X454.6491 Y10.0

(DRILL1)
M5
M9
T161 M6
S12000 M3
G54
M8
G0 X487.328. Y159.7093
Z25.
Z15.
G98 G81 X487.328. Y159.7093 Z0. R15. F1200.
X454.6491 Y103.106

(DRILL1)
M5
M9
T161 M6
S12000 M3
G54
M8
G0 X596.66003. Y66.6033
Z25.
Z15.
G98 G81 X596.66003. Y66.6033 Z0. R15. F1200.
X563.9811 Y10.0

(DRILL1)
M5
M9
T161 M6
S12000 M3
G54
M8
G0 X596.66003. Y159.7093
Z25.
Z15.
G98 G81 X596.66003. Y159.7093 Z0. R15. F1200.
X563.9811 Y103.106

(DRILL1)
M5
M9
T161 M6
S12000 M3
G54
M8
G0 X705.992. Y66.6033
Z25.
Z15.
G98 G81 X705.992. Y66.6033 Z0. R15. F1200.
X673.3131 Y10.0

(DRILL1)
M5
M9
T161 M6
S12000 M3
G54
M8
G0 X705.992. Y159.7093
Z25.
Z15.
G98 G81 X705.992. Y159.7093 Z0. R15. F1200.
X673.3131 Y103.106

(DRILL1)
M5
M9
T161 M6
S12000 M3
G54
M8
G0 X815.324. Y66.6033
Z25.
Z15.
G98 G81 X815.324. Y66.6033 Z0. R15. F1200.
X782.644961 Y10.0

(DRILL1)
M5
M9
T161 M6
S12000 M3
G54
M8
G0 X815.324. Y159.7093
Z25.
Z15.
G98 G81 X815.324. Y159.7093 Z0. R15. F1200.
X782.644961 Y103.106

(DRILL1)
M5
M9
T161 M6
S12000 M3
G54
M8
G0 X924.656. Y66.6033
Z25.
Z15.
G98 G81 X924.656. Y66.6033 Z0. R15. F1200.
X891.9771 Y10.0

(DRILL1)
M5
M9
T161 M6
S12000 M3
G54
M8
G0 X924.656. Y159.7093
Z25.
Z15.
G98 G81 X924.656. Y159.7093 Z0. R15. F1200.
X891.9771 Y103.106

(DRILL1)
M5
M9
T161 M6
S12000 M3
G54
M8
G0 X1033.988. Y66.6033
Z25.
Z15.
G98 G81 X1033.988. Y66.6033 Z0. R15. F1200.
X1001.3091 Y10.0

(DRILL1)
M5
M9
T161 M6
S12000 M3
G54
M8
G0 X1033.988. Y159.7093
Z25.
Z15.
G98 G81 X1033.988. Y159.7093 Z0. R15. F1200.
X1001.3091 Y103.106

(2D CONTOUR1)
G0 X104.344 Y2.129
Z25.
Z15.
G1 Z14. F1200.
Z7.6
X104.337 Y2.126 Z7.506
X104.316 Y2.119 Z7.415
X104.282 Y2.108 Z7.328
X104.235 Y2.091 Z7.247
X104.178 Y2.072 Z7.176
X104.11 Y2.048 Z7.115
X104.034 Y2.022 Z7.065
X103.952 Y1.994 Z7.029
X103.865 Y1.964 Z7.007
X103.776 Y1.934 Z7.
X103.209 Y1.738 F1000.
G3 X102.837 Y0.976 I0.195 J-0.567
G2 X100. Y-3. I-2.837 J-0.976 F3600.
G1 X0.
G2 X-2.598 Y1.5 I0. J3.
G1 X47.402 Y88.103
X47.404 Y88.106
G2 X52.598 Y88.103 I2.596 J-1.504
G1 X102.598 Y1.5
G2 X102.837 Y0.976 I-2.598 J-1.5
G3 X103.599 Y0.604 I0.567 J0.195 F1000.
G1 X104.167 Y0.799
X104.256 Y0.829 Z7.007
X104.342 Y0.859 Z7.029
X104.424 Y0.887 Z7.065
X104.5 Y0.914 Z7.115
X104.568 Y0.937 Z7.176
X104.626 Y0.957 Z7.247
X104.672 Y0.973 Z7.328
X104.706 Y0.984 Z7.415
X104.727 Y0.992 Z7.506
X104.734 Y0.994 Z7.6
G0 Z15.
X104.344 Y2.129
G1 Z11. F1200.
Z4.6
X104.337 Y2.126 Z4.506
X104.316 Y2.119 Z4.415
X104.282 Y2.108 Z4.328
X104.235 Y2.091 Z4.247
X104.178 Y2.072 Z4.176
X104.11 Y2.048 Z4.115
X104.034 Y2.022 Z4.065
X103.952 Y1.994 Z4.029
X103.865 Y1.964 Z4.007
X103.776 Y1.934 Z4.
X103.209 Y1.738 F1000.
G3 X102.837 Y0.976 I0.195 J-0.567
G2 X100. Y-3. I-2.837 J-0.976 F3600.
G1 X0.
G2 X-2.598 Y1.5 I0. J3.
G1 X47.402 Y88.103
G2 X52.598 I2.598 J-1.5
G1 X102.598 Y1.5
G2 X102.837 Y0.976 I-2.598 J-1.5
G3 X103.599 Y0.604 I0.567 J0.195 F1000.
G1 X104.167 Y0.799
X104.256 Y0.829 Z4.007
X104.342 Y0.859 Z4.029
X104.424 Y0.887 Z4.065
X104.5 Y0.914 Z4.115
X104.568 Y0.937 Z4.176
X104.626 Y0.957 Z4.247
X104.672 Y0.973 Z4.328
X104.706 Y0.984 Z4.415
X104.727 Y0.992 Z4.506
X104.734 Y0.994 Z4.6
G0 Z15.
X104.344 Y2.129
G1 Z8. F1200.
Z1.6
X104.337 Y2.126 Z1.506
X104.316 Y2.119 Z1.415
X104.282 Y2.108 Z1.328
X104.235 Y2.091 Z1.247
X104.178 Y2.072 Z1.176
X104.11 Y2.048 Z1.115
X104.034 Y2.022 Z1.065
X103.952 Y1.994 Z1.029
X103.865 Y1.964 Z1.007
X103.776 Y1.934 Z1.
X103.209 Y1.738 F1000.
G3 X102.837 Y0.976 I0.195 J-0.567
G2 X100. Y-3. I-2.837 J-0.976 F3600.
G1 X0.
G2 X-2.598 Y1.5 I0. J3.
G1 X47.402 Y88.103
G2 X52.598 I2.598 J-1.5
G1 X102.598 Y1.5
G2 X102.837 Y0.976 I-2.598 J-1.5
G3 X103.599 Y0.604 I0.567 J0.195 F1000.
G1 X104.167 Y0.799
X104.256 Y0.829 Z1.007
X104.342 Y0.859 Z1.029
X104.424 Y0.887 Z1.065
X104.5 Y0.914 Z1.115
X104.568 Y0.937 Z1.176
X104.626 Y0.957 Z1.247
X104.672 Y0.973 Z1.328
X104.706 Y0.984 Z1.415
X104.727 Y0.992 Z1.506
X104.734 Y0.994 Z1.6
G0 Z15.
X104.344 Y2.129
G1 Z5. F1200.
Z0.6
X104.337 Y2.126 Z0.506
X104.316 Y2.119 Z0.415
X104.282 Y2.108 Z0.328
X104.235 Y2.091 Z0.247
X104.178 Y2.072 Z0.176
X104.11 Y2.048 Z0.115
X104.034 Y2.022 Z0.065
X103.952 Y1.994 Z0.029
X103.865 Y1.964 Z0.007
X103.776 Y1.934 Z0.
X103.209 Y1.738 F1000.
G3 X102.837 Y0.976 I0.195 J-0.567
G2 X100. Y-3. I-2.837 J-0.976 F3600.
G1 X0.
G2 X-2.598 Y1.5 I0. J3.
G1 X47.402 Y88.103
G2 X52.598 I2.598 J-1.5
G1 X102.598 Y1.5
G2 X102.837 Y0.976 I-2.598 J-1.5
G3 X103.599 Y0.604 I0.567 J0.195 F1000.
G1 X104.167 Y0.799
X104.256 Y0.829 Z0.007
X104.342 Y0.859 Z0.029
X104.424 Y0.887 Z0.065
X104.5 Y0.914 Z0.115
X104.568 Y0.937 Z0.176
X104.626 Y0.957 Z0.247
X104.672 Y0.973 Z0.328
X104.706 Y0.984 Z0.415
X104.727 Y0.992 Z0.506
X104.734 Y0.994 Z0.6
G0 Z25.

(2D CONTOUR1)
G0 X104.3444 Y95.2359
Z25.
Z15.
G1 Z14. F1200.
Z7.6
X104.3377 Y95.2326 Z7.506
X104.3166 Y95.2250069 Z7.415
X104.2822 Y95.2140058 Z7.328
X104.2355 Y95.197011 Z7.247
X104.1788 Y95.1782 Z7.176
X104.111 Y95.1548 Z7.115
X104.0344 Y95.1280062 Z7.065
X103.9522 Y95.1000064 Z7.029
X103.8655 Y95.074 Z7.007
X103.7766 Y95.044 Z7.
X103.2099 Y94.8448 F1000.
G3 X102.8377 Y94.0826 I0.195 J-0.567
G2 X100.0. Y90.106. I-2.837 J-0.976 F3600.
G1 X0.0.
G2 X-2.5988 Y94.6065 I0. J3.
G1 X47.4022 Y181.2093
X47.4044 Y181.2126
G2 X52.5988 Y181.2093 I2.596 J-1.504
G1 X102.5988 Y94.6065
G2 X102.8377 Y94.0826 I-2.598 J-1.5
G3 X103.5999 Y93.714 I0.567 J0.195 F1000.
G1 X104.1677 Y93.905019
X104.2566 Y93.9350059 Z7.007
X104.3422 Y93.9650049 Z7.029
X104.4244 Y93.9930047 Z7.065
X104.55 Y94.0200044 Z7.115
X104.5688 Y94.0437 Z7.176
X104.6266 Y94.0637 Z7.247
X104.6722 Y94.0793 Z7.328
X104.7066 Y94.0900044 Z7.415
X104.7277 Y94.0982 Z7.506
X104.7344 Y94.1000064 Z7.6
G0 Z15.
X104.3444 Y95.2359
G1 Z11. F1200.
Z4.6
X104.3377 Y95.2326 Z4.506
X104.3166 Y95.2250069 Z4.415
X104.2822 Y95.2140058 Z4.328
X104.2355 Y95.197011 Z4.247
X104.1788 Y95.1782 Z4.176
X104.111 Y95.1548 Z4.115
X104.0344 Y95.1280062 Z4.065
X103.9522 Y95.1000064 Z4.029
X103.8655 Y95.074 Z4.007
X103.7766 Y95.044 Z4.
X103.2099 Y94.8448 F1000.
G3 X102.8377 Y94.0826 I0.195 J-0.567
G2 X100.0. Y90.106. I-2.837 J-0.976 F3600.
G1 X0.0.
G2 X-2.5988 Y94.6065 I0. J3.
G1 X47.4022 Y181.2093
G2 X52.5988 I2.598 J-1.5
G1 X102.5988 Y94.6065
G2 X102.8377 Y94.0826 I-2.598 J-1.5
G3 X103.5999 Y93.714 I0.567 J0.195 F1000.
G1 X104.1677 Y93.905019
X104.2566 Y93.9350059 Z4.007
X104.3422 Y93.9650049 Z4.029
X104.4244 Y93.9930047 Z4.065
X104.55 Y94.0200044 Z4.115
X104.5688 Y94.0437 Z4.176
X104.6266 Y94.0637 Z4.247
X104.6722 Y94.0793 Z4.328
X104.7066 Y94.0900044 Z4.415
X104.7277 Y94.0982 Z4.506
X104.7344 Y94.1000064 Z4.6
G0 Z15.
X104.3444 Y95.2359
G1 Z8. F1200.
Z1.6
X104.3377 Y95.2326 Z1.506
X104.3166 Y95.2250069 Z1.415
X104.2822 Y95.2140058 Z1.328
X104.2355 Y95.197011 Z1.247
X104.1788 Y95.1782 Z1.176
X104.111 Y95.1548 Z1.115
X104.0344 Y95.1280062 Z1.065
X103.9522 Y95.1000064 Z1.029
X103.8655 Y95.074 Z1.007
X103.7766 Y95.044 Z1.
X103.2099 Y94.8448 F1000.
G3 X102.8377 Y94.0826 I0.195 J-0.567
G2 X100.0. Y90.106. I-2.837 J-0.976 F3600.
G1 X0.0.
G2 X-2.5988 Y94.6065 I0. J3.
G1 X47.4022 Y181.2093
G2 X52.5988 I2.598 J-1.5
G1 X102.5988 Y94.6065
G2 X102.8377 Y94.0826 I-2.598 J-1.5
G3 X103.5999 Y93.714 I0.567 J0.195 F1000.
G1 X104.1677 Y93.905019
X104.2566 Y93.9350059 Z1.007
X104.3422 Y93.9650049 Z1.029
X104.4244 Y93.9930047 Z1.065
X104.55 Y94.0200044 Z1.115
X104.5688 Y94.0437 Z1.176
X104.6266 Y94.0637 Z1.247
X104.6722 Y94.0793 Z1.328
X104.7066 Y94.0900044 Z1.415
X104.7277 Y94.0982 Z1.506
X104.7344 Y94.1000064 Z1.6
G0 Z15.
X104.3444 Y95.2359
G1 Z5. F1200.
Z0.6
X104.3377 Y95.2326 Z0.506
X104.3166 Y95.2250069 Z0.415
X104.2822 Y95.2140058 Z0.328
X104.2355 Y95.197011 Z0.247
X104.1788 Y95.1782 Z0.176
X104.111 Y95.1548 Z0.115
X104.0344 Y95.1280062 Z0.065
X103.9522 Y95.1000064 Z0.029
X103.8655 Y95.074 Z0.007
X103.7766 Y95.044 Z0.
X103.2099 Y94.8448 F1000.
G3 X102.8377 Y94.0826 I0.195 J-0.567
G2 X100.0. Y90.106. I-2.837 J-0.976 F3600.
G1 X0.0.
G2 X-2.5988 Y94.6065 I0. J3.
G1 X47.4022 Y181.2093
G2 X52.5988 I2.598 J-1.5
G1 X102.5988 Y94.6065
G2 X102.8377 Y94.0826 I-2.598 J-1.5
G3 X103.5999 Y93.714 I0.567 J0.195 F1000.
G1 X104.1677 Y93.905019
X104.2566 Y93.9350059 Z0.007
X104.3422 Y93.9650049 Z0.029
X104.4244 Y93.9930047 Z0.065
X104.55 Y94.0200044 Z0.115
X104.5688 Y94.0437 Z0.176
X104.6266 Y94.0637 Z0.247
X104.6722 Y94.0793 Z0.328
X104.7066 Y94.0900044 Z0.415
X104.7277 Y94.098

(2D CONTOUR1)
G0 X213.6764 Y2.1299
Z25.
Z15.
G1 Z14. F1200.
Z7.6
X213.6697 Y2.1266 Z7.506
X213.648016 Y2.1199 Z7.415
X213.6142 Y2.1088 Z7.328
X213.5675 Y2.0911 Z7.247
X213.510018 Y2.0722 Z7.176
X213.4421 Y2.0488 Z7.115
X213.3664 Y2.0222 Z7.065
X213.2842 Y1.9944 Z7.029
X213.196995 Y1.9644 Z7.007
X213.1086 Y1.9344 Z7.
X212.5419 Y1.7388 F1000.
G3 X212.1697 Y0.9766 I0.195 J-0.567
G2 X209.332. Y-3.0. I-2.837 J-0.976 F3600.
G1 X109.332.
G2 X106.7348 Y1.55 I0. J3.
G1 X156.734012 Y88.1033
X156.7364 Y88.1066
G2 X161.938 Y88.1033 I2.596 J-1.504
G1 X211.938 Y1.55
G2 X212.1697 Y0.9766 I-2.598 J-1.5
G3 X212.9319 Y0.6044 I0.567 J0.195 F1000.
G1 X213.4997 Y0.7999
X213.5886 Y0.8299 Z7.007
X213.674012 Y0.8599 Z7.029
X213.756014 Y0.8877 Z7.065
X213.8325 Y0.9144 Z7.115
X213.98 Y0.9377 Z7.176
X213.958016 Y0.9577 Z7.247
X214.0042 Y0.9733 Z7.328
X214.0386 Y0.9844 Z7.415
X214.058997 Y0.9922 Z7.506
X214.066014 Y0.9944 Z7.6
G0 Z15.
X213.6764 Y2.1299
G1 Z11. F1200.
Z4.6
X213.6697 Y2.1266 Z4.506
X213.648016 Y2.1199 Z4.415
X213.6142 Y2.1088 Z4.328
X213.5675 Y2.0911 Z4.247
X213.510018 Y2.0722 Z4.176
X213.4421 Y2.0488 Z4.115
X213.3664 Y2.0222 Z4.065
X213.2842 Y1.9944 Z4.029
X213.196995 Y1.9644 Z4.007
X213.1086 Y1.9344 Z4.
X212.5419 Y1.7388 F1000.
G3 X212.1697 Y0.9766 I0.195 J-0.567
G2 X209.332. Y-3.0. I-2.837 J-0.976 F3600.
G1 X109.332.
G2 X106.7348 Y1.55 I0. J3.
G1 X156.734012 Y88.1033
G2 X161.938 I2.598 J-1.5
G1 X211.938 Y1.55
G2 X212.1697 Y0.9766 I-2.598 J-1.5
G3 X212.9319 Y0.6044 I0.567 J0.195 F1000.
G1 X213.4997 Y0.7999
X213.5886 Y0.8299 Z4.007
X213.674012 Y0.8599 Z4.029
X213.756014 Y0.8877 Z4.065
X213.8325 Y0.9144 Z4.115
X213.98 Y0.9377 Z4.176
X213.958016 Y0.9577 Z4.247
X214.0042 Y0.9733 Z4.328
X214.0386 Y0.9844 Z4.415
X214.058997 Y0.9922 Z4.506
X214.066014 Y0.9944 Z4.6
G0 Z15.
X213.6764 Y2.1299
G1 Z8. F1200.
Z1.6
X213.6697 Y2.1266 Z1.506
X213.648016 Y2.1199 Z1.415
X213.6142 Y2.1088 Z1.328
X213.5675 Y2.0911 Z1.247
X213.510018 Y2.0722 Z1.176
X213.4421 Y2.0488 Z1.115
X213.3664 Y2.0222 Z1.065
X213.2842 Y1.9944 Z1.029
X213.196995 Y1.9644 Z1.007
X213.1086 Y1.9344 Z1.
X212.5419 Y1.7388 F1000.
G3 X212.1697 Y0.9766 I0.195 J-0.567
G2 X209.332. Y-3.0. I-2.837 J-0.976 F3600.
G1 X109.332.
G2 X106.7348 Y1.55 I0. J3.
G1 X156.734012 Y88.1033
G2 X161.938 I2.598 J-1.5
G1 X211.938 Y1.55
G2 X212.1697 Y0.9766 I-2.598 J-1.5
G3 X212.9319 Y0.6044 I0.567 J0.195 F1000.
G1 X213.4997 Y0.7999
X213.5886 Y0.8299 Z1.007
X213.674012 Y0.8599 Z1.029
X213.756014 Y0.8877 Z1.065
X213.8325 Y0.9144 Z1.115
X213.98 Y0.9377 Z1.176
X213.958016 Y0.9577 Z1.247
X214.0042 Y0.9733 Z1.328
X214.0386 Y0.9844 Z1.415
X214.058997 Y0.9922 Z1.506
X214.066014 Y0.9944 Z1.6
G0 Z15.
X213.6764 Y2.1299
G1 Z5. F1200.
Z0.6
X213.6697 Y2.1266 Z0.506
X213.648016 Y2.1199 Z0.415
X213.6142 Y2.1088 Z0.328
X213.5675 Y2.0911 Z0.247
X213.510018 Y2.0722 Z0.176
X213.4421 Y2.0488 Z0.115
X213.3664 Y2.0222 Z0.065
X213.2842 Y1.9944 Z0.029
X213.196995 Y1.9644 Z0.007
X213.1086 Y1.9344 Z0.
X212.5419 Y1.7388 F1000.
G3 X212.1697 Y0.9766 I0.195 J-0.567
G2 X209.332. Y-3.0. I-2.837 J-0.976 F3600.
G1 X109.332.
G2 X106.7348 Y1.55 I0. J3.
G1 X156.734012 Y88.1033
G2 X161.938 I2.598 J-1.5
G1 X211.938 Y1.55
G2 X212.1697 Y0.9766 I-2.598 J-1.5
G3 X212.9319 Y0.6044 I0.567 J0.195 F1000.
G1 X213.4997 Y0.7999
X213.5886 Y0.8299 Z0.007
X213.674012 Y0.8599 Z0.029
X213.756014 Y0.8877 Z0.065
X213.8325 Y0.9144 Z0.115
X213.98 Y0.9377 Z0.176
X213.958016 Y0.9577 Z0.247
X214.0042 Y0.9733 Z0.328
X214.0386 Y0.9844 Z0.415
X214.058997 Y0.992

(2D CONTOUR1)
G0 X213.6764 Y95.2359
Z25.
Z15.
G1 Z14. F1200.
Z7.6
X213.6697 Y95.2326 Z7.506
X213.648016 Y95.2250069 Z7.415
X213.6142 Y95.2140058 Z7.328
X213.5675 Y95.197011 Z7.247
X213.510018 Y95.1782 Z7.176
X213.4421 Y95.1548 Z7.115
X213.3664 Y95.1280062 Z7.065
X213.2842 Y95.1000064 Z7.029
X213.196995 Y95.074 Z7.007
X213.1086 Y95.044 Z7.
X212.5419 Y94.8448 F1000.
G3 X212.1697 Y94.0826 I0.195 J-0.567
G2 X209.332. Y90.106. I-2.837 J-0.976 F3600.
G1 X109.332.
G2 X106.7348 Y94.6065 I0. J3.
G1 X156.734012 Y181.2093
X156.7364 Y181.2126
G2 X161.938 Y181.2093 I2.596 J-1.504
G1 X211.938 Y94.6065
G2 X212.1697 Y94.0826 I-2.598 J-1.5
G3 X212.9319 Y93.714 I0.567 J0.195 F1000.
G1 X213.4997 Y93.905019
X213.5886 Y93.9350059 Z7.007
X213.674012 Y93.9650049 Z7.029
X213.756014 Y93.9930047 Z7.065
X213.8325 Y94.0200044 Z7.115
X213.98 Y94.0437 Z7.176
X213.958016 Y94.0637 Z7.247
X214.0042 Y94.0793 Z7.328
X214.0386 Y94.0900044 Z7.415
X214.058997 Y94.0982 Z7.506
X214.066014 Y94.1000064 Z7.6
G0 Z15.
X213.6764 Y95.2359
G1 Z11. F1200.
Z4.6
X213.6697 Y95.2326 Z4.506
X213.648016 Y95.2250069 Z4.415
X213.6142 Y95.2140058 Z4.328
X213.5675 Y95.197011 Z4.247
X213.510018 Y95.1782 Z4.176
X213.4421 Y95.1548 Z4.115
X213.3664 Y95.1280062 Z4.065
X213.2842 Y95.1000064 Z4.029
X213.196995 Y95.074 Z4.007
X213.1086 Y95.044 Z4.
X212.5419 Y94.8448 F1000.
G3 X212.1697 Y94.0826 I0.195 J-0.567
G2 X209.332. Y90.106. I-2.837 J-0.976 F3600.
G1 X109.332.
G2 X106.7348 Y94.6065 I0. J3.
G1 X156.734012 Y181.2093
G2 X161.938 I2.598 J-1.5
G1 X211.938 Y94.6065
G2 X212.1697 Y94.0826 I-2.598 J-1.5
G3 X212.9319 Y93.714 I0.567 J0.195 F1000.
G1 X213.4997 Y93.905019
X213.5886 Y93.9350059 Z4.007
X213.674012 Y93.9650049 Z4.029
X213.756014 Y93.9930047 Z4.065
X213.8325 Y94.0200044 Z4.115
X213.98 Y94.0437 Z4.176
X213.958016 Y94.0637 Z4.247
X214.0042 Y94.0793 Z4.328
X214.0386 Y94.0900044 Z4.415
X214.058997 Y94.0982 Z4.506
X214.066014 Y94.1000064 Z4.6
G0 Z15.
X213.6764 Y95.2359
G1 Z8. F1200.
Z1.6
X213.6697 Y95.2326 Z1.506
X213.648016 Y95.2250069 Z1.415
X213.6142 Y95.2140058 Z1.328
X213.5675 Y95.197011 Z1.247
X213.510018 Y95.1782 Z1.176
X213.4421 Y95.1548 Z1.115
X213.3664 Y95.1280062 Z1.065
X213.2842 Y95.1000064 Z1.029
X213.196995 Y95.074 Z1.007
X213.1086 Y95.044 Z1.
X212.5419 Y94.8448 F1000.
G3 X212.1697 Y94.0826 I0.195 J-0.567
G2 X209.332. Y90.106. I-2.837 J-0.976 F3600.
G1 X109.332.
G2 X106.7348 Y94.6065 I0. J3.
G1 X156.734012 Y181.2093
G2 X161.938 I2.598 J-1.5
G1 X211.938 Y94.6065
G2 X212.1697 Y94.0826 I-2.598 J-1.5
G3 X212.9319 Y93.714 I0.567 J0.195 F1000.
G1 X213.4997 Y93.905019
X213.5886 Y93.9350059 Z1.007
X213.674012 Y93.9650049 Z1.029
X213.756014 Y93.9930047 Z1.065
X213.8325 Y94.0200044 Z1.115
X213.98 Y94.0437 Z1.176
X213.958016 Y94.0637 Z1.247
X214.0042 Y94.0793 Z1.328
X214.0386 Y94.0900044 Z1.415
X214.058997 Y94.0982 Z1.506
X214.066014 Y94.1000064 Z1.6
G0 Z15.
X213.6764 Y95.2359
G1 Z5. F1200.
Z0.6
X213.6697 Y95.2326 Z0.506
X213.648016 Y95.2250069 Z0.415
X213.6142 Y95.2140058 Z0.328
X213.5675 Y95.197011 Z0.247
X213.510018 Y95.1782 Z0.176
X213.4421 Y95.1548 Z0.115
X213.3664 Y95.1280062 Z0.065
X213.2842 Y95.1000064 Z0.029
X213.196995 Y95.074 Z0.007
X213.1086 Y95.044 Z0.
X212.5419 Y94.8448 F1000.
G3 X212.1697 Y94.0826 I0.195 J-0.567
G2 X209.332. Y90.106. I-2.837 J-0.976 F3600.
G1 X109.332.
G2 X106.7348 Y94.6065 I0. J3.
G1 X156.734012 Y181.2093
G2 X161.938 I2.598 J-1.5
G1 X211.938 Y94.6065
G2 X212.1697 Y94.0826 I-2.598 J-1.5
G3 X212.9319 Y93.714 I0.567 J0.195 F1000.
G1 X213.4997 Y93.905019
X213.5886 Y93.9350059 Z0.007
X213.674012 Y93.9650049 Z0.029
X213.756014 Y93.9930047 Z0.065
X213.8325 Y94.0200044 Z0.115
X213.98 Y94.0437 Z0.176
X213.958016 Y94.0637 Z0.247
X214.0042 Y94.0793 Z0.328
X214.0386 Y94.0900044 Z0.415
X214.058997 Y94.098

(2D CONTOUR1)
G0 X323.0084 Y2.1299
Z25.
Z15.
G1 Z14. F1200.
Z7.6
X323.0017 Y2.1266 Z7.506
X322.986 Y2.1199 Z7.415
X322.945982 Y2.1088 Z7.328
X322.8995 Y2.0911 Z7.247
X322.8428 Y2.0722 Z7.176
X322.7741 Y2.0488 Z7.115
X322.6984 Y2.0222 Z7.065
X322.6162 Y1.9944 Z7.029
X322.5295 Y1.9644 Z7.007
X322.446 Y1.9344 Z7.
X321.8739 Y1.7388 F1000.
G3 X321.5017 Y0.9766 I0.195 J-0.567
G2 X318.664. Y-3.0. I-2.837 J-0.976 F3600.
G1 X218.664.
G2 X216.0668 Y1.55 I0. J3.
G1 X266.0662 Y88.1033
X266.0684 Y88.1066
G2 X271.2628 Y88.1033 I2.596 J-1.504
G1 X321.2628 Y1.55
G2 X321.5017 Y0.9766 I-2.598 J-1.5
G3 X322.2639 Y0.6044 I0.567 J0.195 F1000.
G1 X322.8317 Y0.7999
X322.919986 Y0.8299 Z7.007
X323.0062 Y0.8599 Z7.029
X323.0884 Y0.8877 Z7.065
X323.1645 Y0.9144 Z7.115
X323.2328 Y0.9377 Z7.176
X323.296 Y0.9577 Z7.247
X323.3362 Y0.9733 Z7.328
X323.376 Y0.9844 Z7.415
X323.3917 Y0.9922 Z7.506
X323.3984 Y0.9944 Z7.6
G0 Z15.
X323.0084 Y2.1299
G1 Z11. F1200.
Z4.6
X323.0017 Y2.1266 Z4.506
X322.986 Y2.1199 Z4.415
X322.945982 Y2.1088 Z4.328
X322.8995 Y2.0911 Z4.247
X322.8428 Y2.0722 Z4.176
X322.7741 Y2.0488 Z4.115
X322.6984 Y2.0222 Z4.065
X322.6162 Y1.9944 Z4.029
X322.5295 Y1.9644 Z4.007
X322.446 Y1.9344 Z4.
X321.8739 Y1.7388 F1000.
G3 X321.5017 Y0.9766 I0.195 J-0.567
G2 X318.664. Y-3.0. I-2.837 J-0.976 F3600.
G1 X218.664.
G2 X216.0668 Y1.55 I0. J3.
G1 X266.0662 Y88.1033
G2 X271.2628 I2.598 J-1.5
G1 X321.2628 Y1.55
G2 X321.5017 Y0.9766 I-2.598 J-1.5
G3 X322.2639 Y0.6044 I0.567 J0.195 F1000.
G1 X322.8317 Y0.7999
X322.919986 Y0.8299 Z4.007
X323.0062 Y0.8599 Z4.029
X323.0884 Y0.8877 Z4.065
X323.1645 Y0.9144 Z4.115
X323.2328 Y0.9377 Z4.176
X323.296 Y0.9577 Z4.247
X323.3362 Y0.9733 Z4.328
X323.376 Y0.9844 Z4.415
X323.3917 Y0.9922 Z4.506
X323.3984 Y0.9944 Z4.6
G0 Z15.
X323.0084 Y2.1299
G1 Z8. F1200.
Z1.6
X323.0017 Y2.1266 Z1.506
X322.986 Y2.1199 Z1.415
X322.945982 Y2.1088 Z1.328
X322.8995 Y2.0911 Z1.247
X322.8428 Y2.0722 Z1.176
X322.7741 Y2.0488 Z1.115
X322.6984 Y2.0222 Z1.065
X322.6162 Y1.9944 Z1.029
X322.5295 Y1.9644 Z1.007
X322.446 Y1.9344 Z1.
X321.8739 Y1.7388 F1000.
G3 X321.5017 Y0.9766 I0.195 J-0.567
G2 X318.664. Y-3.0. I-2.837 J-0.976 F3600.
G1 X218.664.
G2 X216.0668 Y1.55 I0. J3.
G1 X266.0662 Y88.1033
G2 X271.2628 I2.598 J-1.5
G1 X321.2628 Y1.55
G2 X321.5017 Y0.9766 I-2.598 J-1.5
G3 X322.2639 Y0.6044 I0.567 J0.195 F1000.
G1 X322.8317 Y0.7999
X322.919986 Y0.8299 Z1.007
X323.0062 Y0.8599 Z1.029
X323.0884 Y0.8877 Z1.065
X323.1645 Y0.9144 Z1.115
X323.2328 Y0.9377 Z1.176
X323.296 Y0.9577 Z1.247
X323.3362 Y0.9733 Z1.328
X323.376 Y0.9844 Z1.415
X323.3917 Y0.9922 Z1.506
X323.3984 Y0.9944 Z1.6
G0 Z15.
X323.0084 Y2.1299
G1 Z5. F1200.
Z0.6
X323.0017 Y2.1266 Z0.506
X322.986 Y2.1199 Z0.415
X322.945982 Y2.1088 Z0.328
X322.8995 Y2.0911 Z0.247
X322.8428 Y2.0722 Z0.176
X322.7741 Y2.0488 Z0.115
X322.6984 Y2.0222 Z0.065
X322.6162 Y1.9944 Z0.029
X322.5295 Y1.9644 Z0.007
X322.446 Y1.9344 Z0.
X321.8739 Y1.7388 F1000.
G3 X321.5017 Y0.9766 I0.195 J-0.567
G2 X318.664. Y-3.0. I-2.837 J-0.976 F3600.
G1 X218.664.
G2 X216.0668 Y1.55 I0. J3.
G1 X266.0662 Y88.1033
G2 X271.2628 I2.598 J-1.5
G1 X321.2628 Y1.55
G2 X321.5017 Y0.9766 I-2.598 J-1.5
G3 X322.2639 Y0.6044 I0.567 J0.195 F1000.
G1 X322.8317 Y0.7999
X322.919986 Y0.8299 Z0.007
X323.0062 Y0.8599 Z0.029
X323.0884 Y0.8877 Z0.065
X323.1645 Y0.9144 Z0.115
X323.2328 Y0.9377 Z0.176
X323.296 Y0.9577 Z0.247
X323.3362 Y0.9733 Z0.328
X323.376 Y0.9844 Z0.415
X323.3917 Y0.992

(2D CONTOUR1)
G0 X323.0084 Y95.2359
Z25.
Z15.
G1 Z14. F1200.
Z7.6
X323.0017 Y95.2326 Z7.506
X322.986 Y95.2250069 Z7.415
X322.945982 Y95.2140058 Z7.328
X322.8995 Y95.197011 Z7.247
X322.8428 Y95.1782 Z7.176
X322.7741 Y95.1548 Z7.115
X322.6984 Y95.1280062 Z7.065
X322.6162 Y95.1000064 Z7.029
X322.5295 Y95.074 Z7.007
X322.446 Y95.044 Z7.
X321.8739 Y94.8448 F1000.
G3 X321.5017 Y94.0826 I0.195 J-0.567
G2 X318.664. Y90.106. I-2.837 J-0.976 F3600.
G1 X218.664.
G2 X216.0668 Y94.6065 I0. J3.
G1 X266.0662 Y181.2093
X266.0684 Y181.2126
G2 X271.2628 Y181.2093 I2.596 J-1.504
G1 X321.2628 Y94.6065
G2 X321.5017 Y94.0826 I-2.598 J-1.5
G3 X322.2639 Y93.714 I0.567 J0.195 F1000.
G1 X322.8317 Y93.905019
X322.919986 Y93.9350059 Z7.007
X323.0062 Y93.9650049 Z7.029
X323.0884 Y93.9930047 Z7.065
X323.1645 Y94.0200044 Z7.115
X323.2328 Y94.0437 Z7.176
X323.296 Y94.0637 Z7.247
X323.3362 Y94.0793 Z7.328
X323.376 Y94.0900044 Z7.415
X323.3917 Y94.0982 Z7.506
X323.3984 Y94.1000064 Z7.6
G0 Z15.
X323.0084 Y95.2359
G1 Z11. F1200.
Z4.6
X323.0017 Y95.2326 Z4.506
X322.986 Y95.2250069 Z4.415
X322.945982 Y95.2140058 Z4.328
X322.8995 Y95.197011 Z4.247
X322.8428 Y95.1782 Z4.176
X322.7741 Y95.1548 Z4.115
X322.6984 Y95.1280062 Z4.065
X322.6162 Y95.1000064 Z4.029
X322.5295 Y95.074 Z4.007
X322.446 Y95.044 Z4.
X321.8739 Y94.8448 F1000.
G3 X321.5017 Y94.0826 I0.195 J-0.567
G2 X318.664. Y90.106. I-2.837 J-0.976 F3600.
G1 X218.664.
G2 X216.0668 Y94.6065 I0. J3.
G1 X266.0662 Y181.2093
G2 X271.2628 I2.598 J-1.5
G1 X321.2628 Y94.6065
G2 X321.5017 Y94.0826 I-2.598 J-1.5
G3 X322.2639 Y93.714 I0.567 J0.195 F1000.
G1 X322.8317 Y93.905019
X322.919986 Y93.9350059 Z4.007
X323.0062 Y93.9650049 Z4.029
X323.0884 Y93.9930047 Z4.065
X323.1645 Y94.0200044 Z4.115
X323.2328 Y94.0437 Z4.176
X323.296 Y94.0637 Z4.247
X323.3362 Y94.0793 Z4.328
X323.376 Y94.0900044 Z4.415
X323.3917 Y94.0982 Z4.506
X323.3984 Y94.1000064 Z4.6
G0 Z15.
X323.0084 Y95.2359
G1 Z8. F1200.
Z1.6
X323.0017 Y95.2326 Z1.506
X322.986 Y95.2250069 Z1.415
X322.945982 Y95.2140058 Z1.328
X322.8995 Y95.197011 Z1.247
X322.8428 Y95.1782 Z1.176
X322.7741 Y95.1548 Z1.115
X322.6984 Y95.1280062 Z1.065
X322.6162 Y95.1000064 Z1.029
X322.5295 Y95.074 Z1.007
X322.446 Y95.044 Z1.
X321.8739 Y94.8448 F1000.
G3 X321.5017 Y94.0826 I0.195 J-0.567
G2 X318.664. Y90.106. I-2.837 J-0.976 F3600.
G1 X218.664.
G2 X216.0668 Y94.6065 I0. J3.
G1 X266.0662 Y181.2093
G2 X271.2628 I2.598 J-1.5
G1 X321.2628 Y94.6065
G2 X321.5017 Y94.0826 I-2.598 J-1.5
G3 X322.2639 Y93.714 I0.567 J0.195 F1000.
G1 X322.8317 Y93.905019
X322.919986 Y93.9350059 Z1.007
X323.0062 Y93.9650049 Z1.029
X323.0884 Y93.9930047 Z1.065
X323.1645 Y94.0200044 Z1.115
X323.2328 Y94.0437 Z1.176
X323.296 Y94.0637 Z1.247
X323.3362 Y94.0793 Z1.328
X323.376 Y94.0900044 Z1.415
X323.3917 Y94.0982 Z1.506
X323.3984 Y94.1000064 Z1.6
G0 Z15.
X323.0084 Y95.2359
G1 Z5. F1200.
Z0.6
X323.0017 Y95.2326 Z0.506
X322.986 Y95.2250069 Z0.415
X322.945982 Y95.2140058 Z0.328
X322.8995 Y95.197011 Z0.247
X322.8428 Y95.1782 Z0.176
X322.7741 Y95.1548 Z0.115
X322.6984 Y95.1280062 Z0.065
X322.6162 Y95.1000064 Z0.029
X322.5295 Y95.074 Z0.007
X322.446 Y95.044 Z0.
X321.8739 Y94.8448 F1000.
G3 X321.5017 Y94.0826 I0.195 J-0.567
G2 X318.664. Y90.106. I-2.837 J-0.976 F3600.
G1 X218.664.
G2 X216.0668 Y94.6065 I0. J3.
G1 X266.0662 Y181.2093
G2 X271.2628 I2.598 J-1.5
G1 X321.2628 Y94.6065
G2 X321.5017 Y94.0826 I-2.598 J-1.5
G3 X322.2639 Y93.714 I0.567 J0.195 F1000.
G1 X322.8317 Y93.905019
X322.919986 Y93.9350059 Z0.007
X323.0062 Y93.9650049 Z0.029
X323.0884 Y93.9930047 Z0.065
X323.1645 Y94.0200044 Z0.115
X323.2328 Y94.0437 Z0.176
X323.296 Y94.0637 Z0.247
X323.3362 Y94.0793 Z0.328
X323.376 Y94.0900044 Z0.415
X323.3917 Y94.098

(2D CONTOUR1)
G0 X432.344 Y2.1299
Z25.
Z15.
G1 Z14. F1200.
Z7.6
X432.3337 Y2.1266 Z7.506
X432.3126 Y2.1199 Z7.415
X432.2782 Y2.1088 Z7.328
X432.231025 Y2.0911 Z7.247
X432.1748 Y2.0722 Z7.176
X432.106021 Y2.0488 Z7.115
X432.034 Y2.0222 Z7.065
X431.9482 Y1.9944 Z7.029
X431.8615 Y1.9644 Z7.007
X431.7726 Y1.9344 Z7.
X431.205029 Y1.7388 F1000.
G3 X430.8337 Y0.9766 I0.195 J-0.567
G2 X427.996. Y-3.0. I-2.837 J-0.976 F3600.
G1 X327.996.
G2 X325.3988 Y1.55 I0. J3.
G1 X375.3982 Y88.1033
X375.44 Y88.1066
G2 X380.5948 Y88.1033 I2.596 J-1.504
G1 X430.5948 Y1.55
G2 X430.8337 Y0.9766 I-2.598 J-1.5
G3 X431.5959 Y0.6044 I0.567 J0.195 F1000.
G1 X432.1637 Y0.7999
X432.2526 Y0.8299 Z7.007
X432.3382 Y0.8599 Z7.029
X432.424 Y0.8877 Z7.065
X432.4965 Y0.9144 Z7.115
X432.5648 Y0.9377 Z7.176
X432.6226 Y0.9577 Z7.247
X432.6682 Y0.9733 Z7.328
X432.7026 Y0.9844 Z7.415
X432.7237 Y0.9922 Z7.506
X432.734 Y0.9944 Z7.6
G0 Z15.
X432.344 Y2.1299
G1 Z11. F1200.
Z4.6
X432.3337 Y2.1266 Z4.506
X432.3126 Y2.1199 Z4.415
X432.2782 Y2.1088 Z4.328
X432.231025 Y2.0911 Z4.247
X432.1748 Y2.0722 Z4.176
X432.106021 Y2.0488 Z4.115
X432.034 Y2.0222 Z4.065
X431.9482 Y1.9944 Z4.029
X431.8615 Y1.9644 Z4.007
X431.7726 Y1.9344 Z4.
X431.205029 Y1.7388 F1000.
G3 X430.8337 Y0.9766 I0.195 J-0.567
G2 X427.996. Y-3.0. I-2.837 J-0.976 F3600.
G1 X327.996.
G2 X325.3988 Y1.55 I0. J3.
G1 X375.3982 Y88.1033
G2 X380.5948 I2.598 J-1.5
G1 X430.5948 Y1.55
G2 X430.8337 Y0.9766 I-2.598 J-1.5
G3 X431.5959 Y0.6044 I0.567 J0.195 F1000.
G1 X432.1637 Y0.7999
X432.2526 Y0.8299 Z4.007
X432.3382 Y0.8599 Z4.029
X432.424 Y0.8877 Z4.065
X432.4965 Y0.9144 Z4.115
X432.5648 Y0.9377 Z4.176
X432.6226 Y0.9577 Z4.247
X432.6682 Y0.9733 Z4.328
X432.7026 Y0.9844 Z4.415
X432.7237 Y0.9922 Z4.506
X432.734 Y0.9944 Z4.6
G0 Z15.
X432.344 Y2.1299
G1 Z8. F1200.
Z1.6
X432.3337 Y2.1266 Z1.506
X432.3126 Y2.1199 Z1.415
X432.2782 Y2.1088 Z1.328
X432.231025 Y2.0911 Z1.247
X432.1748 Y2.0722 Z1.176
X432.106021 Y2.0488 Z1.115
X432.034 Y2.0222 Z1.065
X431.9482 Y1.9944 Z1.029
X431.8615 Y1.9644 Z1.007
X431.7726 Y1.9344 Z1.
X431.205029 Y1.7388 F1000.
G3 X430.8337 Y0.9766 I0.195 J-0.567
G2 X427.996. Y-3.0. I-2.837 J-0.976 F3600.
G1 X327.996.
G2 X325.3988 Y1.55 I0. J3.
G1 X375.3982 Y88.1033
G2 X380.5948 I2.598 J-1.5
G1 X430.5948 Y1.55
G2 X430.8337 Y0.9766 I-2.598 J-1.5
G3 X431.5959 Y0.6044 I0.567 J0.195 F1000.
G1 X432.1637 Y0.7999
X432.2526 Y0.8299 Z1.007
X432.3382 Y0.8599 Z1.029
X432.424 Y0.8877 Z1.065
X432.4965 Y0.9144 Z1.115
X432.5648 Y0.9377 Z1.176
X432.6226 Y0.9577 Z1.247
X432.6682 Y0.9733 Z1.328
X432.7026 Y0.9844 Z1.415
X432.7237 Y0.9922 Z1.506
X432.734 Y0.9944 Z1.6
G0 Z15.
X432.344 Y2.1299
G1 Z5. F1200.
Z0.6
X432.3337 Y2.1266 Z0.506
X432.3126 Y2.1199 Z0.415
X432.2782 Y2.1088 Z0.328
X432.231025 Y2.0911 Z0.247
X432.1748 Y2.0722 Z0.176
X432.106021 Y2.0488 Z0.115
X432.034 Y2.0222 Z0.065
X431.9482 Y1.9944 Z0.029
X431.8615 Y1.9644 Z0.007
X431.7726 Y1.9344 Z0.
X431.205029 Y1.7388 F1000.
G3 X430.8337 Y0.9766 I0.195 J-0.567
G2 X427.996. Y-3.0. I-2.837 J-0.976 F3600.
G1 X327.996.
G2 X325.3988 Y1.55 I0. J3.
G1 X375.3982 Y88.1033
G2 X380.5948 I2.598 J-1.5
G1 X430.5948 Y1.55
G2 X430.8337 Y0.9766 I-2.598 J-1.5
G3 X431.5959 Y0.6044 I0.567 J0.195 F1000.
G1 X432.1637 Y0.7999
X432.2526 Y0.8299 Z0.007
X432.3382 Y0.8599 Z0.029
X432.424 Y0.8877 Z0.065
X432.4965 Y0.9144 Z0.115
X432.5648 Y0.9377 Z0.176
X432.6226 Y0.9577 Z0.247
X432.6682 Y0.9733 Z0.328
X432.7026 Y0.9844 Z0.415
X432.7237 Y0.992

(2D CONTOUR1)
G0 X432.344 Y95.2359
Z25.
Z15.
G1 Z14. F1200.
Z7.6
X432.3337 Y95.2326 Z7.506
X432.3126 Y95.2250069 Z7.415
X432.2782 Y95.2140058 Z7.328
X432.231025 Y95.197011 Z7.247
X432.1748 Y95.1782 Z7.176
X432.106021 Y95.1548 Z7.115
X432.034 Y95.1280062 Z7.065
X431.9482 Y95.1000064 Z7.029
X431.8615 Y95.074 Z7.007
X431.7726 Y95.044 Z7.
X431.205029 Y94.8448 F1000.
G3 X430.8337 Y94.0826 I0.195 J-0.567
G2 X427.996. Y90.106. I-2.837 J-0.976 F3600.
G1 X327.996.
G2 X325.3988 Y94.6065 I0. J3.
G1 X375.3982 Y181.2093
X375.44 Y181.2126
G2 X380.5948 Y181.2093 I2.596 J-1.504
G1 X430.5948 Y94.6065
G2 X430.8337 Y94.0826 I-2.598 J-1.5
G3 X431.5959 Y93.714 I0.567 J0.195 F1000.
G1 X432.1637 Y93.905019
X432.2526 Y93.9350059 Z7.007
X432.3382 Y93.9650049 Z7.029
X432.424 Y93.9930047 Z7.065
X432.4965 Y94.0200044 Z7.115
X432.5648 Y94.0437 Z7.176
X432.6226 Y94.0637 Z7.247
X432.6682 Y94.0793 Z7.328
X432.7026 Y94.0900044 Z7.415
X432.7237 Y94.0982 Z7.506
X432.734 Y94.1000064 Z7.6
G0 Z15.
X432.344 Y95.2359
G1 Z11. F1200.
Z4.6
X432.3337 Y95.2326 Z4.506
X432.3126 Y95.2250069 Z4.415
X432.2782 Y95.2140058 Z4.328
X432.231025 Y95.197011 Z4.247
X432.1748 Y95.1782 Z4.176
X432.106021 Y95.1548 Z4.115
X432.034 Y95.1280062 Z4.065
X431.9482 Y95.1000064 Z4.029
X431.8615 Y95.074 Z4.007
X431.7726 Y95.044 Z4.
X431.205029 Y94.8448 F1000.
G3 X430.8337 Y94.0826 I0.195 J-0.567
G2 X427.996. Y90.106. I-2.837 J-0.976 F3600.
G1 X327.996.
G2 X325.3988 Y94.6065 I0. J3.
G1 X375.3982 Y181.2093
G2 X380.5948 I2.598 J-1.5
G1 X430.5948 Y94.6065
G2 X430.8337 Y94.0826 I-2.598 J-1.5
G3 X431.5959 Y93.714 I0.567 J0.195 F1000.
G1 X432.1637 Y93.905019
X432.2526 Y93.9350059 Z4.007
X432.3382 Y93.9650049 Z4.029
X432.424 Y93.9930047 Z4.065
X432.4965 Y94.0200044 Z4.115
X432.5648 Y94.0437 Z4.176
X432.6226 Y94.0637 Z4.247
X432.6682 Y94.0793 Z4.328
X432.7026 Y94.0900044 Z4.415
X432.7237 Y94.0982 Z4.506
X432.734 Y94.1000064 Z4.6
G0 Z15.
X432.344 Y95.2359
G1 Z8. F1200.
Z1.6
X432.3337 Y95.2326 Z1.506
X432.3126 Y95.2250069 Z1.415
X432.2782 Y95.2140058 Z1.328
X432.231025 Y95.197011 Z1.247
X432.1748 Y95.1782 Z1.176
X432.106021 Y95.1548 Z1.115
X432.034 Y95.1280062 Z1.065
X431.9482 Y95.1000064 Z1.029
X431.8615 Y95.074 Z1.007
X431.7726 Y95.044 Z1.
X431.205029 Y94.8448 F1000.
G3 X430.8337 Y94.0826 I0.195 J-0.567
G2 X427.996. Y90.106. I-2.837 J-0.976 F3600.
G1 X327.996.
G2 X325.3988 Y94.6065 I0. J3.
G1 X375.3982 Y181.2093
G2 X380.5948 I2.598 J-1.5
G1 X430.5948 Y94.6065
G2 X430.8337 Y94.0826 I-2.598 J-1.5
G3 X431.5959 Y93.714 I0.567 J0.195 F1000.
G1 X432.1637 Y93.905019
X432.2526 Y93.9350059 Z1.007
X432.3382 Y93.9650049 Z1.029
X432.424 Y93.9930047 Z1.065
X432.4965 Y94.0200044 Z1.115
X432.5648 Y94.0437 Z1.176
X432.6226 Y94.0637 Z1.247
X432.6682 Y94.0793 Z1.328
X432.7026 Y94.0900044 Z1.415
X432.7237 Y94.0982 Z1.506
X432.734 Y94.1000064 Z1.6
G0 Z15.
X432.344 Y95.2359
G1 Z5. F1200.
Z0.6
X432.3337 Y95.2326 Z0.506
X432.3126 Y95.2250069 Z0.415
X432.2782 Y95.2140058 Z0.328
X432.231025 Y95.197011 Z0.247
X432.1748 Y95.1782 Z0.176
X432.106021 Y95.1548 Z0.115
X432.034 Y95.1280062 Z0.065
X431.9482 Y95.1000064 Z0.029
X431.8615 Y95.074 Z0.007
X431.7726 Y95.044 Z0.
X431.205029 Y94.8448 F1000.
G3 X430.8337 Y94.0826 I0.195 J-0.567
G2 X427.996. Y90.106. I-2.837 J-0.976 F3600.
G1 X327.996.
G2 X325.3988 Y94.6065 I0. J3.
G1 X375.3982 Y181.2093
G2 X380.5948 I2.598 J-1.5
G1 X430.5948 Y94.6065
G2 X430.8337 Y94.0826 I-2.598 J-1.5
G3 X431.5959 Y93.714 I0.567 J0.195 F1000.
G1 X432.1637 Y93.905019
X432.2526 Y93.9350059 Z0.007
X432.3382 Y93.9650049 Z0.029
X432.424 Y93.9930047 Z0.065
X432.4965 Y94.0200044 Z0.115
X432.5648 Y94.0437 Z0.176
X432.6226 Y94.0637 Z0.247
X432.6682 Y94.0793 Z0.328
X432.7026 Y94.0900044 Z0.415
X432.7237 Y94.098

(2D CONTOUR1)
G0 X541.6724 Y2.1299
Z25.
Z15.
G1 Z14. F1200.
Z7.6
X541.6657 Y2.1266 Z7.506
X541.6446 Y2.1199 Z7.415
X541.612 Y2.1088 Z7.328
X541.5635 Y2.0911 Z7.247
X541.5068 Y2.0722 Z7.176
X541.4381 Y2.0488 Z7.115
X541.3624 Y2.0222 Z7.065
X541.282 Y1.9944 Z7.029
X541.1935 Y1.9644 Z7.007
X541.1046 Y1.9344 Z7.
X540.5379 Y1.7388 F1000.
G3 X540.1657 Y0.9766 I0.195 J-0.567
G2 X537.328. Y-3.0. I-2.837 J-0.976 F3600.
G1 X437.328.
G2 X434.738 Y1.55 I0. J3.
G1 X484.732 Y88.1033
X484.7324 Y88.1066
G2 X489.9268 Y88.1033 I2.596 J-1.504
G1 X539.9268 Y1.55
G2 X540.1657 Y0.9766 I-2.598 J-1.5
G3 X540.9279 Y0.6044 I0.567 J0.195 F1000.
G1 X541.4957 Y0.7999
X541.5846 Y0.8299 Z7.007
X541.672 Y0.8599 Z7.029
X541.7524 Y0.8877 Z7.065
X541.8285 Y0.9144 Z7.115
X541.8968 Y0.9377 Z7.176
X541.9546 Y0.9577 Z7.247
X542.02 Y0.9733 Z7.328
X542.0346 Y0.9844 Z7.415
X542.0557 Y0.9922 Z7.506
X542.0624 Y0.9944 Z7.6
G0 Z15.
X541.6724 Y2.1299
G1 Z11. F1200.
Z4.6
X541.6657 Y2.1266 Z4.506
X541.6446 Y2.1199 Z4.415
X541.612 Y2.1088 Z4.328
X541.5635 Y2.0911 Z4.247
X541.5068 Y2.0722 Z4.176
X541.4381 Y2.0488 Z4.115
X541.3624 Y2.0222 Z4.065
X541.282 Y1.9944 Z4.029
X541.1935 Y1.9644 Z4.007
X541.1046 Y1.9344 Z4.
X540.5379 Y1.7388 F1000.
G3 X540.1657 Y0.9766 I0.195 J-0.567
G2 X537.328. Y-3.0. I-2.837 J-0.976 F3600.
G1 X437.328.
G2 X434.738 Y1.55 I0. J3.
G1 X484.732 Y88.1033
G2 X489.9268 I2.598 J-1.5
G1 X539.9268 Y1.55
G2 X540.1657 Y0.9766 I-2.598 J-1.5
G3 X540.9279 Y0.6044 I0.567 J0.195 F1000.
G1 X541.4957 Y0.7999
X541.5846 Y0.8299 Z4.007
X541.672 Y0.8599 Z4.029
X541.7524 Y0.8877 Z4.065
X541.8285 Y0.9144 Z4.115
X541.8968 Y0.9377 Z4.176
X541.9546 Y0.9577 Z4.247
X542.02 Y0.9733 Z4.328
X542.0346 Y0.9844 Z4.415
X542.0557 Y0.9922 Z4.506
X542.0624 Y0.9944 Z4.6
G0 Z15.
X541.6724 Y2.1299
G1 Z8. F1200.
Z1.6
X541.6657 Y2.1266 Z1.506
X541.6446 Y2.1199 Z1.415
X541.612 Y2.1088 Z1.328
X541.5635 Y2.0911 Z1.247
X541.5068 Y2.0722 Z1.176
X541.4381 Y2.0488 Z1.115
X541.3624 Y2.0222 Z1.065
X541.282 Y1.9944 Z1.029
X541.1935 Y1.9644 Z1.007
X541.1046 Y1.9344 Z1.
X540.5379 Y1.7388 F1000.
G3 X540.1657 Y0.9766 I0.195 J-0.567
G2 X537.328. Y-3.0. I-2.837 J-0.976 F3600.
G1 X437.328.
G2 X434.738 Y1.55 I0. J3.
G1 X484.732 Y88.1033
G2 X489.9268 I2.598 J-1.5
G1 X539.9268 Y1.55
G2 X540.1657 Y0.9766 I-2.598 J-1.5
G3 X540.9279 Y0.6044 I0.567 J0.195 F1000.
G1 X541.4957 Y0.7999
X541.5846 Y0.8299 Z1.007
X541.672 Y0.8599 Z1.029
X541.7524 Y0.8877 Z1.065
X541.8285 Y0.9144 Z1.115
X541.8968 Y0.9377 Z1.176
X541.9546 Y0.9577 Z1.247
X542.02 Y0.9733 Z1.328
X542.0346 Y0.9844 Z1.415
X542.0557 Y0.9922 Z1.506
X542.0624 Y0.9944 Z1.6
G0 Z15.
X541.6724 Y2.1299
G1 Z5. F1200.
Z0.6
X541.6657 Y2.1266 Z0.506
X541.6446 Y2.1199 Z0.415
X541.612 Y2.1088 Z0.328
X541.5635 Y2.0911 Z0.247
X541.5068 Y2.0722 Z0.176
X541.4381 Y2.0488 Z0.115
X541.3624 Y2.0222 Z0.065
X541.282 Y1.9944 Z0.029
X541.1935 Y1.9644 Z0.007
X541.1046 Y1.9344 Z0.
X540.5379 Y1.7388 F1000.
G3 X540.1657 Y0.9766 I0.195 J-0.567
G2 X537.328. Y-3.0. I-2.837 J-0.976 F3600.
G1 X437.328.
G2 X434.738 Y1.55 I0. J3.
G1 X484.732 Y88.1033
G2 X489.9268 I2.598 J-1.5
G1 X539.9268 Y1.55
G2 X540.1657 Y0.9766 I-2.598 J-1.5
G3 X540.9279 Y0.6044 I0.567 J0.195 F1000.
G1 X541.4957 Y0.7999
X541.5846 Y0.8299 Z0.007
X541.672 Y0.8599 Z0.029
X541.7524 Y0.8877 Z0.065
X541.8285 Y0.9144 Z0.115
X541.8968 Y0.9377 Z0.176
X541.9546 Y0.9577 Z0.247
X542.02 Y0.9733 Z0.328
X542.0346 Y0.9844 Z0.415
X542.0557 Y0.992

(2D CONTOUR1)
G0 X541.6724 Y95.2359
Z25.
Z15.
G1 Z14. F1200.
Z7.6
X541.6657 Y95.2326 Z7.506
X541.6446 Y95.2250069 Z7.415
X541.612 Y95.2140058 Z7.328
X541.5635 Y95.197011 Z7.247
X541.5068 Y95.1782 Z7.176
X541.4381 Y95.1548 Z7.115
X541.3624 Y95.1280062 Z7.065
X541.282 Y95.1000064 Z7.029
X541.1935 Y95.074 Z7.007
X541.1046 Y95.044 Z7.
X540.5379 Y94.8448 F1000.
G3 X540.1657 Y94.0826 I0.195 J-0.567
G2 X537.328. Y90.106. I-2.837 J-0.976 F3600.
G1 X437.328.
G2 X434.738 Y94.6065 I0. J3.
G1 X484.732 Y181.2093
X484.7324 Y181.2126
G2 X489.9268 Y181.2093 I2.596 J-1.504
G1 X539.9268 Y94.6065
G2 X540.1657 Y94.0826 I-2.598 J-1.5
G3 X540.9279 Y93.714 I0.567 J0.195 F1000.
G1 X541.4957 Y93.905019
X541.5846 Y93.9350059 Z7.007
X541.672 Y93.9650049 Z7.029
X541.7524 Y93.9930047 Z7.065
X541.8285 Y94.0200044 Z7.115
X541.8968 Y94.0437 Z7.176
X541.9546 Y94.0637 Z7.247
X542.02 Y94.0793 Z7.328
X542.0346 Y94.0900044 Z7.415
X542.0557 Y94.0982 Z7.506
X542.0624 Y94.1000064 Z7.6
G0 Z15.
X541.6724 Y95.2359
G1 Z11. F1200.
Z4.6
X541.6657 Y95.2326 Z4.506
X541.6446 Y95.2250069 Z4.415
X541.612 Y95.2140058 Z4.328
X541.5635 Y95.197011 Z4.247
X541.5068 Y95.1782 Z4.176
X541.4381 Y95.1548 Z4.115
X541.3624 Y95.1280062 Z4.065
X541.282 Y95.1000064 Z4.029
X541.1935 Y95.074 Z4.007
X541.1046 Y95.044 Z4.
X540.5379 Y94.8448 F1000.
G3 X540.1657 Y94.0826 I0.195 J-0.567
G2 X537.328. Y90.106. I-2.837 J-0.976 F3600.
G1 X437.328.
G2 X434.738 Y94.6065 I0. J3.
G1 X484.732 Y181.2093
G2 X489.9268 I2.598 J-1.5
G1 X539.9268 Y94.6065
G2 X540.1657 Y94.0826 I-2.598 J-1.5
G3 X540.9279 Y93.714 I0.567 J0.195 F1000.
G1 X541.4957 Y93.905019
X541.5846 Y93.9350059 Z4.007
X541.672 Y93.9650049 Z4.029
X541.7524 Y93.9930047 Z4.065
X541.8285 Y94.0200044 Z4.115
X541.8968 Y94.0437 Z4.176
X541.9546 Y94.0637 Z4.247
X542.02 Y94.0793 Z4.328
X542.0346 Y94.0900044 Z4.415
X542.0557 Y94.0982 Z4.506
X542.0624 Y94.1000064 Z4.6
G0 Z15.
X541.6724 Y95.2359
G1 Z8. F1200.
Z1.6
X541.6657 Y95.2326 Z1.506
X541.6446 Y95.2250069 Z1.415
X541.612 Y95.2140058 Z1.328
X541.5635 Y95.197011 Z1.247
X541.5068 Y95.1782 Z1.176
X541.4381 Y95.1548 Z1.115
X541.3624 Y95.1280062 Z1.065
X541.282 Y95.1000064 Z1.029
X541.1935 Y95.074 Z1.007
X541.1046 Y95.044 Z1.
X540.5379 Y94.8448 F1000.
G3 X540.1657 Y94.0826 I0.195 J-0.567
G2 X537.328. Y90.106. I-2.837 J-0.976 F3600.
G1 X437.328.
G2 X434.738 Y94.6065 I0. J3.
G1 X484.732 Y181.2093
G2 X489.9268 I2.598 J-1.5
G1 X539.9268 Y94.6065
G2 X540.1657 Y94.0826 I-2.598 J-1.5
G3 X540.9279 Y93.714 I0.567 J0.195 F1000.
G1 X541.4957 Y93.905019
X541.5846 Y93.9350059 Z1.007
X541.672 Y93.9650049 Z1.029
X541.7524 Y93.9930047 Z1.065
X541.8285 Y94.0200044 Z1.115
X541.8968 Y94.0437 Z1.176
X541.9546 Y94.0637 Z1.247
X542.02 Y94.0793 Z1.328
X542.0346 Y94.0900044 Z1.415
X542.0557 Y94.0982 Z1.506
X542.0624 Y94.1000064 Z1.6
G0 Z15.
X541.6724 Y95.2359
G1 Z5. F1200.
Z0.6
X541.6657 Y95.2326 Z0.506
X541.6446 Y95.2250069 Z0.415
X541.612 Y95.2140058 Z0.328
X541.5635 Y95.197011 Z0.247
X541.5068 Y95.1782 Z0.176
X541.4381 Y95.1548 Z0.115
X541.3624 Y95.1280062 Z0.065
X541.282 Y95.1000064 Z0.029
X541.1935 Y95.074 Z0.007
X541.1046 Y95.044 Z0.
X540.5379 Y94.8448 F1000.
G3 X540.1657 Y94.0826 I0.195 J-0.567
G2 X537.328. Y90.106. I-2.837 J-0.976 F3600.
G1 X437.328.
G2 X434.738 Y94.6065 I0. J3.
G1 X484.732 Y181.2093
G2 X489.9268 I2.598 J-1.5
G1 X539.9268 Y94.6065
G2 X540.1657 Y94.0826 I-2.598 J-1.5
G3 X540.9279 Y93.714 I0.567 J0.195 F1000.
G1 X541.4957 Y93.905019
X541.5846 Y93.9350059 Z0.007
X541.672 Y93.9650049 Z0.029
X541.7524 Y93.9930047 Z0.065
X541.8285 Y94.0200044 Z0.115
X541.8968 Y94.0437 Z0.176
X541.9546 Y94.0637 Z0.247
X542.02 Y94.0793 Z0.328
X542.0346 Y94.0900044 Z0.415
X542.0557 Y94.098

(2D CONTOUR1)
G0 X651.0044 Y2.1299
Z25.
Z15.
G1 Z14. F1200.
Z7.6
X650.9977 Y2.1266 Z7.506
X650.9766 Y2.1199 Z7.415
X650.9422 Y2.1088 Z7.328
X650.8955 Y2.0911 Z7.247
X650.8388 Y2.0722 Z7.176
X650.771 Y2.0488 Z7.115
X650.694034 Y2.0222 Z7.065
X650.612062 Y1.9944 Z7.029
X650.5255 Y1.9644 Z7.007
X650.436046 Y1.9344 Z7.
X649.8699 Y1.7388 F1000.
G3 X649.4977 Y0.9766 I0.195 J-0.567
G2 X646.66003. Y-3.0. I-2.837 J-0.976 F3600.
G1 X546.66003.
G2 X544.0628 Y1.55 I0. J3.
G1 X594.0622 Y88.1033
X594.0644 Y88.1066
G2 X599.258068 Y88.1033 I2.596 J-1.504
G1 X649.258068 Y1.55
G2 X649.4977 Y0.9766 I-2.598 J-1.5
G3 X650.259039 Y0.6044 I0.567 J0.195 F1000.
G1 X650.8277 Y0.7999
X650.9166 Y0.8299 Z7.007
X651.0022 Y0.8599 Z7.029
X651.084054 Y0.8877 Z7.065
X651.160035 Y0.9144 Z7.115
X651.2288 Y0.9377 Z7.176
X651.2866 Y0.9577 Z7.247
X651.332032 Y0.9733 Z7.328
X651.3666 Y0.9844 Z7.415
X651.3877 Y0.9922 Z7.506
X651.394044 Y0.9944 Z7.6
G0 Z15.
X651.0044 Y2.1299
G1 Z11. F1200.
Z4.6
X650.9977 Y2.1266 Z4.506
X650.9766 Y2.1199 Z4.415
X650.9422 Y2.1088 Z4.328
X650.8955 Y2.0911 Z4.247
X650.8388 Y2.0722 Z4.176
X650.771 Y2.0488 Z4.115
X650.694034 Y2.0222 Z4.065
X650.612062 Y1.9944 Z4.029
X650.5255 Y1.9644 Z4.007
X650.436046 Y1.9344 Z4.
X649.8699 Y1.7388 F1000.
G3 X649.4977 Y0.9766 I0.195 J-0.567
G2 X646.66003. Y-3.0. I-2.837 J-0.976 F3600.
G1 X546.66003.
G2 X544.0628 Y1.55 I0. J3.
G1 X594.0622 Y88.1033
G2 X599.258068 I2.598 J-1.5
G1 X649.258068 Y1.55
G2 X649.4977 Y0.9766 I-2.598 J-1.5
G3 X650.259039 Y0.6044 I0.567 J0.195 F1000.
G1 X650.8277 Y0.7999
X650.9166 Y0.8299 Z4.007
X651.0022 Y0.8599 Z4.029
X651.084054 Y0.8877 Z4.065
X651.160035 Y0.9144 Z4.115
X651.2288 Y0.9377 Z4.176
X651.2866 Y0.9577 Z4.247
X651.332032 Y0.9733 Z4.328
X651.3666 Y0.9844 Z4.415
X651.3877 Y0.9922 Z4.506
X651.394044 Y0.9944 Z4.6
G0 Z15.
X651.0044 Y2.1299
G1 Z8. F1200.
Z1.6
X650.9977 Y2.1266 Z1.506
X650.9766 Y2.1199 Z1.415
X650.9422 Y2.1088 Z1.328
X650.8955 Y2.0911 Z1.247
X650.8388 Y2.0722 Z1.176
X650.771 Y2.0488 Z1.115
X650.694034 Y2.0222 Z1.065
X650.612062 Y1.9944 Z1.029
X650.5255 Y1.9644 Z1.007
X650.436046 Y1.9344 Z1.
X649.8699 Y1.7388 F1000.
G3 X649.4977 Y0.9766 I0.195 J-0.567
G2 X646.66003. Y-3.0. I-2.837 J-0.976 F3600.
G1 X546.66003.
G2 X544.0628 Y1.55 I0. J3.
G1 X594.0622 Y88.1033
G2 X599.258068 I2.598 J-1.5
G1 X649.258068 Y1.55
G2 X649.4977 Y0.9766 I-2.598 J-1.5
G3 X650.259039 Y0.6044 I0.567 J0.195 F1000.
G1 X650.8277 Y0.7999
X650.9166 Y0.8299 Z1.007
X651.0022 Y0.8599 Z1.029
X651.084054 Y0.8877 Z1.065
X651.160035 Y0.9144 Z1.115
X651.2288 Y0.9377 Z1.176
X651.2866 Y0.9577 Z1.247
X651.332032 Y0.9733 Z1.328
X651.3666 Y0.9844 Z1.415
X651.3877 Y0.9922 Z1.506
X651.394044 Y0.9944 Z1.6
G0 Z15.
X651.0044 Y2.1299
G1 Z5. F1200.
Z0.6
X650.9977 Y2.1266 Z0.506
X650.9766 Y2.1199 Z0.415
X650.9422 Y2.1088 Z0.328
X650.8955 Y2.0911 Z0.247
X650.8388 Y2.0722 Z0.176
X650.771 Y2.0488 Z0.115
X650.694034 Y2.0222 Z0.065
X650.612062 Y1.9944 Z0.029
X650.5255 Y1.9644 Z0.007
X650.436046 Y1.9344 Z0.
X649.8699 Y1.7388 F1000.
G3 X649.4977 Y0.9766 I0.195 J-0.567
G2 X646.66003. Y-3.0. I-2.837 J-0.976 F3600.
G1 X546.66003.
G2 X544.0628 Y1.55 I0. J3.
G1 X594.0622 Y88.1033
G2 X599.258068 I2.598 J-1.5
G1 X649.258068 Y1.55
G2 X649.4977 Y0.9766 I-2.598 J-1.5
G3 X650.259039 Y0.6044 I0.567 J0.195 F1000.
G1 X650.8277 Y0.7999
X650.9166 Y0.8299 Z0.007
X651.0022 Y0.8599 Z0.029
X651.084054 Y0.8877 Z0.065
X651.160035 Y0.9144 Z0.115
X651.2288 Y0.9377 Z0.176
X651.2866 Y0.9577 Z0.247
X651.332032 Y0.9733 Z0.328
X651.3666 Y0.9844 Z0.415
X651.3877 Y0.992

(2D CONTOUR1)
G0 X651.0044 Y95.2359
Z25.
Z15.
G1 Z14. F1200.
Z7.6
X650.9977 Y95.2326 Z7.506
X650.9766 Y95.2250069 Z7.415
X650.9422 Y95.2140058 Z7.328
X650.8955 Y95.197011 Z7.247
X650.8388 Y95.1782 Z7.176
X650.771 Y95.1548 Z7.115
X650.694034 Y95.1280062 Z7.065
X650.612062 Y95.1000064 Z7.029
X650.5255 Y95.074 Z7.007
X650.436046 Y95.044 Z7.
X649.8699 Y94.8448 F1000.
G3 X649.4977 Y94.0826 I0.195 J-0.567
G2 X646.66003. Y90.106. I-2.837 J-0.976 F3600.
G1 X546.66003.
G2 X544.0628 Y94.6065 I0. J3.
G1 X594.0622 Y181.2093
X594.0644 Y181.2126
G2 X599.258068 Y181.2093 I2.596 J-1.504
G1 X649.258068 Y94.6065
G2 X649.4977 Y94.0826 I-2.598 J-1.5
G3 X650.259039 Y93.714 I0.567 J0.195 F1000.
G1 X650.8277 Y93.905019
X650.9166 Y93.9350059 Z7.007
X651.0022 Y93.9650049 Z7.029
X651.084054 Y93.9930047 Z7.065
X651.160035 Y94.0200044 Z7.115
X651.2288 Y94.0437 Z7.176
X651.2866 Y94.0637 Z7.247
X651.332032 Y94.0793 Z7.328
X651.3666 Y94.0900044 Z7.415
X651.3877 Y94.0982 Z7.506
X651.394044 Y94.1000064 Z7.6
G0 Z15.
X651.0044 Y95.2359
G1 Z11. F1200.
Z4.6
X650.9977 Y95.2326 Z4.506
X650.9766 Y95.2250069 Z4.415
X650.9422 Y95.2140058 Z4.328
X650.8955 Y95.197011 Z4.247
X650.8388 Y95.1782 Z4.176
X650.771 Y95.1548 Z4.115
X650.694034 Y95.1280062 Z4.065
X650.612062 Y95.1000064 Z4.029
X650.5255 Y95.074 Z4.007
X650.436046 Y95.044 Z4.
X649.8699 Y94.8448 F1000.
G3 X649.4977 Y94.0826 I0.195 J-0.567
G2 X646.66003. Y90.106. I-2.837 J-0.976 F3600.
G1 X546.66003.
G2 X544.0628 Y94.6065 I0. J3.
G1 X594.0622 Y181.2093
G2 X599.258068 I2.598 J-1.5
G1 X649.258068 Y94.6065
G2 X649.4977 Y94.0826 I-2.598 J-1.5
G3 X650.259039 Y93.714 I0.567 J0.195 F1000.
G1 X650.8277 Y93.905019
X650.9166 Y93.9350059 Z4.007
X651.0022 Y93.9650049 Z4.029
X651.084054 Y93.9930047 Z4.065
X651.160035 Y94.0200044 Z4.115
X651.2288 Y94.0437 Z4.176
X651.2866 Y94.0637 Z4.247
X651.332032 Y94.0793 Z4.328
X651.3666 Y94.0900044 Z4.415
X651.3877 Y94.0982 Z4.506
X651.394044 Y94.1000064 Z4.6
G0 Z15.
X651.0044 Y95.2359
G1 Z8. F1200.
Z1.6
X650.9977 Y95.2326 Z1.506
X650.9766 Y95.2250069 Z1.415
X650.9422 Y95.2140058 Z1.328
X650.8955 Y95.197011 Z1.247
X650.8388 Y95.1782 Z1.176
X650.771 Y95.1548 Z1.115
X650.694034 Y95.1280062 Z1.065
X650.612062 Y95.1000064 Z1.029
X650.5255 Y95.074 Z1.007
X650.436046 Y95.044 Z1.
X649.8699 Y94.8448 F1000.
G3 X649.4977 Y94.0826 I0.195 J-0.567
G2 X646.66003. Y90.106. I-2.837 J-0.976 F3600.
G1 X546.66003.
G2 X544.0628 Y94.6065 I0. J3.
G1 X594.0622 Y181.2093
G2 X599.258068 I2.598 J-1.5
G1 X649.258068 Y94.6065
G2 X649.4977 Y94.0826 I-2.598 J-1.5
G3 X650.259039 Y93.714 I0.567 J0.195 F1000.
G1 X650.8277 Y93.905019
X650.9166 Y93.9350059 Z1.007
X651.0022 Y93.9650049 Z1.029
X651.084054 Y93.9930047 Z1.065
X651.160035 Y94.0200044 Z1.115
X651.2288 Y94.0437 Z1.176
X651.2866 Y94.0637 Z1.247
X651.332032 Y94.0793 Z1.328
X651.3666 Y94.0900044 Z1.415
X651.3877 Y94.0982 Z1.506
X651.394044 Y94.1000064 Z1.6
G0 Z15.
X651.0044 Y95.2359
G1 Z5. F1200.
Z0.6
X650.9977 Y95.2326 Z0.506
X650.9766 Y95.2250069 Z0.415
X650.9422 Y95.2140058 Z0.328
X650.8955 Y95.197011 Z0.247
X650.8388 Y95.1782 Z0.176
X650.771 Y95.1548 Z0.115
X650.694034 Y95.1280062 Z0.065
X650.612062 Y95.1000064 Z0.029
X650.5255 Y95.074 Z0.007
X650.436046 Y95.044 Z0.
X649.8699 Y94.8448 F1000.
G3 X649.4977 Y94.0826 I0.195 J-0.567
G2 X646.66003. Y90.106. I-2.837 J-0.976 F3600.
G1 X546.66003.
G2 X544.0628 Y94.6065 I0. J3.
G1 X594.0622 Y181.2093
G2 X599.258068 I2.598 J-1.5
G1 X649.258068 Y94.6065
G2 X649.4977 Y94.0826 I-2.598 J-1.5
G3 X650.259039 Y93.714 I0.567 J0.195 F1000.
G1 X650.8277 Y93.905019
X650.9166 Y93.9350059 Z0.007
X651.0022 Y93.9650049 Z0.029
X651.084054 Y93.9930047 Z0.065
X651.160035 Y94.0200044 Z0.115
X651.2288 Y94.0437 Z0.176
X651.2866 Y94.0637 Z0.247
X651.332032 Y94.0793 Z0.328
X651.3666 Y94.0900044 Z0.415
X651.3877 Y94.098

(2D CONTOUR1)
G0 X760.3364 Y2.1299
Z25.
Z15.
G1 Z14. F1200.
Z7.6
X760.3297 Y2.1266 Z7.506
X760.3086 Y2.1199 Z7.415
X760.2742 Y2.1088 Z7.328
X760.2275 Y2.0911 Z7.247
X760.178 Y2.0722 Z7.176
X760.1021 Y2.0488 Z7.115
X760.0264 Y2.0222 Z7.065
X759.944032 Y1.9944 Z7.029
X759.8575 Y1.9644 Z7.007
X759.7686 Y1.9344 Z7.
X759.2019 Y1.7388 F1000.
G3 X758.8297 Y0.9766 I0.195 J-0.567
G2 X755.992. Y-3.0. I-2.837 J-0.976 F3600.
G1 X655.992.
G2 X653.3948 Y1.55 I0. J3.
G1 X703.3942 Y88.1033
X703.3964 Y88.1066
G2 X708.598 Y88.1033 I2.596 J-1.504
G1 X758.598 Y1.55
G2 X758.8297 Y0.9766 I-2.598 J-1.5
G3 X759.5919 Y0.6044 I0.567 J0.195 F1000.
G1 X760.1597 Y0.7999
X760.2486 Y0.8299 Z7.007
X760.3342 Y0.8599 Z7.029
X760.4164 Y0.8877 Z7.065
X760.4925 Y0.9144 Z7.115
X760.568 Y0.9377 Z7.176
X760.6186 Y0.9577 Z7.247
X760.6642 Y0.9733 Z7.328
X760.6986 Y0.9844 Z7.415
X760.7197 Y0.9922 Z7.506
X760.7264 Y0.9944 Z7.6
G0 Z15.
X760.3364 Y2.1299
G1 Z11. F1200.
Z4.6
X760.3297 Y2.1266 Z4.506
X760.3086 Y2.1199 Z4.415
X760.2742 Y2.1088 Z4.328
X760.2275 Y2.0911 Z4.247
X760.178 Y2.0722 Z4.176
X760.1021 Y2.0488 Z4.115
X760.0264 Y2.0222 Z4.065
X759.944032 Y1.9944 Z4.029
X759.8575 Y1.9644 Z4.007
X759.7686 Y1.9344 Z4.
X759.2019 Y1.7388 F1000.
G3 X758.8297 Y0.9766 I0.195 J-0.567
G2 X755.992. Y-3.0. I-2.837 J-0.976 F3600.
G1 X655.992.
G2 X653.3948 Y1.55 I0. J3.
G1 X703.3942 Y88.1033
G2 X708.598 I2.598 J-1.5
G1 X758.598 Y1.55
G2 X758.8297 Y0.9766 I-2.598 J-1.5
G3 X759.5919 Y0.6044 I0.567 J0.195 F1000.
G1 X760.1597 Y0.7999
X760.2486 Y0.8299 Z4.007
X760.3342 Y0.8599 Z4.029
X760.4164 Y0.8877 Z4.065
X760.4925 Y0.9144 Z4.115
X760.568 Y0.9377 Z4.176
X760.6186 Y0.9577 Z4.247
X760.6642 Y0.9733 Z4.328
X760.6986 Y0.9844 Z4.415
X760.7197 Y0.9922 Z4.506
X760.7264 Y0.9944 Z4.6
G0 Z15.
X760.3364 Y2.1299
G1 Z8. F1200.
Z1.6
X760.3297 Y2.1266 Z1.506
X760.3086 Y2.1199 Z1.415
X760.2742 Y2.1088 Z1.328
X760.2275 Y2.0911 Z1.247
X760.178 Y2.0722 Z1.176
X760.1021 Y2.0488 Z1.115
X760.0264 Y2.0222 Z1.065
X759.944032 Y1.9944 Z1.029
X759.8575 Y1.9644 Z1.007
X759.7686 Y1.9344 Z1.
X759.2019 Y1.7388 F1000.
G3 X758.8297 Y0.9766 I0.195 J-0.567
G2 X755.992. Y-3.0. I-2.837 J-0.976 F3600.
G1 X655.992.
G2 X653.3948 Y1.55 I0. J3.
G1 X703.3942 Y88.1033
G2 X708.598 I2.598 J-1.5
G1 X758.598 Y1.55
G2 X758.8297 Y0.9766 I-2.598 J-1.5
G3 X759.5919 Y0.6044 I0.567 J0.195 F1000.
G1 X760.1597 Y0.7999
X760.2486 Y0.8299 Z1.007
X760.3342 Y0.8599 Z1.029
X760.4164 Y0.8877 Z1.065
X760.4925 Y0.9144 Z1.115
X760.568 Y0.9377 Z1.176
X760.6186 Y0.9577 Z1.247
X760.6642 Y0.9733 Z1.328
X760.6986 Y0.9844 Z1.415
X760.7197 Y0.9922 Z1.506
X760.7264 Y0.9944 Z1.6
G0 Z15.
X760.3364 Y2.1299
G1 Z5. F1200.
Z0.6
X760.3297 Y2.1266 Z0.506
X760.3086 Y2.1199 Z0.415
X760.2742 Y2.1088 Z0.328
X760.2275 Y2.0911 Z0.247
X760.178 Y2.0722 Z0.176
X760.1021 Y2.0488 Z0.115
X760.0264 Y2.0222 Z0.065
X759.944032 Y1.9944 Z0.029
X759.8575 Y1.9644 Z0.007
X759.7686 Y1.9344 Z0.
X759.2019 Y1.7388 F1000.
G3 X758.8297 Y0.9766 I0.195 J-0.567
G2 X755.992. Y-3.0. I-2.837 J-0.976 F3600.
G1 X655.992.
G2 X653.3948 Y1.55 I0. J3.
G1 X703.3942 Y88.1033
G2 X708.598 I2.598 J-1.5
G1 X758.598 Y1.55
G2 X758.8297 Y0.9766 I-2.598 J-1.5
G3 X759.5919 Y0.6044 I0.567 J0.195 F1000.
G1 X760.1597 Y0.7999
X760.2486 Y0.8299 Z0.007
X760.3342 Y0.8599 Z0.029
X760.4164 Y0.8877 Z0.065
X760.4925 Y0.9144 Z0.115
X760.568 Y0.9377 Z0.176
X760.6186 Y0.9577 Z0.247
X760.6642 Y0.9733 Z0.328
X760.6986 Y0.9844 Z0.415
X760.7197 Y0.992

(2D CONTOUR1)
G0 X760.3364 Y95.2359
Z25.
Z15.
G1 Z14. F1200.
Z7.6
X760.3297 Y95.2326 Z7.506
X760.3086 Y95.2250069 Z7.415
X760.2742 Y95.2140058 Z7.328
X760.2275 Y95.197011 Z7.247
X760.178 Y95.1782 Z7.176
X760.1021 Y95.1548 Z7.115
X760.0264 Y95.1280062 Z7.065
X759.944032 Y95.1000064 Z7.029
X759.8575 Y95.074 Z7.007
X759.7686 Y95.044 Z7.
X759.2019 Y94.8448 F1000.
G3 X758.8297 Y94.0826 I0.195 J-0.567
G2 X755.992. Y90.106. I-2.837 J-0.976 F3600.
G1 X655.992.
G2 X653.3948 Y94.6065 I0. J3.
G1 X703.3942 Y181.2093
X703.3964 Y181.2126
G2 X708.598 Y181.2093 I2.596 J-1.504
G1 X758.598 Y94.6065
G2 X758.8297 Y94.0826 I-2.598 J-1.5
G3 X759.5919 Y93.714 I0.567 J0.195 F1000.
G1 X760.1597 Y93.905019
X760.2486 Y93.9350059 Z7.007
X760.3342 Y93.9650049 Z7.029
X760.4164 Y93.9930047 Z7.065
X760.4925 Y94.0200044 Z7.115
X760.568 Y94.0437 Z7.176
X760.6186 Y94.0637 Z7.247
X760.6642 Y94.0793 Z7.328
X760.6986 Y94.0900044 Z7.415
X760.7197 Y94.0982 Z7.506
X760.7264 Y94.1000064 Z7.6
G0 Z15.
X760.3364 Y95.2359
G1 Z11. F1200.
Z4.6
X760.3297 Y95.2326 Z4.506
X760.3086 Y95.2250069 Z4.415
X760.2742 Y95.2140058 Z4.328
X760.2275 Y95.197011 Z4.247
X760.178 Y95.1782 Z4.176
X760.1021 Y95.1548 Z4.115
X760.0264 Y95.1280062 Z4.065
X759.944032 Y95.1000064 Z4.029
X759.8575 Y95.074 Z4.007
X759.7686 Y95.044 Z4.
X759.2019 Y94.8448 F1000.
G3 X758.8297 Y94.0826 I0.195 J-0.567
G2 X755.992. Y90.106. I-2.837 J-0.976 F3600.
G1 X655.992.
G2 X653.3948 Y94.6065 I0. J3.
G1 X703.3942 Y181.2093
G2 X708.598 I2.598 J-1.5
G1 X758.598 Y94.6065
G2 X758.8297 Y94.0826 I-2.598 J-1.5
G3 X759.5919 Y93.714 I0.567 J0.195 F1000.
G1 X760.1597 Y93.905019
X760.2486 Y93.9350059 Z4.007
X760.3342 Y93.9650049 Z4.029
X760.4164 Y93.9930047 Z4.065
X760.4925 Y94.0200044 Z4.115
X760.568 Y94.0437 Z4.176
X760.6186 Y94.0637 Z4.247
X760.6642 Y94.0793 Z4.328
X760.6986 Y94.0900044 Z4.415
X760.7197 Y94.0982 Z4.506
X760.7264 Y94.1000064 Z4.6
G0 Z15.
X760.3364 Y95.2359
G1 Z8. F1200.
Z1.6
X760.3297 Y95.2326 Z1.506
X760.3086 Y95.2250069 Z1.415
X760.2742 Y95.2140058 Z1.328
X760.2275 Y95.197011 Z1.247
X760.178 Y95.1782 Z1.176
X760.1021 Y95.1548 Z1.115
X760.0264 Y95.1280062 Z1.065
X759.944032 Y95.1000064 Z1.029
X759.8575 Y95.074 Z1.007
X759.7686 Y95.044 Z1.
X759.2019 Y94.8448 F1000.
G3 X758.8297 Y94.0826 I0.195 J-0.567
G2 X755.992. Y90.106. I-2.837 J-0.976 F3600.
G1 X655.992.
G2 X653.3948 Y94.6065 I0. J3.
G1 X703.3942 Y181.2093
G2 X708.598 I2.598 J-1.5
G1 X758.598 Y94.6065
G2 X758.8297 Y94.0826 I-2.598 J-1.5
G3 X759.5919 Y93.714 I0.567 J0.195 F1000.
G1 X760.1597 Y93.905019
X760.2486 Y93.9350059 Z1.007
X760.3342 Y93.9650049 Z1.029
X760.4164 Y93.9930047 Z1.065
X760.4925 Y94.0200044 Z1.115
X760.568 Y94.0437 Z1.176
X760.6186 Y94.0637 Z1.247
X760.6642 Y94.0793 Z1.328
X760.6986 Y94.0900044 Z1.415
X760.7197 Y94.0982 Z1.506
X760.7264 Y94.1000064 Z1.6
G0 Z15.
X760.3364 Y95.2359
G1 Z5. F1200.
Z0.6
X760.3297 Y95.2326 Z0.506
X760.3086 Y95.2250069 Z0.415
X760.2742 Y95.2140058 Z0.328
X760.2275 Y95.197011 Z0.247
X760.178 Y95.1782 Z0.176
X760.1021 Y95.1548 Z0.115
X760.0264 Y95.1280062 Z0.065
X759.944032 Y95.1000064 Z0.029
X759.8575 Y95.074 Z0.007
X759.7686 Y95.044 Z0.
X759.2019 Y94.8448 F1000.
G3 X758.8297 Y94.0826 I0.195 J-0.567
G2 X755.992. Y90.106. I-2.837 J-0.976 F3600.
G1 X655.992.
G2 X653.3948 Y94.6065 I0. J3.
G1 X703.3942 Y181.2093
G2 X708.598 I2.598 J-1.5
G1 X758.598 Y94.6065
G2 X758.8297 Y94.0826 I-2.598 J-1.5
G3 X759.5919 Y93.714 I0.567 J0.195 F1000.
G1 X760.1597 Y93.905019
X760.2486 Y93.9350059 Z0.007
X760.3342 Y93.9650049 Z0.029
X760.4164 Y93.9930047 Z0.065
X760.4925 Y94.0200044 Z0.115
X760.568 Y94.0437 Z0.176
X760.6186 Y94.0637 Z0.247
X760.6642 Y94.0793 Z0.328
X760.6986 Y94.0900044 Z0.415
X760.7197 Y94.098

(2D CONTOUR1)
G0 X869.667974 Y2.1299
Z25.
Z15.
G1 Z14. F1200.
Z7.6
X869.660957 Y2.1266 Z7.506
X869.639956 Y2.1199 Z7.415
X869.605962 Y2.1088 Z7.328
X869.558965 Y2.0911 Z7.247
X869.501958 Y2.0722 Z7.176
X869.433961 Y2.0488 Z7.115
X869.3584 Y2.0222 Z7.065
X869.2762 Y1.9944 Z7.029
X869.188965 Y1.9644 Z7.007
X869.16 Y1.9344 Z7.
X868.532969 Y1.7388 F1000.
G3 X868.160957 Y0.9766 I0.195 J-0.567
G2 X865.324. Y-3.0. I-2.837 J-0.976 F3600.
G1 X765.324.
G2 X762.725958 Y1.55 I0. J3.
G1 X812.725952 Y88.1033
X812.727974 Y88.1066
G2 X817.9228 Y88.1033 I2.596 J-1.504
G1 X867.9228 Y1.55
G2 X868.160957 Y0.9766 I-2.598 J-1.5
G3 X868.9239 Y0.6044 I0.567 J0.195 F1000.
G1 X869.490977 Y0.7999
X869.579966 Y0.8299 Z7.007
X869.665952 Y0.8599 Z7.029
X869.7484 Y0.8877 Z7.065
X869.8245 Y0.9144 Z7.115
X869.891978 Y0.9377 Z7.176
X869.949956 Y0.9577 Z7.247
X869.9962 Y0.9733 Z7.328
X870.029976 Y0.9844 Z7.415
X870.050967 Y0.9922 Z7.506
X870.0584 Y0.9944 Z7.6
G0 Z15.
X869.667974 Y2.1299
G1 Z11. F1200.
Z4.6
X869.660957 Y2.1266 Z4.506
X869.639956 Y2.1199 Z4.415
X869.605962 Y2.1088 Z4.328
X869.558965 Y2.0911 Z4.247
X869.501958 Y2.0722 Z4.176
X869.433961 Y2.0488 Z4.115
X869.3584 Y2.0222 Z4.065
X869.2762 Y1.9944 Z4.029
X869.188965 Y1.9644 Z4.007
X869.16 Y1.9344 Z4.
X868.532969 Y1.7388 F1000.
G3 X868.160957 Y0.9766 I0.195 J-0.567
G2 X865.324. Y-3.0. I-2.837 J-0.976 F3600.
G1 X765.324.
G2 X762.725958 Y1.55 I0. J3.
G1 X812.725952 Y88.1033
G2 X817.9228 I2.598 J-1.5
G1 X867.9228 Y1.55
G2 X868.160957 Y0.9766 I-2.598 J-1.5
G3 X868.9239 Y0.6044 I0.567 J0.195 F1000.
G1 X869.490977 Y0.7999
X869.579966 Y0.8299 Z4.007
X869.665952 Y0.8599 Z4.029
X869.7484 Y0.8877 Z4.065
X869.8245 Y0.9144 Z4.115
X869.891978 Y0.9377 Z4.176
X869.949956 Y0.9577 Z4.247
X869.9962 Y0.9733 Z4.328
X870.029976 Y0.9844 Z4.415
X870.050967 Y0.9922 Z4.506
X870.0584 Y0.9944 Z4.6
G0 Z15.
X869.667974 Y2.1299
G1 Z8. F1200.
Z1.6
X869.660957 Y2.1266 Z1.506
X869.639956 Y2.1199 Z1.415
X869.605962 Y2.1088 Z1.328
X869.558965 Y2.0911 Z1.247
X869.501958 Y2.0722 Z1.176
X869.433961 Y2.0488 Z1.115
X869.3584 Y2.0222 Z1.065
X869.2762 Y1.9944 Z1.029
X869.188965 Y1.9644 Z1.007
X869.16 Y1.9344 Z1.
X868.532969 Y1.7388 F1000.
G3 X868.160957 Y0.9766 I0.195 J-0.567
G2 X865.324. Y-3.0. I-2.837 J-0.976 F3600.
G1 X765.324.
G2 X762.725958 Y1.55 I0. J3.
G1 X812.725952 Y88.1033
G2 X817.9228 I2.598 J-1.5
G1 X867.9228 Y1.55
G2 X868.160957 Y0.9766 I-2.598 J-1.5
G3 X868.9239 Y0.6044 I0.567 J0.195 F1000.
G1 X869.490977 Y0.7999
X869.579966 Y0.8299 Z1.007
X869.665952 Y0.8599 Z1.029
X869.7484 Y0.8877 Z1.065
X869.8245 Y0.9144 Z1.115
X869.891978 Y0.9377 Z1.176
X869.949956 Y0.9577 Z1.247
X869.9962 Y0.9733 Z1.328
X870.029976 Y0.9844 Z1.415
X870.050967 Y0.9922 Z1.506
X870.0584 Y0.9944 Z1.6
G0 Z15.
X869.667974 Y2.1299
G1 Z5. F1200.
Z0.6
X869.660957 Y2.1266 Z0.506
X869.639956 Y2.1199 Z0.415
X869.605962 Y2.1088 Z0.328
X869.558965 Y2.0911 Z0.247
X869.501958 Y2.0722 Z0.176
X869.433961 Y2.0488 Z0.115
X869.3584 Y2.0222 Z0.065
X869.2762 Y1.9944 Z0.029
X869.188965 Y1.9644 Z0.007
X869.16 Y1.9344 Z0.
X868.532969 Y1.7388 F1000.
G3 X868.160957 Y0.9766 I0.195 J-0.567
G2 X865.324. Y-3.0. I-2.837 J-0.976 F3600.
G1 X765.324.
G2 X762.725958 Y1.55 I0. J3.
G1 X812.725952 Y88.1033
G2 X817.9228 I2.598 J-1.5
G1 X867.9228 Y1.55
G2 X868.160957 Y0.9766 I-2.598 J-1.5
G3 X868.9239 Y0.6044 I0.567 J0.195 F1000.
G1 X869.490977 Y0.7999
X869.579966 Y0.8299 Z0.007
X869.665952 Y0.8599 Z0.029
X869.7484 Y0.8877 Z0.065
X869.8245 Y0.9144 Z0.115
X869.891978 Y0.9377 Z0.176
X869.949956 Y0.9577 Z0.247
X869.9962 Y0.9733 Z0.328
X870.029976 Y0.9844 Z0.415
X870.050967 Y0.992

(2D CONTOUR1)
G0 X869.667974 Y95.2359
Z25.
Z15.
G1 Z14. F1200.
Z7.6
X869.660957 Y95.2326 Z7.506
X869.639956 Y95.2250069 Z7.415
X869.605962 Y95.2140058 Z7.328
X869.558965 Y95.197011 Z7.247
X869.501958 Y95.1782 Z7.176
X869.433961 Y95.1548 Z7.115
X869.3584 Y95.1280062 Z7.065
X869.2762 Y95.1000064 Z7.029
X869.188965 Y95.074 Z7.007
X869.16 Y95.044 Z7.
X868.532969 Y94.8448 F1000.
G3 X868.160957 Y94.0826 I0.195 J-0.567
G2 X865.324. Y90.106. I-2.837 J-0.976 F3600.
G1 X765.324.
G2 X762.725958 Y94.6065 I0. J3.
G1 X812.725952 Y181.2093
X812.727974 Y181.2126
G2 X817.9228 Y181.2093 I2.596 J-1.504
G1 X867.9228 Y94.6065
G2 X868.160957 Y94.0826 I-2.598 J-1.5
G3 X868.9239 Y93.714 I0.567 J0.195 F1000.
G1 X869.490977 Y93.905019
X869.579966 Y93.9350059 Z7.007
X869.665952 Y93.9650049 Z7.029
X869.7484 Y93.9930047 Z7.065
X869.8245 Y94.0200044 Z7.115
X869.891978 Y94.0437 Z7.176
X869.949956 Y94.0637 Z7.247
X869.9962 Y94.0793 Z7.328
X870.029976 Y94.0900044 Z7.415
X870.050967 Y94.0982 Z7.506
X870.0584 Y94.1000064 Z7.6
G0 Z15.
X869.667974 Y95.2359
G1 Z11. F1200.
Z4.6
X869.660957 Y95.2326 Z4.506
X869.639956 Y95.2250069 Z4.415
X869.605962 Y95.2140058 Z4.328
X869.558965 Y95.197011 Z4.247
X869.501958 Y95.1782 Z4.176
X869.433961 Y95.1548 Z4.115
X869.3584 Y95.1280062 Z4.065
X869.2762 Y95.1000064 Z4.029
X869.188965 Y95.074 Z4.007
X869.16 Y95.044 Z4.
X868.532969 Y94.8448 F1000.
G3 X868.160957 Y94.0826 I0.195 J-0.567
G2 X865.324. Y90.106. I-2.837 J-0.976 F3600.
G1 X765.324.
G2 X762.725958 Y94.6065 I0. J3.
G1 X812.725952 Y181.2093
G2 X817.9228 I2.598 J-1.5
G1 X867.9228 Y94.6065
G2 X868.160957 Y94.0826 I-2.598 J-1.5
G3 X868.9239 Y93.714 I0.567 J0.195 F1000.
G1 X869.490977 Y93.905019
X869.579966 Y93.9350059 Z4.007
X869.665952 Y93.9650049 Z4.029
X869.7484 Y93.9930047 Z4.065
X869.8245 Y94.0200044 Z4.115
X869.891978 Y94.0437 Z4.176
X869.949956 Y94.0637 Z4.247
X869.9962 Y94.0793 Z4.328
X870.029976 Y94.0900044 Z4.415
X870.050967 Y94.0982 Z4.506
X870.0584 Y94.1000064 Z4.6
G0 Z15.
X869.667974 Y95.2359
G1 Z8. F1200.
Z1.6
X869.660957 Y95.2326 Z1.506
X869.639956 Y95.2250069 Z1.415
X869.605962 Y95.2140058 Z1.328
X869.558965 Y95.197011 Z1.247
X869.501958 Y95.1782 Z1.176
X869.433961 Y95.1548 Z1.115
X869.3584 Y95.1280062 Z1.065
X869.2762 Y95.1000064 Z1.029
X869.188965 Y95.074 Z1.007
X869.16 Y95.044 Z1.
X868.532969 Y94.8448 F1000.
G3 X868.160957 Y94.0826 I0.195 J-0.567
G2 X865.324. Y90.106. I-2.837 J-0.976 F3600.
G1 X765.324.
G2 X762.725958 Y94.6065 I0. J3.
G1 X812.725952 Y181.2093
G2 X817.9228 I2.598 J-1.5
G1 X867.9228 Y94.6065
G2 X868.160957 Y94.0826 I-2.598 J-1.5
G3 X868.9239 Y93.714 I0.567 J0.195 F1000.
G1 X869.490977 Y93.905019
X869.579966 Y93.9350059 Z1.007
X869.665952 Y93.9650049 Z1.029
X869.7484 Y93.9930047 Z1.065
X869.8245 Y94.0200044 Z1.115
X869.891978 Y94.0437 Z1.176
X869.949956 Y94.0637 Z1.247
X869.9962 Y94.0793 Z1.328
X870.029976 Y94.0900044 Z1.415
X870.050967 Y94.0982 Z1.506
X870.0584 Y94.1000064 Z1.6
G0 Z15.
X869.667974 Y95.2359
G1 Z5. F1200.
Z0.6
X869.660957 Y95.2326 Z0.506
X869.639956 Y95.2250069 Z0.415
X869.605962 Y95.2140058 Z0.328
X869.558965 Y95.197011 Z0.247
X869.501958 Y95.1782 Z0.176
X869.433961 Y95.1548 Z0.115
X869.3584 Y95.1280062 Z0.065
X869.2762 Y95.1000064 Z0.029
X869.188965 Y95.074 Z0.007
X869.16 Y95.044 Z0.
X868.532969 Y94.8448 F1000.
G3 X868.160957 Y94.0826 I0.195 J-0.567
G2 X865.324. Y90.106. I-2.837 J-0.976 F3600.
G1 X765.324.
G2 X762.725958 Y94.6065 I0. J3.
G1 X812.725952 Y181.2093
G2 X817.9228 I2.598 J-1.5
G1 X867.9228 Y94.6065
G2 X868.160957 Y94.0826 I-2.598 J-1.5
G3 X868.9239 Y93.714 I0.567 J0.195 F1000.
G1 X869.490977 Y93.905019
X869.579966 Y93.9350059 Z0.007
X869.665952 Y93.9650049 Z0.029
X869.7484 Y93.9930047 Z0.065
X869.8245 Y94.0200044 Z0.115
X869.891978 Y94.0437 Z0.176
X869.949956 Y94.0637 Z0.247
X869.9962 Y94.0793 Z0.328
X870.029976 Y94.0900044 Z0.415
X870.050967 Y94.098

(2D CONTOUR1)
G0 X979.04 Y2.1299
Z25.
Z15.
G1 Z14. F1200.
Z7.6
X978.9937 Y2.1266 Z7.506
X978.9726 Y2.1199 Z7.415
X978.9382 Y2.1088 Z7.328
X978.8915 Y2.0911 Z7.247
X978.8348 Y2.0722 Z7.176
X978.7661 Y2.0488 Z7.115
X978.694 Y2.0222 Z7.065
X978.608032 Y1.9944 Z7.029
X978.5215 Y1.9644 Z7.007
X978.4326 Y1.9344 Z7.
X977.8659 Y1.7388 F1000.
G3 X977.4937 Y0.9766 I0.195 J-0.567
G2 X974.656. Y-3.0. I-2.837 J-0.976 F3600.
G1 X874.656.
G2 X872.0588 Y1.55 I0. J3.
G1 X922.0582 Y88.1033
X922.064 Y88.1066
G2 X927.2548 Y88.1033 I2.596 J-1.504
G1 X977.2548 Y1.55
G2 X977.4937 Y0.9766 I-2.598 J-1.5
G3 X978.2559 Y0.6044 I0.567 J0.195 F1000.
G1 X978.8237 Y0.7999
X978.9126 Y0.8299 Z7.007
X978.9982 Y0.8599 Z7.029
X979.084 Y0.8877 Z7.065
X979.1565 Y0.9144 Z7.115
X979.2248 Y0.9377 Z7.176
X979.2826 Y0.9577 Z7.247
X979.3282 Y0.9733 Z7.328
X979.3626 Y0.9844 Z7.415
X979.3837 Y0.9922 Z7.506
X979.394 Y0.9944 Z7.6
G0 Z15.
X979.04 Y2.1299
G1 Z11. F1200.
Z4.6
X978.9937 Y2.1266 Z4.506
X978.9726 Y2.1199 Z4.415
X978.9382 Y2.1088 Z4.328
X978.8915 Y2.0911 Z4.247
X978.8348 Y2.0722 Z4.176
X978.7661 Y2.0488 Z4.115
X978.694 Y2.0222 Z4.065
X978.608032 Y1.9944 Z4.029
X978.5215 Y1.9644 Z4.007
X978.4326 Y1.9344 Z4.
X977.8659 Y1.7388 F1000.
G3 X977.4937 Y0.9766 I0.195 J-0.567
G2 X974.656. Y-3.0. I-2.837 J-0.976 F3600.
G1 X874.656.
G2 X872.0588 Y1.55 I0. J3.
G1 X922.0582 Y88.1033
G2 X927.2548 I2.598 J-1.5
G1 X977.2548 Y1.55
G2 X977.4937 Y0.9766 I-2.598 J-1.5
G3 X978.2559 Y0.6044 I0.567 J0.195 F1000.
G1 X978.8237 Y0.7999
X978.9126 Y0.8299 Z4.007
X978.9982 Y0.8599 Z4.029
X979.084 Y0.8877 Z4.065
X979.1565 Y0.9144 Z4.115
X979.2248 Y0.9377 Z4.176
X979.2826 Y0.9577 Z4.247
X979.3282 Y0.9733 Z4.328
X979.3626 Y0.9844 Z4.415
X979.3837 Y0.9922 Z4.506
X979.394 Y0.9944 Z4.6
G0 Z15.
X979.04 Y2.1299
G1 Z8. F1200.
Z1.6
X978.9937 Y2.1266 Z1.506
X978.9726 Y2.1199 Z1.415
X978.9382 Y2.1088 Z1.328
X978.8915 Y2.0911 Z1.247
X978.8348 Y2.0722 Z1.176
X978.7661 Y2.0488 Z1.115
X978.694 Y2.0222 Z1.065
X978.608032 Y1.9944 Z1.029
X978.5215 Y1.9644 Z1.007
X978.4326 Y1.9344 Z1.
X977.8659 Y1.7388 F1000.
G3 X977.4937 Y0.9766 I0.195 J-0.567
G2 X974.656. Y-3.0. I-2.837 J-0.976 F3600.
G1 X874.656.
G2 X872.0588 Y1.55 I0. J3.
G1 X922.0582 Y88.1033
G2 X927.2548 I2.598 J-1.5
G1 X977.2548 Y1.55
G2 X977.4937 Y0.9766 I-2.598 J-1.5
G3 X978.2559 Y0.6044 I0.567 J0.195 F1000.
G1 X978.8237 Y0.7999
X978.9126 Y0.8299 Z1.007
X978.9982 Y0.8599 Z1.029
X979.084 Y0.8877 Z1.065
X979.1565 Y0.9144 Z1.115
X979.2248 Y0.9377 Z1.176
X979.2826 Y0.9577 Z1.247
X979.3282 Y0.9733 Z1.328
X979.3626 Y0.9844 Z1.415
X979.3837 Y0.9922 Z1.506
X979.394 Y0.9944 Z1.6
G0 Z15.
X979.04 Y2.1299
G1 Z5. F1200.
Z0.6
X978.9937 Y2.1266 Z0.506
X978.9726 Y2.1199 Z0.415
X978.9382 Y2.1088 Z0.328
X978.8915 Y2.0911 Z0.247
X978.8348 Y2.0722 Z0.176
X978.7661 Y2.0488 Z0.115
X978.694 Y2.0222 Z0.065
X978.608032 Y1.9944 Z0.029
X978.5215 Y1.9644 Z0.007
X978.4326 Y1.9344 Z0.
X977.8659 Y1.7388 F1000.
G3 X977.4937 Y0.9766 I0.195 J-0.567
G2 X974.656. Y-3.0. I-2.837 J-0.976 F3600.
G1 X874.656.
G2 X872.0588 Y1.55 I0. J3.
G1 X922.0582 Y88.1033
G2 X927.2548 I2.598 J-1.5
G1 X977.2548 Y1.55
G2 X977.4937 Y0.9766 I-2.598 J-1.5
G3 X978.2559 Y0.6044 I0.567 J0.195 F1000.
G1 X978.8237 Y0.7999
X978.9126 Y0.8299 Z0.007
X978.9982 Y0.8599 Z0.029
X979.084 Y0.8877 Z0.065
X979.1565 Y0.9144 Z0.115
X979.2248 Y0.9377 Z0.176
X979.2826 Y0.9577 Z0.247
X979.3282 Y0.9733 Z0.328
X979.3626 Y0.9844 Z0.415
X979.3837 Y0.992

(2D CONTOUR1)
G0 X979.04 Y95.2359
Z25.
Z15.
G1 Z14. F1200.
Z7.6
X978.9937 Y95.2326 Z7.506
X978.9726 Y95.2250069 Z7.415
X978.9382 Y95.2140058 Z7.328
X978.8915 Y95.197011 Z7.247
X978.8348 Y95.1782 Z7.176
X978.7661 Y95.1548 Z7.115
X978.694 Y95.1280062 Z7.065
X978.608032 Y95.1000064 Z7.029
X978.5215 Y95.074 Z7.007
X978.4326 Y95.044 Z7.
X977.8659 Y94.8448 F1000.
G3 X977.4937 Y94.0826 I0.195 J-0.567
G2 X974.656. Y90.106. I-2.837 J-0.976 F3600.
G1 X874.656.
G2 X872.0588 Y94.6065 I0. J3.
G1 X922.0582 Y181.2093
X922.064 Y181.2126
G2 X927.2548 Y181.2093 I2.596 J-1.504
G1 X977.2548 Y94.6065
G2 X977.4937 Y94.0826 I-2.598 J-1.5
G3 X978.2559 Y93.714 I0.567 J0.195 F1000.
G1 X978.8237 Y93.905019
X978.9126 Y93.9350059 Z7.007
X978.9982 Y93.9650049 Z7.029
X979.084 Y93.9930047 Z7.065
X979.1565 Y94.0200044 Z7.115
X979.2248 Y94.0437 Z7.176
X979.2826 Y94.0637 Z7.247
X979.3282 Y94.0793 Z7.328
X979.3626 Y94.0900044 Z7.415
X979.3837 Y94.0982 Z7.506
X979.394 Y94.1000064 Z7.6
G0 Z15.
X979.04 Y95.2359
G1 Z11. F1200.
Z4.6
X978.9937 Y95.2326 Z4.506
X978.9726 Y95.2250069 Z4.415
X978.9382 Y95.2140058 Z4.328
X978.8915 Y95.197011 Z4.247
X978.8348 Y95.1782 Z4.176
X978.7661 Y95.1548 Z4.115
X978.694 Y95.1280062 Z4.065
X978.608032 Y95.1000064 Z4.029
X978.5215 Y95.074 Z4.007
X978.4326 Y95.044 Z4.
X977.8659 Y94.8448 F1000.
G3 X977.4937 Y94.0826 I0.195 J-0.567
G2 X974.656. Y90.106. I-2.837 J-0.976 F3600.
G1 X874.656.
G2 X872.0588 Y94.6065 I0. J3.
G1 X922.0582 Y181.2093
G2 X927.2548 I2.598 J-1.5
G1 X977.2548 Y94.6065
G2 X977.4937 Y94.0826 I-2.598 J-1.5
G3 X978.2559 Y93.714 I0.567 J0.195 F1000.
G1 X978.8237 Y93.905019
X978.9126 Y93.9350059 Z4.007
X978.9982 Y93.9650049 Z4.029
X979.084 Y93.9930047 Z4.065
X979.1565 Y94.0200044 Z4.115
X979.2248 Y94.0437 Z4.176
X979.2826 Y94.0637 Z4.247
X979.3282 Y94.0793 Z4.328
X979.3626 Y94.0900044 Z4.415
X979.3837 Y94.0982 Z4.506
X979.394 Y94.1000064 Z4.6
G0 Z15.
X979.04 Y95.2359
G1 Z8. F1200.
Z1.6
X978.9937 Y95.2326 Z1.506
X978.9726 Y95.2250069 Z1.415
X978.9382 Y95.2140058 Z1.328
X978.8915 Y95.197011 Z1.247
X978.8348 Y95.1782 Z1.176
X978.7661 Y95.1548 Z1.115
X978.694 Y95.1280062 Z1.065
X978.608032 Y95.1000064 Z1.029
X978.5215 Y95.074 Z1.007
X978.4326 Y95.044 Z1.
X977.8659 Y94.8448 F1000.
G3 X977.4937 Y94.0826 I0.195 J-0.567
G2 X974.656. Y90.106. I-2.837 J-0.976 F3600.
G1 X874.656.
G2 X872.0588 Y94.6065 I0. J3.
G1 X922.0582 Y181.2093
G2 X927.2548 I2.598 J-1.5
G1 X977.2548 Y94.6065
G2 X977.4937 Y94.0826 I-2.598 J-1.5
G3 X978.2559 Y93.714 I0.567 J0.195 F1000.
G1 X978.8237 Y93.905019
X978.9126 Y93.9350059 Z1.007
X978.9982 Y93.9650049 Z1.029
X979.084 Y93.9930047 Z1.065
X979.1565 Y94.0200044 Z1.115
X979.2248 Y94.0437 Z1.176
X979.2826 Y94.0637 Z1.247
X979.3282 Y94.0793 Z1.328
X979.3626 Y94.0900044 Z1.415
X979.3837 Y94.0982 Z1.506
X979.394 Y94.1000064 Z1.6
G0 Z15.
X979.04 Y95.2359
G1 Z5. F1200.
Z0.6
X978.9937 Y95.2326 Z0.506
X978.9726 Y95.2250069 Z0.415
X978.9382 Y95.2140058 Z0.328
X978.8915 Y95.197011 Z0.247
X978.8348 Y95.1782 Z0.176
X978.7661 Y95.1548 Z0.115
X978.694 Y95.1280062 Z0.065
X978.608032 Y95.1000064 Z0.029
X978.5215 Y95.074 Z0.007
X978.4326 Y95.044 Z0.
X977.8659 Y94.8448 F1000.
G3 X977.4937 Y94.0826 I0.195 J-0.567
G2 X974.656. Y90.106. I-2.837 J-0.976 F3600.
G1 X874.656.
G2 X872.0588 Y94.6065 I0. J3.
G1 X922.0582 Y181.2093
G2 X927.2548 I2.598 J-1.5
G1 X977.2548 Y94.6065
G2 X977.4937 Y94.0826 I-2.598 J-1.5
G3 X978.2559 Y93.714 I0.567 J0.195 F1000.
G1 X978.8237 Y93.905019
X978.9126 Y93.9350059 Z0.007
X978.9982 Y93.9650049 Z0.029
X979.084 Y93.9930047 Z0.065
X979.1565 Y94.0200044 Z0.115
X979.2248 Y94.0437 Z0.176
X979.2826 Y94.0637 Z0.247
X979.3282 Y94.0793 Z0.328
X979.3626 Y94.0900044 Z0.415
X979.3837 Y94.098

(2D CONTOUR1)
G0 X1088.3324 Y2.1299
Z25.
Z15.
G1 Z14. F1200.
Z7.6
X1088.32517 Y2.1266 Z7.506
X1088.30416 Y2.1199 Z7.415
X1088.272 Y2.1088 Z7.328
X1088.2235 Y2.0911 Z7.247
X1088.1668 Y2.0722 Z7.176
X1088.0981 Y2.0488 Z7.115
X1088.0224 Y2.0222 Z7.065
X1087.94012 Y1.9944 Z7.029
X1087.8535 Y1.9644 Z7.007
X1087.7646 Y1.9344 Z7.
X1087.1979 Y1.7388 F1000.
G3 X1086.82517 Y0.9766 I0.195 J-0.567
G2 X1083.988. Y-3.0. I-2.837 J-0.976 F3600.
G1 X983.98804.
G2 X981.398 Y1.55 I0. J3.
G1 X1031.392 Y88.1033
X1031.39214 Y88.1066
G2 X1036.5868 Y88.1033 I2.596 J-1.504
G1 X1086.5868 Y1.55
G2 X1086.82517 Y0.9766 I-2.598 J-1.5
G3 X1087.5879 Y0.6044 I0.567 J0.195 F1000.
G1 X1088.1557 Y0.7999
X1088.2446 Y0.8299 Z7.007
X1088.33012 Y0.8599 Z7.029
X1088.4124 Y0.8877 Z7.065
X1088.4885 Y0.9144 Z7.115
X1088.5568 Y0.9377 Z7.176
X1088.6146 Y0.9577 Z7.247
X1088.662 Y0.9733 Z7.328
X1088.69416 Y0.9844 Z7.415
X1088.71517 Y0.9922 Z7.506
X1088.7224 Y0.9944 Z7.6
G0 Z15.
X1088.3324 Y2.1299
G1 Z11. F1200.
Z4.6
X1088.32517 Y2.1266 Z4.506
X1088.30416 Y2.1199 Z4.415
X1088.272 Y2.1088 Z4.328
X1088.2235 Y2.0911 Z4.247
X1088.1668 Y2.0722 Z4.176
X1088.0981 Y2.0488 Z4.115
X1088.0224 Y2.0222 Z4.065
X1087.94012 Y1.9944 Z4.029
X1087.8535 Y1.9644 Z4.007
X1087.7646 Y1.9344 Z4.
X1087.1979 Y1.7388 F1000.
G3 X1086.82517 Y0.9766 I0.195 J-0.567
G2 X1083.988. Y-3.0. I-2.837 J-0.976 F3600.
G1 X983.98804.
G2 X981.398 Y1.55 I0. J3.
G1 X1031.392 Y88.1033
G2 X1036.5868 I2.598 J-1.5
G1 X1086.5868 Y1.55
G2 X1086.82517 Y0.9766 I-2.598 J-1.5
G3 X1087.5879 Y0.6044 I0.567 J0.195 F1000.
G1 X1088.1557 Y0.7999
X1088.2446 Y0.8299 Z4.007
X1088.33012 Y0.8599 Z4.029
X1088.4124 Y0.8877 Z4.065
X1088.4885 Y0.9144 Z4.115
X1088.5568 Y0.9377 Z4.176
X1088.6146 Y0.9577 Z4.247
X1088.662 Y0.9733 Z4.328
X1088.69416 Y0.9844 Z4.415
X1088.71517 Y0.9922 Z4.506
X1088.7224 Y0.9944 Z4.6
G0 Z15.
X1088.3324 Y2.1299
G1 Z8. F1200.
Z1.6
X1088.32517 Y2.1266 Z1.506
X1088.30416 Y2.1199 Z1.415
X1088.272 Y2.1088 Z1.328
X1088.2235 Y2.0911 Z1.247
X1088.1668 Y2.0722 Z1.176
X1088.0981 Y2.0488 Z1.115
X1088.0224 Y2.0222 Z1.065
X1087.94012 Y1.9944 Z1.029
X1087.8535 Y1.9644 Z1.007
X1087.7646 Y1.9344 Z1.
X1087.1979 Y1.7388 F1000.
G3 X1086.82517 Y0.9766 I0.195 J-0.567
G2 X1083.988. Y-3.0. I-2.837 J-0.976 F3600.
G1 X983.98804.
G2 X981.398 Y1.55 I0. J3.
G1 X1031.392 Y88.1033
G2 X1036.5868 I2.598 J-1.5
G1 X1086.5868 Y1.55
G2 X1086.82517 Y0.9766 I-2.598 J-1.5
G3 X1087.5879 Y0.6044 I0.567 J0.195 F1000.
G1 X1088.1557 Y0.7999
X1088.2446 Y0.8299 Z1.007
X1088.33012 Y0.8599 Z1.029
X1088.4124 Y0.8877 Z1.065
X1088.4885 Y0.9144 Z1.115
X1088.5568 Y0.9377 Z1.176
X1088.6146 Y0.9577 Z1.247
X1088.662 Y0.9733 Z1.328
X1088.69416 Y0.9844 Z1.415
X1088.71517 Y0.9922 Z1.506
X1088.7224 Y0.9944 Z1.6
G0 Z15.
X1088.3324 Y2.1299
G1 Z5. F1200.
Z0.6
X1088.32517 Y2.1266 Z0.506
X1088.30416 Y2.1199 Z0.415
X1088.272 Y2.1088 Z0.328
X1088.2235 Y2.0911 Z0.247
X1088.1668 Y2.0722 Z0.176
X1088.0981 Y2.0488 Z0.115
X1088.0224 Y2.0222 Z0.065
X1087.94012 Y1.9944 Z0.029
X1087.8535 Y1.9644 Z0.007
X1087.7646 Y1.9344 Z0.
X1087.1979 Y1.7388 F1000.
G3 X1086.82517 Y0.9766 I0.195 J-0.567
G2 X1083.988. Y-3.0. I-2.837 J-0.976 F3600.
G1 X983.98804.
G2 X981.398 Y1.55 I0. J3.
G1 X1031.392 Y88.1033
G2 X1036.5868 I2.598 J-1.5
G1 X1086.5868 Y1.55
G2 X1086.82517 Y0.9766 I-2.598 J-1.5
G3 X1087.5879 Y0.6044 I0.567 J0.195 F1000.
G1 X1088.1557 Y0.7999
X1088.2446 Y0.8299 Z0.007
X1088.33012 Y0.8599 Z0.029
X1088.4124 Y0.8877 Z0.065
X1088.4885 Y0.9144 Z0.115
X1088.5568 Y0.9377 Z0.176
X1088.6146 Y0.9577 Z0.247
X1088.662 Y0.9733 Z0.328
X1088.69416 Y0.9844 Z0.415
X1088.71517 Y0.992

(2D CONTOUR1)
G0 X1088.3324 Y95.2359
Z25.
Z15.
G1 Z14. F1200.
Z7.6
X1088.32517 Y95.2326 Z7.506
X1088.30416 Y95.2250069 Z7.415
X1088.272 Y95.2140058 Z7.328
X1088.2235 Y95.197011 Z7.247
X1088.1668 Y95.1782 Z7.176
X1088.0981 Y95.1548 Z7.115
X1088.0224 Y95.1280062 Z7.065
X1087.94012 Y95.1000064 Z7.029
X1087.8535 Y95.074 Z7.007
X1087.7646 Y95.044 Z7.
X1087.1979 Y94.8448 F1000.
G3 X1086.82517 Y94.0826 I0.195 J-0.567
G2 X1083.988. Y90.106. I-2.837 J-0.976 F3600.
G1 X983.98804.
G2 X981.398 Y94.6065 I0. J3.
G1 X1031.392 Y181.2093
X1031.39214 Y181.2126
G2 X1036.5868 Y181.2093 I2.596 J-1.504
G1 X1086.5868 Y94.6065
G2 X1086.82517 Y94.0826 I-2.598 J-1.5
G3 X1087.5879 Y93.714 I0.567 J0.195 F1000.
G1 X1088.1557 Y93.905019
X1088.2446 Y93.9350059 Z7.007
X1088.33012 Y93.9650049 Z7.029
X1088.4124 Y93.9930047 Z7.065
X1088.4885 Y94.0200044 Z7.115
X1088.5568 Y94.0437 Z7.176
X1088.6146 Y94.0637 Z7.247
X1088.662 Y94.0793 Z7.328
X1088.69416 Y94.0900044 Z7.415
X1088.71517 Y94.0982 Z7.506
X1088.7224 Y94.1000064 Z7.6
G0 Z15.
X1088.3324 Y95.2359
G1 Z11. F1200.
Z4.6
X1088.32517 Y95.2326 Z4.506
X1088.30416 Y95.2250069 Z4.415
X1088.272 Y95.2140058 Z4.328
X1088.2235 Y95.197011 Z4.247
X1088.1668 Y95.1782 Z4.176
X1088.0981 Y95.1548 Z4.115
X1088.0224 Y95.1280062 Z4.065
X1087.94012 Y95.1000064 Z4.029
X1087.8535 Y95.074 Z4.007
X1087.7646 Y95.044 Z4.
X1087.1979 Y94.8448 F1000.
G3 X1086.82517 Y94.0826 I0.195 J-0.567
G2 X1083.988. Y90.106. I-2.837 J-0.976 F3600.
G1 X983.98804.
G2 X981.398 Y94.6065 I0. J3.
G1 X1031.392 Y181.2093
G2 X1036.5868 I2.598 J-1.5
G1 X1086.5868 Y94.6065
G2 X1086.82517 Y94.0826 I-2.598 J-1.5
G3 X1087.5879 Y93.714 I0.567 J0.195 F1000.
G1 X1088.1557 Y93.905019
X1088.2446 Y93.9350059 Z4.007
X1088.33012 Y93.9650049 Z4.029
X1088.4124 Y93.9930047 Z4.065
X1088.4885 Y94.0200044 Z4.115
X1088.5568 Y94.0437 Z4.176
X1088.6146 Y94.0637 Z4.247
X1088.662 Y94.0793 Z4.328
X1088.69416 Y94.0900044 Z4.415
X1088.71517 Y94.0982 Z4.506
X1088.7224 Y94.1000064 Z4.6
G0 Z15.
X1088.3324 Y95.2359
G1 Z8. F1200.
Z1.6
X1088.32517 Y95.2326 Z1.506
X1088.30416 Y95.2250069 Z1.415
X1088.272 Y95.2140058 Z1.328
X1088.2235 Y95.197011 Z1.247
X1088.1668 Y95.1782 Z1.176
X1088.0981 Y95.1548 Z1.115
X1088.0224 Y95.1280062 Z1.065
X1087.94012 Y95.1000064 Z1.029
X1087.8535 Y95.074 Z1.007
X1087.7646 Y95.044 Z1.
X1087.1979 Y94.8448 F1000.
G3 X1086.82517 Y94.0826 I0.195 J-0.567
G2 X1083.988. Y90.106. I-2.837 J-0.976 F3600.
G1 X983.98804.
G2 X981.398 Y94.6065 I0. J3.
G1 X1031.392 Y181.2093
G2 X1036.5868 I2.598 J-1.5
G1 X1086.5868 Y94.6065
G2 X1086.82517 Y94.0826 I-2.598 J-1.5
G3 X1087.5879 Y93.714 I0.567 J0.195 F1000.
G1 X1088.1557 Y93.905019
X1088.2446 Y93.9350059 Z1.007
X1088.33012 Y93.9650049 Z1.029
X1088.4124 Y93.9930047 Z1.065
X1088.4885 Y94.0200044 Z1.115
X1088.5568 Y94.0437 Z1.176
X1088.6146 Y94.0637 Z1.247
X1088.662 Y94.0793 Z1.328
X1088.69416 Y94.0900044 Z1.415
X1088.71517 Y94.0982 Z1.506
X1088.7224 Y94.1000064 Z1.6
G0 Z15.
X1088.3324 Y95.2359
G1 Z5. F1200.
Z0.6
X1088.32517 Y95.2326 Z0.506
X1088.30416 Y95.2250069 Z0.415
X1088.272 Y95.2140058 Z0.328
X1088.2235 Y95.197011 Z0.247
X1088.1668 Y95.1782 Z0.176
X1088.0981 Y95.1548 Z0.115
X1088.0224 Y95.1280062 Z0.065
X1087.94012 Y95.1000064 Z0.029
X1087.8535 Y95.074 Z0.007
X1087.7646 Y95.044 Z0.
X1087.1979 Y94.8448 F1000.
G3 X1086.82517 Y94.0826 I0.195 J-0.567
G2 X1083.988. Y90.106. I-2.837 J-0.976 F3600.
G1 X983.98804.
G2 X981.398 Y94.6065 I0. J3.
G1 X1031.392 Y181.2093
G2 X1036.5868 I2.598 J-1.5
G1 X1086.5868 Y94.6065
G2 X1086.82517 Y94.0826 I-2.598 J-1.5
G3 X1087.5879 Y93.714 I0.567 J0.195 F1000.
G1 X1088.1557 Y93.905019
X1088.2446 Y93.9350059 Z0.007
X1088.33012 Y93.9650049 Z0.029
X1088.4124 Y93.9930047 Z0.065
X1088.4885 Y94.0200044 Z0.115
X1088.5568 Y94.0437 Z0.176
X1088.6146 Y94.0637 Z0.247
X1088.662 Y94.0793 Z0.328
X1088.69416 Y94.0900044 Z0.415
X1088.71517 Y94.098

M9
G28 G91 Z0.
G90
G28 G91 X0. Y0.
G90
M30


