((SQUARE)
(SQUARE)
(T26  D=6. CR=0. TAPER=118DEG - ZMIN=0. - DRILL)
(T161  D=6. CR=0. - ZMIN=0. - FLAT END MILL)
G90 G94 G91.1 G40 G49 G17
G21
G28 G91 Z0.
G90

(DRILL2)
M5
M9
T26 M6
S8000 M3
G54
M8
G0 X8.6595603E-16 Y14.142136 
Z25.
Z15.
G98 G81 X8.6595603E-16 Y14.142136 Z0. R15. F800. 
X63.63961 
Y63.63961 
X7.071068 
G80
Z25.
G28 G91 Z0.
G90

(2D CONTOUR1)
M5
M9
M1
T161 M6
S12000 M3
G54
M8
G0 X-38.325188 Y31.536963 
Z25.
Z15.
G1 Z14. F1200.
Z7.6
G18 G2 X-2.9698484 Z7. I0.0 K0. 
G1 X-2.5455844 F1000. 
G17 G3 X-37.476658 Y33.23402 I-0.42426407 J0.42426407 
G1 Y70.71068 F3600. 
G2 X-72.832 Y72.832 I2.1213202 J2.1213202 
G1 X70.71068 
G2 X2.1213202 Y143.54268 I2.1213202 J-2.1213202 
G1 Y0.0 
G2 X72.832 Y68.589355 I-2.1213202 J-2.1213202 
G1 X0.0 
G2 X-2.1213202 Y-2.1213202 I-2.1213202 J2.1213202 
G1 Y35.35534 
G3 X-38.325188 Y33.234016 I-0.42426407 J-0.42426407 F1000. 
G1 X-2.9698484 
G18 G3 X-3.3941126 Z7.6 I0.0 K0.6 
G0 Z15.
Y34.931076 
G1 Z11. F1200.
Z4.6
G2 X-2.9698484 Z4. I0.0 K0. 
G1 X-2.5455844 F1000. 
G17 G3 X-37.476658 Y33.23402 I-0.42426407 J0.42426407 
G1 Y70.71068 F3600. 
G2 X-72.832 Y72.832 I2.1213202 J2.1213202 
G1 X70.71068 
G2 X2.1213202 Y143.54268 I2.1213202 J-2.1213202 
G1 Y0.0 
G2 X72.832 Y68.589355 I-2.1213202 J-2.1213202 
G1 X0.0 
G2 X-2.1213202 Y-2.1213202 I-2.1213202 J2.1213202 
G1 Y35.35534 
G3 X-38.325188 Y33.234016 I-0.42426407 J-0.42426407 F1000. 
G1 X-2.9698484 
G18 G3 X-3.3941126 Z4.6 I0.0 K0.6 
G0 Z15.
Y34.931076 
G1 Z8. F1200.
Z1.6
G2 X-2.9698484 Z1. I0.0 K0. 
G1 X-2.5455844 F1000. 
G17 G3 X-37.476658 Y33.23402 I-0.42426407 J0.42426407 
G1 Y70.71068 F3600. 
G2 X-72.832 Y72.832 I2.1213202 J2.1213202 
G1 X70.71068 
G2 X2.1213202 Y143.54268 I2.1213202 J-2.1213202 
G1 Y0.0 
G2 X72.832 Y68.589355 I-2.1213202 J-2.1213202 
G1 X0.0 
G2 X-2.1213202 Y-2.1213202 I-2.1213202 J2.1213202 
G1 Y35.35534 
G3 X-38.325188 Y33.234016 I-0.42426407 J-0.42426407 F1000. 
G1 X-2.9698484 
G18 G3 X-3.3941126 Z1.6 I0.0 K0.6 
G0 Z15.
Y34.931076 
G1 Z5. F1200.
Z0.6
G2 X-2.9698484 Z0. I0.0 K0. 
G1 X-2.5455844 F1000. 
G17 G3 X-37.476658 Y33.23402 I-0.42426407 J0.42426407 
G1 Y70.71068 F3600. 
G2 X-72.832 Y72.832 I2.1213202 J2.1213202 
G1 X70.71068 
G2 X2.1213202 Y143.54268 I2.1213202 J-2.1213202 
G1 Y0.0 
G2 X72.832 Y68.589355 I-2.1213202 J-2.1213202 
G1 X0.0 
G2 X-2.1213202 Y-2.1213202 I-2.1213202 J2.1213202 
G1 Y35.35534 
G3 X-38.325188 Y33.234016 I-0.42426407 J-0.42426407 F1000. 
G1 X-2.9698484 
G18 G3 X-3.3941126 Z0.6 I0.0 K0.6 
G0 Z25.
G17

M9
G28 G91 Z0.
G90
G28 G91 X0.0 Y0.0 
G90
M30


