((TRIANGLE)
(TRIANGLE)
(T161  D=6. CR=0. - ZMIN=0. - FLAT END MILL)
G90 G94 G91.1 G40 G49 G17
G21
G28 G91 Z0.
G90

(DRILL1)
M5
M9
T161 M6
S12000 M3
G54
M8
X-66.6030 X-66.6030 Y50.0000 
Z25.
Z15.
X-66.6030 X-66.6030 X-66.6030 Y50.0000 Z0. R15. F1200. 
X-10.0000 Y17.3210 
X10.0000 
G80
Z25.

(2D CONTOUR1)
X-2.1290 X-2.1290 Y104.3440 
Z25.
Z15.
G1 Z14. F1200.
Z7.6
X-2.1260 Y104.3370 Z7.506 
X-2.1190 Y104.3160 Z7.415 
X-2.1080 Y104.2820 Z7.328 
X-2.0910 Y104.2350 Z7.247 
X-2.0720 Y104.1780 Z7.176 
X-2.0480 Y104.1100 Z7.115 
X-2.0220 Y104.0340 Z7.065 
X-1.9940 Y103.9520 Z7.029 
X-1.9640 Y103.8650 Z7.007 
X-1.9340 Y103.7760 Z7. 
X-1.7380 Y103.2090 F1000. 
X-0.9760 X-0.9760 Y102.8370 I0.5670 J0.1950 
X3.0000 X3.0000 Y100.0000 I0.9760 J-2.8370 F3600. 
X-3.0000 X-3.0000 
X-1.5000 X-1.5000 Y-2.5980 I-3.0000 J0.0000 
X-88.1030 X-88.1030 Y47.4020 
X-88.1060 Y47.4040 
X-88.1030 X-88.1030 Y52.5980 I1.5040 J2.5960 
X-1.5000 X-1.5000 Y102.5980 
X-0.9760 X-0.9760 Y102.8370 I1.5000 J-2.5980 
X-0.6040 X-0.6040 Y103.5990 I-0.1950 J0.5670 F1000. 
X-0.7990 X-0.7990 Y104.1670 
X-0.8290 Y104.2560 Z7.007 
X-0.8590 Y104.3420 Z7.029 
X-0.8870 Y104.4240 Z7.065 
X-0.9140 Y104.5000 Z7.115 
X-0.9370 Y104.5680 Z7.176 
X-0.9570 Y104.6260 Z7.247 
X-0.9730 Y104.6720 Z7.328 
X-0.9840 Y104.7060 Z7.415 
X-0.9920 Y104.7270 Z7.506 
X-0.9940 Y104.7340 Z7.6 
G0 Z15.
X-2.1290 Y104.3440 
G1 Z11. F1200.
Z4.6
X-2.1260 Y104.3370 Z4.506 
X-2.1190 Y104.3160 Z4.415 
X-2.1080 Y104.2820 Z4.328 
X-2.0910 Y104.2350 Z4.247 
X-2.0720 Y104.1780 Z4.176 
X-2.0480 Y104.1100 Z4.115 
X-2.0220 Y104.0340 Z4.065 
X-1.9940 Y103.9520 Z4.029 
X-1.9640 Y103.8650 Z4.007 
X-1.9340 Y103.7760 Z4. 
X-1.7380 Y103.2090 F1000. 
X-0.9760 X-0.9760 Y102.8370 I0.5670 J0.1950 
X3.0000 X3.0000 Y100.0000 I0.9760 J-2.8370 F3600. 
X-3.0000 X-3.0000 
X-1.5000 X-1.5000 Y-2.5980 I-3.0000 J0.0000 
X-88.1030 X-88.1030 Y47.4020 
X88.1030 X88.1030 Y52.5980 Y52.5980 
X-1.5000 X-1.5000 Y102.5980 
X-0.9760 X-0.9760 Y102.8370 I1.5000 J-2.5980 
X-0.6040 X-0.6040 Y103.5990 I-0.1950 J0.5670 F1000. 
X-0.7990 X-0.7990 Y104.1670 
X-0.8290 Y104.2560 Z4.007 
X-0.8590 Y104.3420 Z4.029 
X-0.8870 Y104.4240 Z4.065 
X-0.9140 Y104.5000 Z4.115 
X-0.9370 Y104.5680 Z4.176 
X-0.9570 Y104.6260 Z4.247 
X-0.9730 Y104.6720 Z4.328 
X-0.9840 Y104.7060 Z4.415 
X-0.9920 Y104.7270 Z4.506 
X-0.9940 Y104.7340 Z4.6 
G0 Z15.
X-2.1290 Y104.3440 
G1 Z8. F1200.
Z1.6
X-2.1260 Y104.3370 Z1.506 
X-2.1190 Y104.3160 Z1.415 
X-2.1080 Y104.2820 Z1.328 
X-2.0910 Y104.2350 Z1.247 
X-2.0720 Y104.1780 Z1.176 
X-2.0480 Y104.1100 Z1.115 
X-2.0220 Y104.0340 Z1.065 
X-1.9940 Y103.9520 Z1.029 
X-1.9640 Y103.8650 Z1.007 
X-1.9340 Y103.7760 Z1. 
X-1.7380 Y103.2090 F1000. 
X-0.9760 X-0.9760 Y102.8370 I0.5670 J0.1950 
X3.0000 X3.0000 Y100.0000 I0.9760 J-2.8370 F3600. 
X-3.0000 X-3.0000 
X-1.5000 X-1.5000 Y-2.5980 I-3.0000 J0.0000 
X-88.1030 X-88.1030 Y47.4020 
X88.1030 X88.1030 Y52.5980 Y52.5980 
X-1.5000 X-1.5000 Y102.5980 
X-0.9760 X-0.9760 Y102.8370 I1.5000 J-2.5980 
X-0.6040 X-0.6040 Y103.5990 I-0.1950 J0.5670 F1000. 
X-0.7990 X-0.7990 Y104.1670 
X-0.8290 Y104.2560 Z1.007 
X-0.8590 Y104.3420 Z1.029 
X-0.8870 Y104.4240 Z1.065 
X-0.9140 Y104.5000 Z1.115 
X-0.9370 Y104.5680 Z1.176 
X-0.9570 Y104.6260 Z1.247 
X-0.9730 Y104.6720 Z1.328 
X-0.9840 Y104.7060 Z1.415 
X-0.9920 Y104.7270 Z1.506 
X-0.9940 Y104.7340 Z1.6 
G0 Z15.
X-2.1290 Y104.3440 
G1 Z5. F1200.
Z0.6
X-2.1260 Y104.3370 Z0.506 
X-2.1190 Y104.3160 Z0.415 
X-2.1080 Y104.2820 Z0.328 
X-2.0910 Y104.2350 Z0.247 
X-2.0720 Y104.1780 Z0.176 
X-2.0480 Y104.1100 Z0.115 
X-2.0220 Y104.0340 Z0.065 
X-1.9940 Y103.9520 Z0.029 
X-1.9640 Y103.8650 Z0.007 
X-1.9340 Y103.7760 Z0. 
X-1.7380 Y103.2090 F1000. 
X-0.9760 X-0.9760 Y102.8370 I0.5670 J0.1950 
X3.0000 X3.0000 Y100.0000 I0.9760 J-2.8370 F3600. 
X-3.0000 X-3.0000 
X-1.5000 X-1.5000 Y-2.5980 I-3.0000 J0.0000 
X-88.1030 X-88.1030 Y47.4020 
X88.1030 X88.1030 Y52.5980 Y52.5980 
X-1.5000 X-1.5000 Y102.5980 
X-0.9760 X-0.9760 Y102.8370 I1.5000 J-2.5980 
X-0.6040 X-0.6040 Y103.5990 I-0.1950 J0.5670 F1000. 
X-0.7990 X-0.7990 Y104.1670 
X-0.8290 Y104.2560 Z0.007 
X-0.8590 Y104.3420 Z0.029 
X-0.8870 Y104.4240 Z0.065 
X-0.9140 Y104.5000 Z0.115 
X-0.9370 Y104.5680 Z0.176 
X-0.9570 Y104.6260 Z0.247 
X-0.9730 Y104.6720 Z0.328 
X-0.9840 Y104.7060 Z0.415 
X-0.9920 Y104.7270 Z0.506 
X-0.9940 Y104.7340 Z0.6 
G0 Z25.

M9
G28 G91 Z0.
G90
X0.0000 X0.0000 X0.0000 Y0.0000 
G90
M30


