(SQUARE)
(SQUARE)
(T26  D=6. CR=0. TAPER=118DEG - ZMIN=0. - DRILL)
(T161  D=6. CR=0. - ZMIN=0. - FLAT END MILL)
G90 G94 G91.1 G40 G49 G17
G21
G28 G91 Z0.
G90

(DRILL2)
M5
M9
T26 M6
S8000 M3
G54
M8
G0 X10. Y10.
Z25.
Z15.
G98 G81 X10. Y10. Z0. R15. F800.
X90.
Y90.
X10.
G80
Z25.
G28 G91 Z0.
G90

(2D CONTOUR1)
M5
M9
M1
T161 M6
S12000 M3
G54
M8
G0 X-4.8 Y49.4
Z25.
Z15.
G1 Z14. F1200.
Z7.6
G18 G2 X-4.2 Z7. I0.6 K0.
G1 X-3.6 F1000.
G17 G3 X-3. Y50. I0. J0.6
G1 Y100. F3600.
G2 X0. Y103. I3. J0.
G1 X100.
G2 X103. Y100. I0. J-3.
G1 Y0.
G2 X100. Y-3. I-3. J0.
G1 X0.
G2 X-3. Y0. I0. J3.
G1 Y50.
G3 X-3.6 Y50.6 I-0.6 J0. F1000.
G1 X-4.2
G18 G3 X-4.8 Z7.6 I0. K0.6
G0 Z15.
Y49.4
G1 Z11. F1200.
Z4.6
G2 X-4.2 Z4. I0.6 K0.
G1 X-3.6 F1000.
G17 G3 X-3. Y50. I0. J0.6
G1 Y100. F3600.
G2 X0. Y103. I3. J0.
G1 X100.
G2 X103. Y100. I0. J-3.
G1 Y0.
G2 X100. Y-3. I-3. J0.
G1 X0.
G2 X-3. Y0. I0. J3.
G1 Y50.
G3 X-3.6 Y50.6 I-0.6 J0. F1000.
G1 X-4.2
G18 G3 X-4.8 Z4.6 I0. K0.6
G0 Z15.
Y49.4
G1 Z8. F1200.
Z1.6
G2 X-4.2 Z1. I0.6 K0.
G1 X-3.6 F1000.
G17 G3 X-3. Y50. I0. J0.6
G1 Y100. F3600.
G2 X0. Y103. I3. J0.
G1 X100.
G2 X103. Y100. I0. J-3.
G1 Y0.
G2 X100. Y-3. I-3. J0.
G1 X0.
G2 X-3. Y0. I0. J3.
G1 Y50.
G3 X-3.6 Y50.6 I-0.6 J0. F1000.
G1 X-4.2
G18 G3 X-4.8 Z1.6 I0. K0.6
G0 Z15.
Y49.4
G1 Z5. F1200.
Z0.6
G2 X-4.2 Z0. I0.6 K0.
G1 X-3.6 F1000.
G17 G3 X-3. Y50. I0. J0.6
G1 Y100. F3600.
G2 X0. Y103. I3. J0.
G1 X100.
G2 X103. Y100. I0. J-3.
G1 Y0.
G2 X100. Y-3. I-3. J0.
G1 X0.
G2 X-3. Y0. I0. J3.
G1 Y50.
G3 X-3.6 Y50.6 I-0.6 J0. F1000.
G1 X-4.2
G18 G3 X-4.8 Z0.6 I0. K0.6
G0 Z25.
G17

M9
G28 G91 Z0.
G90
G28 G91 X0. Y0.
G90
M30
