(2018-01-30 SPOOL RAIL)
(2018-01-30 SPOOL RAIL)
(T24  D=4. CR=0. TAPER=118DEG - ZMIN=-2.702 - DRILL)
(T142  D=3.8 CR=0. - ZMIN=0. - FLAT END MILL)
(T162  D=5.5 CR=0. - ZMIN=0. - FLAT END MILL)
G90 G94 G91.1 G40 G49 G17
G21
G28 G91 Z0.
G90

(DRILL3 3)
M5
M9
T24 M6
S8000 M3
G54
M8
G0 X24.025 Y20.317
Z33.2
Z23.2
G98 G83 X24.025 Y20.317 Z-2.702 R23.2 Q4. F800.
X75.975
X113.08 Y55.
X165.03
G80
Z33.2
G28 G91 Z0.
G90

(2D POCKET2 2)
M5
M9
M1
T162 M6
S12000 M3
G54
M8
G0 X50.274 Y55.88
Z33.2
Z23.2
G1 Z14.695 F1000.
X50.267 Y55.881 Z14.609
X50.245 Y55.885 Z14.526
X50.209 Y55.89 Z14.447
X50.16 Y55.898 Z14.377
X50.099 Y55.908 Z14.316
X50.03 Y55.919 Z14.266
X49.952 Y55.931 Z14.23
X49.87 Y55.944 Z14.208
X49.785 Y55.957 Z14.2
X45.348 Y56.66
X45.262 Y56.667
X42.626 F3600.
X40.904
X40.825 Y56.668
X40.826 Y56.589
Y44.045
X40.825 Y43.966
X40.904 Y43.967
X45.255
X40.904 Z14.085 F1000.
X40.825 Y43.966 Z14.083
X40.826 Y44.045 Z14.081
Y56.589 Z13.748
X40.825 Y56.668 Z13.746
X40.904 Y56.667 Z13.744
X45.262 Z13.629
X40.904 Z13.513
X40.825 Y56.668 Z13.511
X40.826 Y56.589 Z13.509
Y44.045 Z13.177
X40.825 Y43.966 Z13.175
X40.904 Y43.967 Z13.172
X45.255 Z13.057
X40.904 Z12.942
X40.825 Y43.966 Z12.94
X40.826 Y44.045 Z12.938
Y56.589 Z12.605
X40.825 Y56.668 Z12.603
X40.904 Y56.667 Z12.601
X45.262 Z12.486
X40.904 Z12.37
X40.825 Y56.668 Z12.368
X40.826 Y56.589 Z12.366
Y44.045 Z12.034
X40.825 Y43.966 Z12.032
X40.904 Y43.967 Z12.03
X45.255 Z11.914
X40.904 Z11.799
X40.825 Y43.966 Z11.797
X40.826 Y44.045 Z11.795
Y56.589 Z11.463
X40.825 Y56.668 Z11.46
X40.904 Y56.667 Z11.458
X45.262 Z11.343
X40.904 Z11.227
X40.825 Y56.668 Z11.225
X40.826 Y56.589 Z11.223
Y44.045 Z10.891
X40.825 Y43.966 Z10.889
X40.904 Y43.967 Z10.887
X45.255 Z10.771
X40.904 Z10.656
X40.825 Y43.966 Z10.654
X40.826 Y44.045 Z10.652
Y56.589 Z10.32
X40.825 Y56.668 Z10.318
X40.904 Y56.667 Z10.315
X45.262 Z10.2
X42.626 F3600.
X40.904
X40.825 Y56.668
X40.826 Y56.589
Y44.045
X40.825 Y43.966
X40.904 Y43.967
X45.255
X40.904 Z10.126 F1000.
X40.825 Y43.966 Z10.125
X40.826 Y44.045 Z10.123
Y56.589 Z9.91
X40.825 Y56.668 Z9.909
X40.904 Y56.667 Z9.907
X45.262 Z9.833
X40.904 Z9.759
X40.825 Y56.668 Z9.758
X40.826 Y56.589 Z9.757
Y44.045 Z9.543
X40.825 Y43.966 Z9.542
X40.904 Y43.967 Z9.541
X45.255 Z9.467
X40.904 Z9.393
X40.825 Y43.966 Z9.391
X40.826 Y44.045 Z9.39
Y56.589 Z9.177
X40.825 Y56.668 Z9.175
X40.904 Y56.667 Z9.174
X45.262 Z9.1
X42.626 F3600.
X40.904
X40.825 Y56.668
X40.826 Y56.589
Y44.045
X40.825 Y43.966
X40.904 Y43.967
X45.255
X45.341 Y43.974 F1000.
X48.057 Y44.404
X48.142 Y44.417 Z9.107
X48.225 Y44.431 Z9.127
X48.304 Y44.443 Z9.16
X48.377 Y44.455 Z9.205
X48.441 Y44.465 Z9.261
X48.497 Y44.474 Z9.327
X48.541 Y44.481 Z9.4
X48.574 Y44.486 Z9.48
X48.594 Y44.489 Z9.564
X48.6 Y44.49 Z9.65
G0 Z33.2
X49.716 Y44.755
Z23.2
G1 Z14.695 F1000.
X49.724 Y44.754 Z14.609
X49.746 Y44.751 Z14.526
X49.782 Y44.745 Z14.447
X49.831 Y44.737 Z14.377
X49.891 Y44.728 Z14.316
X49.961 Y44.717 Z14.266
X50.038 Y44.705 Z14.23
X50.12 Y44.691 Z14.208
X50.205 Y44.678 Z14.2
X54.652 Y43.974
X54.738 Y43.967
X57.374 F3600.
X59.096
X59.175 Y43.966
X59.174 Y44.045
Y56.589
X59.175 Y56.668
X59.096 Y56.667
X54.745
X59.096 Z14.085 F1000.
X59.175 Y56.668 Z14.083
X59.174 Y56.589 Z14.081
Y44.045 Z13.748
X59.175 Y43.966 Z13.746
X59.096 Y43.967 Z13.744
X54.738 Z13.629
X59.096 Z13.513
X59.175 Y43.966 Z13.511
X59.174 Y44.045 Z13.509
Y56.589 Z13.177
X59.175 Y56.668 Z13.175
X59.096 Y56.667 Z13.172
X54.745 Z13.057
X59.096 Z12.942
X59.175 Y56.668 Z12.94
X59.174 Y56.589 Z12.938
Y44.045 Z12.605
X59.175 Y43.966 Z12.603
X59.096 Y43.967 Z12.601
X54.738 Z12.486
X59.096 Z12.37
X59.175 Y43.966 Z12.368
X59.174 Y44.045 Z12.366
Y56.589 Z12.034
X59.175 Y56.668 Z12.032
X59.096 Y56.667 Z12.03
X54.745 Z11.914
X59.096 Z11.799
X59.175 Y56.668 Z11.797
X59.174 Y56.589 Z11.795
Y44.045 Z11.463
X59.175 Y43.966 Z11.46
X59.096 Y43.967 Z11.458
X54.738 Z11.343
X59.096 Z11.227
X59.175 Y43.966 Z11.225
X59.174 Y44.045 Z11.223
Y56.589 Z10.891
X59.175 Y56.668 Z10.889
X59.096 Y56.667 Z10.887
X54.745 Z10.771
X59.096 Z10.656
X59.175 Y56.668 Z10.654
X59.174 Y56.589 Z10.652
Y44.045 Z10.32
X59.175 Y43.966 Z10.318
X59.096 Y43.967 Z10.315
X54.738 Z10.2
X57.374 F3600.
X59.096
X59.175 Y43.966
X59.174 Y44.045
Y56.589
X59.175 Y56.668
X59.096 Y56.667
X54.745
X59.096 Z10.126 F1000.
X59.175 Y56.668 Z10.125
X59.174 Y56.589 Z10.123
Y44.045 Z9.91
X59.175 Y43.966 Z9.909
X59.096 Y43.967 Z9.907
X54.738 Z9.833
X59.096 Z9.759
X59.175 Y43.966 Z9.758
X59.174 Y44.045 Z9.757
Y56.589 Z9.543
X59.175 Y56.668 Z9.542
X59.096 Y56.667 Z9.541
X54.745 Z9.467
X59.096 Z9.393
X59.175 Y56.668 Z9.391
X59.174 Y56.589 Z9.39
Y44.045 Z9.177
X59.175 Y43.966 Z9.175
X59.096 Y43.967 Z9.174
X54.738 Z9.1
X57.374 F3600.
X59.096
X59.175 Y43.966
X59.174 Y44.045
Y56.589
X59.175 Y56.668
X59.096 Y56.667
X54.745
X54.659 Y56.66 F1000.
X51.943 Y56.23
X51.858 Y56.217 Z9.107
X51.775 Y56.203 Z9.127
X51.696 Y56.191 Z9.16
X51.623 Y56.179 Z9.205
X51.559 Y56.169 Z9.261
X51.503 Y56.16 Z9.327
X51.459 Y56.153 Z9.4
X51.426 Y56.148 Z9.48
X51.406 Y56.145 Z9.564
X51.4 Y56.144 Z9.65
G0 Z33.2
X139.329 Y30.563
Z23.2
G1 Z14.695 F1000.
X139.322 Y30.564 Z14.609
X139.3 Y30.568 Z14.526
X139.264 Y30.573 Z14.447
X139.215 Y30.581 Z14.377
X139.155 Y30.591 Z14.316
X139.085 Y30.602 Z14.266
X139.008 Y30.614 Z14.23
X138.925 Y30.627 Z14.208
X138.841 Y30.64 Z14.2
X134.404 Y31.343
X134.318 Y31.35
X131.681 F3600.
X129.959
X129.88 Y31.351
X129.881 Y31.272
Y18.728
X129.88 Y18.649
X129.959 Y18.65
X134.31
X129.959 Z14.085 F1000.
X129.88 Y18.649 Z14.083
X129.881 Y18.728 Z14.081
Y31.272 Z13.748
X129.88 Y31.351 Z13.746
X129.959 Y31.35 Z13.744
X134.318 Z13.629
X129.959 Z13.513
X129.88 Y31.351 Z13.511
X129.881 Y31.272 Z13.509
Y18.728 Z13.177
X129.88 Y18.649 Z13.175
X129.959 Y18.65 Z13.172
X134.31 Z13.057
X129.959 Z12.942
X129.88 Y18.649 Z12.94
X129.881 Y18.728 Z12.938
Y31.272 Z12.605
X129.88 Y31.351 Z12.603
X129.959 Y31.35 Z12.601
X134.318 Z12.486
X129.959 Z12.37
X129.88 Y31.351 Z12.368
X129.881 Y31.272 Z12.366
Y18.728 Z12.034
X129.88 Y18.649 Z12.032
X129.959 Y18.65 Z12.03
X134.31 Z11.914
X129.959 Z11.799
X129.88 Y18.649 Z11.797
X129.881 Y18.728 Z11.795
Y31.272 Z11.463
X129.88 Y31.351 Z11.46
X129.959 Y31.35 Z11.458
X134.318 Z11.343
X129.959 Z11.227
X129.88 Y31.351 Z11.225
X129.881 Y31.272 Z11.223
Y18.728 Z10.891
X129.88 Y18.649 Z10.889
X129.959 Y18.65 Z10.887
X134.31 Z10.771
X129.959 Z10.656
X129.88 Y18.649 Z10.654
X129.881 Y18.728 Z10.652
Y31.272 Z10.32
X129.88 Y31.351 Z10.318
X129.959 Y31.35 Z10.315
X134.318 Z10.2
X131.681 F3600.
X129.959
X129.88 Y31.351
X129.881 Y31.272
Y18.728
X129.88 Y18.649
X129.959 Y18.65
X134.31
X129.959 Z10.126 F1000.
X129.88 Y18.649 Z10.125
X129.881 Y18.728 Z10.123
Y31.272 Z9.91
X129.88 Y31.351 Z9.909
X129.959 Y31.35 Z9.907
X134.318 Z9.833
X129.959 Z9.759
X129.88 Y31.351 Z9.758
X129.881 Y31.272 Z9.757
Y18.728 Z9.543
X129.88 Y18.649 Z9.542
X129.959 Y18.65 Z9.541
X134.31 Z9.467
X129.959 Z9.393
X129.88 Y18.649 Z9.391
X129.881 Y18.728 Z9.39
Y31.272 Z9.177
X129.88 Y31.351 Z9.175
X129.959 Y31.35 Z9.174
X134.318 Z9.1
X131.681 F3600.
X129.959
X129.88 Y31.351
X129.881 Y31.272
Y18.728
X129.88 Y18.649
X129.959 Y18.65
X134.31
X134.396 Y18.657 F1000.
X137.113 Y19.087
X137.198 Y19.1 Z9.107
X137.28 Y19.114 Z9.127
X137.359 Y19.126 Z9.16
X137.432 Y19.138 Z9.205
X137.497 Y19.148 Z9.261
X137.552 Y19.157 Z9.327
X137.597 Y19.164 Z9.4
X137.629 Y19.169 Z9.48
X137.649 Y19.172 Z9.564
X137.656 Y19.173 Z9.65
G0 Z33.2
X138.771 Y19.438
Z23.2
G1 Z14.695 F1000.
X138.778 Y19.437 Z14.609
X138.8 Y19.434 Z14.526
X138.836 Y19.428 Z14.447
X138.885 Y19.42 Z14.377
X138.946 Y19.411 Z14.316
X139.015 Y19.4 Z14.266
X139.093 Y19.388 Z14.23
X139.175 Y19.374 Z14.208
X139.26 Y19.361 Z14.2
X143.706 Y18.657
X143.792 Y18.65
X146.429 F3600.
X148.151
X148.23 Y18.649
X148.229 Y18.728
Y31.272
X148.23 Y31.351
X148.151 Y31.35
X143.8
X148.151 Z14.085 F1000.
X148.23 Y31.351 Z14.083
X148.229 Y31.272 Z14.081
Y18.728 Z13.748
X148.23 Y18.649 Z13.746
X148.151 Y18.65 Z13.744
X143.792 Z13.629
X148.151 Z13.513
X148.23 Y18.649 Z13.511
X148.229 Y18.728 Z13.509
Y31.272 Z13.177
X148.23 Y31.351 Z13.175
X148.151 Y31.35 Z13.172
X143.8 Z13.057
X148.151 Z12.942
X148.23 Y31.351 Z12.94
X148.229 Y31.272 Z12.938
Y18.728 Z12.605
X148.23 Y18.649 Z12.603
X148.151 Y18.65 Z12.601
X143.792 Z12.486
X148.151 Z12.37
X148.23 Y18.649 Z12.368
X148.229 Y18.728 Z12.366
Y31.272 Z12.034
X148.23 Y31.351 Z12.032
X148.151 Y31.35 Z12.03
X143.8 Z11.914
X148.151 Z11.799
X148.23 Y31.351 Z11.797
X148.229 Y31.272 Z11.795
Y18.728 Z11.463
X148.23 Y18.649 Z11.46
X148.151 Y18.65 Z11.458
X143.792 Z11.343
X148.151 Z11.227
X148.23 Y18.649 Z11.225
X148.229 Y18.728 Z11.223
Y31.272 Z10.891
X148.23 Y31.351 Z10.889
X148.151 Y31.35 Z10.887
X143.8 Z10.771
X148.151 Z10.656
X148.23 Y31.351 Z10.654
X148.229 Y31.272 Z10.652
Y18.728 Z10.32
X148.23 Y18.649 Z10.318
X148.151 Y18.65 Z10.315
X143.792 Z10.2
X146.429 F3600.
X148.151
X148.23 Y18.649
X148.229 Y18.728
Y31.272
X148.23 Y31.351
X148.151 Y31.35
X143.8
X148.151 Z10.126 F1000.
X148.23 Y31.351 Z10.125
X148.229 Y31.272 Z10.123
Y18.728 Z9.91
X148.23 Y18.649 Z9.909
X148.151 Y18.65 Z9.907
X143.792 Z9.833
X148.151 Z9.759
X148.23 Y18.649 Z9.758
X148.229 Y18.728 Z9.757
Y31.272 Z9.543
X148.23 Y31.351 Z9.542
X148.151 Y31.35 Z9.541
X143.8 Z9.467
X148.151 Z9.393
X148.23 Y31.351 Z9.391
X148.229 Y31.272 Z9.39
Y18.728 Z9.177
X148.23 Y18.649 Z9.175
X148.151 Y18.65 Z9.174
X143.792 Z9.1
X146.429 F3600.
X148.151
X148.23 Y18.649
X148.229 Y18.728
Y31.272
X148.23 Y31.351
X148.151 Y31.35
X143.8
X143.714 Y31.343 F1000.
X140.997 Y30.913
X140.912 Y30.9 Z9.107
X140.83 Y30.886 Z9.127
X140.751 Y30.874 Z9.16
X140.678 Y30.862 Z9.205
X140.613 Y30.852 Z9.261
X140.558 Y30.843 Z9.327
X140.513 Y30.836 Z9.4
X140.481 Y30.831 Z9.48
X140.461 Y30.828 Z9.564
X140.454 Y30.827 Z9.65
G0 Z33.2
X138.858 Y28.61
Z23.2
G1 Z21.25 F1000.
X138.829 Y28.637 Z21.046
X138.746 Y28.711 Z20.872
X138.615 Y28.816 Z20.751
X138.531 Y28.876 Z20.715
X138.44 Y28.936 Z20.7
G3 X135.655 Y24.516 Z20.413 I-1.393 J-2.21
X138.44 Y28.936 Z20.127 I1.393 J2.21
X135.655 Y24.516 Z19.84 I-1.393 J-2.21
X138.44 Y28.936 Z19.554 I1.393 J2.21
X135.655 Y24.516 Z19.267 I-1.393 J-2.21
X138.44 Y28.936 Z18.98 I1.393 J2.21
X135.655 Y24.516 Z18.694 I-1.393 J-2.21
X138.44 Y28.936 Z18.407 I1.393 J2.21
X135.655 Y24.516 Z18.121 I-1.393 J-2.21
X138.44 Y28.936 Z17.834 I1.393 J2.21
X135.655 Y24.516 Z17.547 I-1.393 J-2.21
X138.44 Y28.936 Z17.261 I1.393 J2.21
X135.655 Y24.516 Z16.974 I-1.393 J-2.21
X138.44 Y28.936 Z16.687 I1.393 J2.21
X135.655 Y24.516 Z16.401 I-1.393 J-2.21
X138.44 Y28.936 Z16.114 I1.393 J2.21
X135.655 Y24.516 Z15.828 I-1.393 J-2.21
X138.44 Y28.936 Z15.541 I1.393 J2.21
X135.655 Y24.516 Z15.254 I-1.393 J-2.21
X138.44 Y28.936 Z14.968 I1.393 J2.21
X135.655 Y24.516 Z14.681 I-1.393 J-2.21
X138.44 Y28.936 Z14.395 I1.393 J2.21
X134.435 Y26.726 Z14.2 I-1.393 J-2.21
X139.197 I2.381 J0.
G1 Y26.738 F3600.
X139.19 Y26.778
X139.172 Y26.814
X139.143 Y26.843
X139.107 Y26.861
X139.067 Y26.868
X139.043
X139.003 Y26.861
X138.967 Y26.843
X138.938 Y26.814
X138.92 Y26.778
X138.913 Y26.738
Y23.36
G3 X139.197 I0.142 J0.
G1 Y26.726
G2 X140.227 Y29.008 I3.044 J0.
G3 X139.341 Y31.35 I-0.886 J1.003
G1 X134.509
X134.43 Y31.351
X134.431 Y31.272
Y18.728
X134.43 Y18.649
X134.509 Y18.65
X143.601
X143.68 Y18.649
X143.679 Y18.728
Y31.272
X143.68 Y31.351
X143.601 Y31.35
X139.341
X139.287 Y31.345
X139.235 Y31.329
X139.187 Y31.303
X139.145 Y31.268
X134.536 Y26.599
X134.498 Y26.55
X134.471 Y26.493
X134.458 Y26.431
X134.46 Y26.368
G3 X139.635 Y27.084 Z13.913 I2.588 J0.358 F1000.
X134.46 Y26.368 Z13.627 I-2.588 J-0.358
X139.635 Y27.084 Z13.34 I2.588 J0.358
X134.46 Y26.368 Z13.054 I-2.588 J-0.358
X139.635 Y27.084 Z12.767 I2.588 J0.358
X134.46 Y26.368 Z12.48 I-2.588 J-0.358
X139.635 Y27.084 Z12.194 I2.588 J0.358
X134.46 Y26.368 Z11.907 I-2.588 J-0.358
X139.635 Y27.084 Z11.621 I2.588 J0.358
X134.46 Y26.368 Z11.334 I-2.588 J-0.358
X139.635 Y27.084 Z11.047 I2.588 J0.358
X134.46 Y26.368 Z10.761 I-2.588 J-0.358
X139.635 Y27.084 Z10.474 I2.588 J0.358
X134.435 Y26.726 Z10.2 I-2.588 J-0.358
X139.197 I2.381 J0.
G1 Y26.738 F3600.
X139.19 Y26.778
X139.172 Y26.814
X139.143 Y26.843
X139.107 Y26.861
X139.067 Y26.868
X139.043
X139.003 Y26.861
X138.967 Y26.843
X138.938 Y26.814
X138.92 Y26.778
X138.913 Y26.738
Y23.36
G3 X139.197 I0.142 J0.
G1 Y26.726
G2 X140.227 Y29.008 I3.044 J0.
G3 X139.341 Y31.35 I-0.886 J1.003
G1 X134.509
X134.43 Y31.351
X134.431 Y31.272
Y18.728
X134.43 Y18.649
X134.509 Y18.65
X143.601
X143.68 Y18.649
X143.679 Y18.728
Y31.272
X143.68 Y31.351
X143.601 Y31.35
X139.341
X139.287 Y31.345
X139.235 Y31.329
X139.187 Y31.303
X139.145 Y31.268
X134.536 Y26.599
X134.498 Y26.55
X134.471 Y26.493
X134.458 Y26.431
X134.46 Y26.368
G3 X139.635 Y27.084 Z9.913 I2.588 J0.358 F1000.
X134.46 Y26.368 Z9.627 I-2.588 J-0.358
X139.635 Y27.084 Z9.34 I2.588 J0.358
X134.46 Y26.368 Z9.054 I-2.588 J-0.358
X139.635 Y27.084 Z8.767 I2.588 J0.358
X134.46 Y26.368 Z8.48 I-2.588 J-0.358
X139.635 Y27.084 Z8.194 I2.588 J0.358
X134.46 Y26.368 Z7.907 I-2.588 J-0.358
X139.635 Y27.084 Z7.621 I2.588 J0.358
X134.46 Y26.368 Z7.334 I-2.588 J-0.358
X139.635 Y27.084 Z7.047 I2.588 J0.358
X134.46 Y26.368 Z6.761 I-2.588 J-0.358
X139.635 Y27.084 Z6.474 I2.588 J0.358
X134.435 Y26.726 Z6.2 I-2.588 J-0.358
X139.197 I2.381 J0.
G1 Y26.738 F3600.
X139.19 Y26.778
X139.172 Y26.814
X139.143 Y26.843
X139.107 Y26.861
X139.067 Y26.868
X139.043
X139.003 Y26.861
X138.967 Y26.843
X138.938 Y26.814
X138.92 Y26.778
X138.913 Y26.738
Y23.36
G3 X139.197 I0.142 J0.
G1 Y26.726
G2 X140.227 Y29.008 I3.044 J0.
G3 X139.341 Y31.35 I-0.886 J1.003
G1 X134.509
X134.43 Y31.351
X134.431 Y31.272
Y18.728
X134.43 Y18.649
X134.509 Y18.65
X143.601
X143.68 Y18.649
X143.679 Y18.728
Y31.272
X143.68 Y31.351
X143.601 Y31.35
X139.341
X139.287 Y31.345
X139.235 Y31.329
X139.187 Y31.303
X139.145 Y31.268
X134.536 Y26.599
X134.498 Y26.55
X134.471 Y26.493
X134.458 Y26.431
X134.46 Y26.368
G3 X139.635 Y27.084 Z5.913 I2.588 J0.358 F1000.
X134.46 Y26.368 Z5.627 I-2.588 J-0.358
X139.635 Y27.084 Z5.34 I2.588 J0.358
X134.46 Y26.368 Z5.054 I-2.588 J-0.358
X139.635 Y27.084 Z4.767 I2.588 J0.358
X134.46 Y26.368 Z4.48 I-2.588 J-0.358
X139.635 Y27.084 Z4.194 I2.588 J0.358
X134.46 Y26.368 Z3.907 I-2.588 J-0.358
X139.635 Y27.084 Z3.621 I2.588 J0.358
X134.46 Y26.368 Z3.334 I-2.588 J-0.358
X139.635 Y27.084 Z3.047 I2.588 J0.358
X134.46 Y26.368 Z2.761 I-2.588 J-0.358
X139.635 Y27.084 Z2.474 I2.588 J0.358
X134.435 Y26.726 Z2.2 I-2.588 J-0.358
X139.197 I2.381 J0.
G1 Y26.738 F3600.
X139.19 Y26.778
X139.172 Y26.814
X139.143 Y26.843
X139.107 Y26.861
X139.067 Y26.868
X139.043
X139.003 Y26.861
X138.967 Y26.843
X138.938 Y26.814
X138.92 Y26.778
X138.913 Y26.738
Y23.36
G3 X139.197 I0.142 J0.
G1 Y26.726
G2 X140.227 Y29.008 I3.044 J0.
G3 X139.341 Y31.35 I-0.886 J1.003
G1 X134.509
X134.43 Y31.351
X134.431 Y31.272
Y18.728
X134.43 Y18.649
X134.509 Y18.65
X143.601
X143.68 Y18.649
X143.679 Y18.728
Y31.272
X143.68 Y31.351
X143.601 Y31.35
X139.341
G3 X139.101 Y31.209 I0. J-0.275
G1 X135.58 Y24.87
G3 X135.676 Y24.503 I0.24 J-0.134
X138.419 Y28.949 Z1.913 I1.372 J2.223 F1000.
X135.676 Y24.503 Z1.627 I-1.372 J-2.223
X138.419 Y28.949 Z1.34 I1.372 J2.223
X135.676 Y24.503 Z1.054 I-1.372 J-2.223
X138.419 Y28.949 Z0.767 I1.372 J2.223
X135.676 Y24.503 Z0.48 I-1.372 J-2.223
X138.419 Y28.949 Z0.194 I1.372 J2.223
X134.435 Y26.726 Z0. I-1.372 J-2.223
X139.197 I2.381 J0.
G1 Y26.738 F3600.
X139.19 Y26.778
X139.172 Y26.814
X139.143 Y26.843
X139.107 Y26.861
X139.067 Y26.868
X139.043
X139.003 Y26.861
X138.967 Y26.843
X138.938 Y26.814
X138.92 Y26.778
X138.913 Y26.738
Y23.36
G3 X139.197 I0.142 J0.
G1 Y26.726
G2 X140.227 Y29.008 I3.044 J0.
G3 X139.341 Y31.35 I-0.886 J1.003
G1 X134.509
X134.43 Y31.351
X134.431 Y31.272
Y18.728
X134.43 Y18.649
X134.509 Y18.65
X143.601
X143.68 Y18.649
X143.679 Y18.728
Y31.272
X143.68 Y31.351
X143.601 Y31.35
X139.341
X139.256 Y31.343 Z0.013 F1000.
X139.174 Y31.324 Z0.027
X139.103 Y31.296 Z0.066
X139.036 Y31.258 Z0.105
X138.987 Y31.221 Z0.166
X138.943 Y31.18 Z0.227
X138.893 Y31.119 Z0.38
X138.878 Y31.097 Z0.55
G0 Z23.2
X48.116 Y52.872
G1 Z21.25 F1000.
X48.089 Y52.843 Z21.046
X48.015 Y52.76 Z20.872
X47.91 Y52.629 Z20.751
X47.85 Y52.545 Z20.715
X47.79 Y52.454 Z20.7
G3 X52.21 Y49.669 Z20.413 I2.21 J-1.393
X47.79 Y52.454 Z20.127 I-2.21 J1.393
X52.21 Y49.669 Z19.84 I2.21 J-1.393
X47.79 Y52.454 Z19.554 I-2.21 J1.393
X52.21 Y49.669 Z19.267 I2.21 J-1.393
X47.79 Y52.454 Z18.98 I-2.21 J1.393
X52.21 Y49.669 Z18.694 I2.21 J-1.393
X47.79 Y52.454 Z18.407 I-2.21 J1.393
X52.21 Y49.669 Z18.121 I2.21 J-1.393
X47.79 Y52.454 Z17.834 I-2.21 J1.393
X52.21 Y49.669 Z17.547 I2.21 J-1.393
X47.79 Y52.454 Z17.261 I-2.21 J1.393
X52.21 Y49.669 Z16.974 I2.21 J-1.393
X47.79 Y52.454 Z16.687 I-2.21 J1.393
X52.21 Y49.669 Z16.401 I2.21 J-1.393
X47.79 Y52.454 Z16.114 I-2.21 J1.393
X52.21 Y49.669 Z15.828 I2.21 J-1.393
X47.79 Y52.454 Z15.541 I-2.21 J1.393
X52.21 Y49.669 Z15.254 I2.21 J-1.393
X47.79 Y52.454 Z14.968 I-2.21 J1.393
X52.21 Y49.669 Z14.681 I2.21 J-1.393
X47.79 Y52.454 Z14.395 I-2.21 J1.393
X50. Y48.449 Z14.2 I2.21 J-1.393
G1 X50.012 F3600.
X50.052 Y48.456
X50.088 Y48.474
X50.117 Y48.503
X50.136 Y48.539
X50.142 Y48.579
Y52.055
X50.136 Y52.095
X50.117 Y52.131
X50.088 Y52.16
X50.052 Y52.178
X50.012 Y52.185
X49.988
X49.948 Y52.178
X49.912 Y52.16
X49.883 Y52.131
X49.864 Y52.095
X49.858 Y52.055
Y48.579
X49.864 Y48.539
X49.883 Y48.503
X49.912 Y48.474
X49.948 Y48.456
X49.988 Y48.449
X50.
G2 X52.282 Y47.419 I0. J-3.044
G3 X54.624 Y48.305 I1.004 J0.886
G1 Y56.589
X54.625 Y56.668
X54.546 Y56.667
X45.454
X45.375 Y56.668
X45.376 Y56.589
Y44.045
X45.375 Y43.966
X45.454 Y43.967
X54.546
X54.625 Y43.966
X54.624 Y44.045
Y48.305
G3 X54.304 Y48.576 I-0.275 J0.
G1 X50.441 Y47.93
G2 X50.123 Y48.16 I-0.045 J0.271
X50.358 Y48.474 I0.272 J0.041
G3 X49.642 Y53.65 Z13.913 I-0.358 J2.588 F1000.
X50.358 Y48.474 Z13.627 I0.358 J-2.588
X49.642 Y53.65 Z13.34 I-0.358 J2.588
X50.358 Y48.474 Z13.054 I0.358 J-2.588
X49.642 Y53.65 Z12.767 I-0.358 J2.588
X50.358 Y48.474 Z12.48 I0.358 J-2.588
X49.642 Y53.65 Z12.194 I-0.358 J2.588
X50.358 Y48.474 Z11.907 I0.358 J-2.588
X49.642 Y53.65 Z11.621 I-0.358 J2.588
X50.358 Y48.474 Z11.334 I0.358 J-2.588
X49.642 Y53.65 Z11.047 I-0.358 J2.588
X50.358 Y48.474 Z10.761 I0.358 J-2.588
X49.642 Y53.65 Z10.474 I-0.358 J2.588
X50. Y48.449 Z10.2 I0.358 J-2.588
G1 X50.012 F3600.
X50.052 Y48.456
X50.088 Y48.474
X50.117 Y48.503
X50.136 Y48.539
X50.142 Y48.579
Y52.055
X50.136 Y52.095
X50.117 Y52.131
X50.088 Y52.16
X50.052 Y52.178
X50.012 Y52.185
X49.988
X49.948 Y52.178
X49.912 Y52.16
X49.883 Y52.131
X49.864 Y52.095
X49.858 Y52.055
Y48.579
X49.864 Y48.539
X49.883 Y48.503
X49.912 Y48.474
X49.948 Y48.456
X49.988 Y48.449
X50.
G2 X52.282 Y47.419 I0. J-3.044
G3 X54.624 Y48.305 I1.004 J0.886
G1 Y56.589
X54.625 Y56.668
X54.546 Y56.667
X45.454
X45.375 Y56.668
X45.376 Y56.589
Y44.045
X45.375 Y43.966
X45.454 Y43.967
X54.546
X54.625 Y43.966
X54.624 Y44.045
Y48.305
G3 X54.304 Y48.576 I-0.275 J0.
G1 X50.441 Y47.93
G2 X50.123 Y48.16 I-0.045 J0.271
X50.358 Y48.474 I0.272 J0.041
G3 X49.642 Y53.65 Z9.913 I-0.358 J2.588 F1000.
X50.358 Y48.474 Z9.627 I0.358 J-2.588
X49.642 Y53.65 Z9.34 I-0.358 J2.588
X50.358 Y48.474 Z9.054 I0.358 J-2.588
X49.642 Y53.65 Z8.767 I-0.358 J2.588
X50.358 Y48.474 Z8.48 I0.358 J-2.588
X49.642 Y53.65 Z8.194 I-0.358 J2.588
X50.358 Y48.474 Z7.907 I0.358 J-2.588
X49.642 Y53.65 Z7.621 I-0.358 J2.588
X50.358 Y48.474 Z7.334 I0.358 J-2.588
X49.642 Y53.65 Z7.047 I-0.358 J2.588
X50.358 Y48.474 Z6.761 I0.358 J-2.588
X49.642 Y53.65 Z6.474 I-0.358 J2.588
X50. Y48.449 Z6.2 I0.358 J-2.588
G1 X50.012 F3600.
X50.052 Y48.456
X50.088 Y48.474
X50.117 Y48.503
X50.136 Y48.539
X50.142 Y48.579
Y52.055
X50.136 Y52.095
X50.117 Y52.131
X50.088 Y52.16
X50.052 Y52.178
X50.012 Y52.185
X49.988
X49.948 Y52.178
X49.912 Y52.16
X49.883 Y52.131
X49.864 Y52.095
X49.858 Y52.055
Y48.579
X49.864 Y48.539
X49.883 Y48.503
X49.912 Y48.474
X49.948 Y48.456
X49.988 Y48.449
X50.
G2 X52.282 Y47.419 I0. J-3.044
G3 X54.624 Y48.305 I1.004 J0.886
G1 Y56.589
X54.625 Y56.668
X54.546 Y56.667
X45.454
X45.375 Y56.668
X45.376 Y56.589
Y44.045
X45.375 Y43.966
X45.454 Y43.967
X54.546
X54.625 Y43.966
X54.624 Y44.045
Y48.305
G3 X54.304 Y48.576 I-0.275 J0.
G1 X50.441 Y47.93
G2 X50.123 Y48.16 I-0.045 J0.271
X50.358 Y48.474 I0.272 J0.041
G3 X49.642 Y53.65 Z5.913 I-0.358 J2.588 F1000.
X50.358 Y48.474 Z5.627 I0.358 J-2.588
X49.642 Y53.65 Z5.34 I-0.358 J2.588
X50.358 Y48.474 Z5.054 I0.358 J-2.588
X49.642 Y53.65 Z4.767 I-0.358 J2.588
X50.358 Y48.474 Z4.48 I0.358 J-2.588
X49.642 Y53.65 Z4.194 I-0.358 J2.588
X50.358 Y48.474 Z3.907 I0.358 J-2.588
X49.642 Y53.65 Z3.621 I-0.358 J2.588
X50.358 Y48.474 Z3.334 I0.358 J-2.588
X49.642 Y53.65 Z3.047 I-0.358 J2.588
X50.358 Y48.474 Z2.761 I0.358 J-2.588
X49.642 Y53.65 Z2.474 I-0.358 J2.588
X50. Y48.449 Z2.2 I0.358 J-2.588
G1 X50.012 F3600.
X50.052 Y48.456
X50.088 Y48.474
X50.117 Y48.503
X50.136 Y48.539
X50.142 Y48.579
Y52.055
X50.136 Y52.095
X50.117 Y52.131
X50.088 Y52.16
X50.052 Y52.178
X50.012 Y52.185
X49.988
X49.948 Y52.178
X49.912 Y52.16
X49.883 Y52.131
X49.864 Y52.095
X49.858 Y52.055
Y48.579
X49.864 Y48.539
X49.883 Y48.503
X49.912 Y48.474
X49.948 Y48.456
X49.988 Y48.449
X50.
G2 X52.282 Y47.419 I0. J-3.044
G3 X54.624 Y48.305 I1.004 J0.886
G1 Y56.589
X54.625 Y56.668
X54.546 Y56.667
X45.454
X45.375 Y56.668
X45.376 Y56.589
Y44.045
X45.375 Y43.966
X45.454 Y43.967
X54.546
X54.625 Y43.966
X54.624 Y44.045
Y48.305
G3 X54.44 Y48.564 I-0.275 J0.
G1 X52.367 Y49.286
G2 X52.223 Y49.69 I0.09 J0.26
G3 X47.777 Y52.433 Z1.913 I-2.223 J1.372 F1000.
X52.223 Y49.69 Z1.627 I2.223 J-1.372
X47.777 Y52.433 Z1.34 I-2.223 J1.372
X52.223 Y49.69 Z1.054 I2.223 J-1.372
X47.777 Y52.433 Z0.767 I-2.223 J1.372
X52.223 Y49.69 Z0.48 I2.223 J-1.372
X47.777 Y52.433 Z0.194 I-2.223 J1.372
X50. Y48.449 Z0. I2.223 J-1.372
G1 X50.012 F3600.
X50.052 Y48.456
X50.088 Y48.474
X50.117 Y48.503
X50.136 Y48.539
X50.142 Y48.579
Y52.055
X50.136 Y52.095
X50.117 Y52.131
X50.088 Y52.16
X50.052 Y52.178
X50.012 Y52.185
X49.988
X49.948 Y52.178
X49.912 Y52.16
X49.883 Y52.131
X49.864 Y52.095
X49.858 Y52.055
Y48.579
X49.864 Y48.539
X49.883 Y48.503
X49.912 Y48.474
X49.948 Y48.456
X49.988 Y48.449
X50.
G2 X52.282 Y47.419 I0. J-3.044
G3 X54.624 Y48.305 I1.004 J0.886
G1 Y56.589
X54.625 Y56.668
X54.546 Y56.667
X45.454
X45.375 Y56.668
X45.376 Y56.589
Y44.045
X45.375 Y43.966
X45.454 Y43.967
X54.546
X54.625 Y43.966
X54.624 Y44.045
Y48.305
X54.618 Y48.389 Z0.013 F1000.
X54.598 Y48.472 Z0.027
X54.57 Y48.543 Z0.066
X54.532 Y48.61 Z0.105
X54.496 Y48.658 Z0.166
X54.454 Y48.703 Z0.227
X54.394 Y48.752 Z0.38
X54.371 Y48.768 Z0.55
G0 Z33.2

(2D CONTOUR4 2)
G0 X84.655 Y71.912
Z33.2
Z23.2
G1 Z22.2 F1200.
Z15.75
G18 G2 X85.205 Z15.2 I0.55 K0.
G1 X85.755 F1000.
G17 G3 X86.305 Y72.462 I0. J0.55
G1 Y75. F3600.
G2 X89.055 Y77.75 I2.75 J0.
G1 X189.055
G2 X191.805 Y75. I0. J-2.75
G1 Y58.024
G2 X189.669 Y50.959 I-12.75 J-0.001
G1 X162.155 Y9.624
G2 X115.955 I-23.1 J15.376
G1 X88.441 Y50.959
G2 X86.305 Y58.024 I10.614 J7.065
G1 Y72.462
G3 X85.755 Y73.012 I-0.55 J0. F1000.
G1 X85.205
G18 G3 X84.655 Z15.75 I0. K0.55
G0 Z23.2
X78.75 Y78.917
G1 Z22.2 F1200.
Z15.75
G19 G3 Y79.467 Z15.2 J0.55 K0.
G1 Y80.017 F1000.
G17 G3 X78.2 Y80.567 I-0.55 J0.
G1 X9.1 F3600.
G2 X6.35 Y83.317 I0. J2.75
G1 Y85.039
X6.351 Y85.118
X6.272 Y85.117
X0.
G2 X-2.75 Y87.867 I0. J2.75
G1 Y102.616
G2 X0. Y105.366 I2.75 J0.
G1 X6.272
X6.351 Y105.365
X6.35 Y105.444
Y107.166
G2 X9.1 Y109.916 I2.75 J0.
G1 X290.9
G2 X293.65 Y107.166 I0. J-2.75
G1 Y105.444
X293.649 Y105.365
X293.728 Y105.366
X300.
G2 X302.75 Y102.616 I0. J-2.75
G1 Y87.867
G2 X300. Y85.117 I-2.75 J0.
G1 X293.728
X293.649 Y85.118
X293.65 Y85.039
Y83.317
G2 X290.9 Y80.567 I-2.75 J0.
G1 X78.2
G3 X77.65 Y80.017 I0. J-0.55 F1000.
G1 Y79.467
G19 G2 Y78.917 Z15.75 J0. K0.55
G0 Z23.2
X72.783 Y68.907
G1 Z22.2 F1200.
Z15.75
X72.778 Y68.903 Z15.664
X72.762 Y68.891 Z15.58
X72.736 Y68.87 Z15.5
X72.7 Y68.843 Z15.427
X72.656 Y68.808 Z15.361
X72.605 Y68.767 Z15.305
X72.547 Y68.722 Z15.26
X72.484 Y68.673 Z15.227
X72.418 Y68.621 Z15.207
X72.35 Y68.568 Z15.2
X71.918 Y68.228 F1000.
G17 G3 X71.825 Y67.456 I0.34 J-0.433
G2 X73.101 Y65.693 I-21.825 J-17.139 F3600.
G1 X100.614 Y24.358
G2 X102.75 Y17.293 I-10.614 J-7.065
G1 Y0.317
G2 X100. Y-2.433 I-2.75 J0.
G1 X0.
G2 X-2.75 Y0.317 I0. J2.75
G1 Y17.293
G2 X-0.614 Y24.358 I12.75 J0.
G1 X26.899 Y65.693
G2 X71.825 Y67.456 I23.101 J-15.376
G3 X72.597 Y67.363 I0.433 J0.34 F1000.
G1 X73.03 Y67.703
X73.097 Y67.756 Z15.207
X73.163 Y67.808 Z15.227
X73.226 Y67.857 Z15.26
X73.284 Y67.902 Z15.305
X73.336 Y67.943 Z15.361
X73.38 Y67.977 Z15.427
X73.415 Y68.005 Z15.5
X73.441 Y68.026 Z15.58
X73.457 Y68.038 Z15.664
X73.462 Y68.042 Z15.75
G0 Z23.2
X72.783 Y68.907
G1 Z19.2 F1200.
Z12.75
X72.778 Y68.903 Z12.664
X72.762 Y68.891 Z12.58
X72.736 Y68.87 Z12.5
X72.7 Y68.843 Z12.427
X72.656 Y68.808 Z12.361
X72.605 Y68.767 Z12.305
X72.547 Y68.722 Z12.26
X72.484 Y68.673 Z12.227
X72.418 Y68.621 Z12.207
X72.35 Y68.568 Z12.2
X71.918 Y68.228 F1000.
G3 X71.825 Y67.456 I0.34 J-0.433
G2 X73.101 Y65.693 I-21.825 J-17.139 F3600.
G1 X100.614 Y24.358
G2 X102.75 Y17.293 I-10.614 J-7.065
G1 Y0.317
G2 X100. Y-2.433 I-2.75 J0.
G1 X0.
G2 X-2.75 Y0.317 I0. J2.75
G1 Y17.293
G2 X-0.614 Y24.358 I12.75 J0.
G1 X26.899 Y65.693
G2 X71.825 Y67.456 I23.101 J-15.376
G3 X72.597 Y67.363 I0.433 J0.34 F1000.
G1 X73.03 Y67.703
X73.097 Y67.756 Z12.207
X73.163 Y67.808 Z12.227
X73.226 Y67.857 Z12.26
X73.284 Y67.902 Z12.305
X73.336 Y67.943 Z12.361
X73.38 Y67.977 Z12.427
X73.415 Y68.005 Z12.5
X73.441 Y68.026 Z12.58
X73.457 Y68.038 Z12.664
X73.462 Y68.042 Z12.75
G0 Z23.2
X78.75 Y78.917
G1 Z19.2 F1200.
Z12.75
G19 G3 Y79.467 Z12.2 J0.55 K0.
G1 Y80.017 F1000.
G17 G3 X78.2 Y80.567 I-0.55 J0.
G1 X9.1 F3600.
G2 X6.35 Y83.317 I0. J2.75
G1 Y85.039
X6.351 Y85.118
X6.272 Y85.117
X0.
G2 X-2.75 Y87.867 I0. J2.75
G1 Y102.616
G2 X0. Y105.366 I2.75 J0.
G1 X6.272
X6.351 Y105.365
X6.35 Y105.444
Y107.166
G2 X9.1 Y109.916 I2.75 J0.
G1 X290.9
G2 X293.65 Y107.166 I0. J-2.75
G1 Y105.444
X293.649 Y105.365
X293.728 Y105.366
X300.
G2 X302.75 Y102.616 I0. J-2.75
G1 Y87.867
G2 X300. Y85.117 I-2.75 J0.
G1 X293.728
X293.649 Y85.118
X293.65 Y85.039
Y83.317
G2 X290.9 Y80.567 I-2.75 J0.
G1 X78.2
G3 X77.65 Y80.017 I0. J-0.55 F1000.
G1 Y79.467
G19 G2 Y78.917 Z12.75 J0. K0.55
G0 Z23.2
X84.655 Y71.912
G1 Z19.2 F1200.
Z12.75
G18 G2 X85.205 Z12.2 I0.55 K0.
G1 X85.755 F1000.
G17 G3 X86.305 Y72.462 I0. J0.55
G1 Y75. F3600.
G2 X89.055 Y77.75 I2.75 J0.
G1 X189.055
G2 X191.805 Y75. I0. J-2.75
G1 Y58.024
G2 X189.669 Y50.959 I-12.75 J-0.001
G1 X162.155 Y9.624
G2 X115.955 I-23.1 J15.376
G1 X88.441 Y50.959
G2 X86.305 Y58.024 I10.614 J7.065
G1 Y72.462
G3 X85.755 Y73.012 I-0.55 J0. F1000.
G1 X85.205
G18 G3 X84.655 Z12.75 I0. K0.55
G0 Z23.2
Y71.912
G1 Z16.2 F1200.
Z9.75
G2 X85.205 Z9.2 I0.55 K0.
G1 X85.755 F1000.
G17 G3 X86.305 Y72.462 I0. J0.55
G1 Y75. F3600.
G2 X89.055 Y77.75 I2.75 J0.
G1 X189.055
G2 X191.805 Y75. I0. J-2.75
G1 Y58.024
G2 X189.669 Y50.959 I-12.75 J-0.001
G1 X162.155 Y9.624
G2 X115.955 I-23.1 J15.376
G1 X88.441 Y50.959
G2 X86.305 Y58.024 I10.614 J7.065
G1 Y72.462
G3 X85.755 Y73.012 I-0.55 J0. F1000.
G1 X85.205
G18 G3 X84.655 Z9.75 I0. K0.55
G0 Z23.2
X78.75 Y78.917
G1 Z16.2 F1200.
Z9.75
G19 G3 Y79.467 Z9.2 J0.55 K0.
G1 Y80.017 F1000.
G17 G3 X78.2 Y80.567 I-0.55 J0.
G1 X9.1 F3600.
G2 X6.35 Y83.317 I0. J2.75
G1 Y85.039
X6.351 Y85.118
X6.272 Y85.117
X0.
G2 X-2.75 Y87.867 I0. J2.75
G1 Y102.616
G2 X0. Y105.366 I2.75 J0.
G1 X6.272
X6.351 Y105.365
X6.35 Y105.444
Y107.166
G2 X9.1 Y109.916 I2.75 J0.
G1 X290.9
G2 X293.65 Y107.166 I0. J-2.75
G1 Y105.444
X293.649 Y105.365
X293.728 Y105.366
X300.
G2 X302.75 Y102.616 I0. J-2.75
G1 Y87.867
G2 X300. Y85.117 I-2.75 J0.
G1 X293.728
X293.649 Y85.118
X293.65 Y85.039
Y83.317
G2 X290.9 Y80.567 I-2.75 J0.
G1 X78.2
G3 X77.65 Y80.017 I0. J-0.55 F1000.
G1 Y79.467
G19 G2 Y78.917 Z9.75 J0. K0.55
G0 Z23.2
X72.783 Y68.907
G1 Z16.2 F1200.
Z9.75
X72.778 Y68.903 Z9.664
X72.762 Y68.891 Z9.58
X72.736 Y68.87 Z9.5
X72.7 Y68.843 Z9.427
X72.656 Y68.808 Z9.361
X72.605 Y68.767 Z9.305
X72.547 Y68.722 Z9.26
X72.484 Y68.673 Z9.227
X72.418 Y68.621 Z9.207
X72.35 Y68.568 Z9.2
X71.918 Y68.228 F1000.
G17 G3 X71.825 Y67.456 I0.34 J-0.433
G2 X73.101 Y65.693 I-21.825 J-17.139 F3600.
G1 X100.614 Y24.358
G2 X102.75 Y17.293 I-10.614 J-7.065
G1 Y0.317
G2 X100. Y-2.433 I-2.75 J0.
G1 X0.
G2 X-2.75 Y0.317 I0. J2.75
G1 Y17.293
G2 X-0.614 Y24.358 I12.75 J0.
G1 X26.899 Y65.693
G2 X71.825 Y67.456 I23.101 J-15.376
G3 X72.597 Y67.363 I0.433 J0.34 F1000.
G1 X73.03 Y67.703
X73.097 Y67.756 Z9.207
X73.163 Y67.808 Z9.227
X73.226 Y67.857 Z9.26
X73.284 Y67.902 Z9.305
X73.336 Y67.943 Z9.361
X73.38 Y67.977 Z9.427
X73.415 Y68.005 Z9.5
X73.441 Y68.026 Z9.58
X73.457 Y68.038 Z9.664
X73.462 Y68.042 Z9.75
G0 Z23.2
X72.783 Y68.907
G1 Z13.2 F1200.
Z6.75
X72.778 Y68.903 Z6.664
X72.762 Y68.891 Z6.58
X72.736 Y68.87 Z6.5
X72.7 Y68.843 Z6.427
X72.656 Y68.808 Z6.361
X72.605 Y68.767 Z6.305
X72.547 Y68.722 Z6.26
X72.484 Y68.673 Z6.227
X72.418 Y68.621 Z6.207
X72.35 Y68.568 Z6.2
X71.918 Y68.228 F1000.
G3 X71.825 Y67.456 I0.34 J-0.433
G2 X73.101 Y65.693 I-21.825 J-17.139 F3600.
G1 X100.614 Y24.358
G2 X102.75 Y17.293 I-10.614 J-7.065
G1 Y0.317
G2 X100. Y-2.433 I-2.75 J0.
G1 X0.
G2 X-2.75 Y0.317 I0. J2.75
G1 Y17.293
G2 X-0.614 Y24.358 I12.75 J0.
G1 X26.899 Y65.693
G2 X71.825 Y67.456 I23.101 J-15.376
G3 X72.597 Y67.363 I0.433 J0.34 F1000.
G1 X73.03 Y67.703
X73.097 Y67.756 Z6.207
X73.163 Y67.808 Z6.227
X73.226 Y67.857 Z6.26
X73.284 Y67.902 Z6.305
X73.336 Y67.943 Z6.361
X73.38 Y67.977 Z6.427
X73.415 Y68.005 Z6.5
X73.441 Y68.026 Z6.58
X73.457 Y68.038 Z6.664
X73.462 Y68.042 Z6.75
G0 Z23.2
X78.75 Y78.917
G1 Z13.2 F1200.
Z6.75
G19 G3 Y79.467 Z6.2 J0.55 K0.
G1 Y80.017 F1000.
G17 G3 X78.2 Y80.567 I-0.55 J0.
G1 X9.1 F3600.
G2 X6.35 Y83.317 I0. J2.75
G1 Y85.039
X6.351 Y85.118
X6.272 Y85.117
X0.
G2 X-2.75 Y87.867 I0. J2.75
G1 Y102.616
G2 X0. Y105.366 I2.75 J0.
G1 X6.272
X6.351 Y105.365
X6.35 Y105.444
Y107.166
G2 X9.1 Y109.916 I2.75 J0.
G1 X290.9
G2 X293.65 Y107.166 I0. J-2.75
G1 Y105.444
X293.649 Y105.365
X293.728 Y105.366
X300.
G2 X302.75 Y102.616 I0. J-2.75
G1 Y87.867
G2 X300. Y85.117 I-2.75 J0.
G1 X293.728
X293.649 Y85.118
X293.65 Y85.039
Y83.317
G2 X290.9 Y80.567 I-2.75 J0.
G1 X78.2
G3 X77.65 Y80.017 I0. J-0.55 F1000.
G1 Y79.467
G19 G2 Y78.917 Z6.75 J0. K0.55
G0 Z23.2
X84.655 Y71.912
G1 Z13.2 F1200.
Z6.75
G18 G2 X85.205 Z6.2 I0.55 K0.
G1 X85.755 F1000.
G17 G3 X86.305 Y72.462 I0. J0.55
G1 Y75. F3600.
G2 X89.055 Y77.75 I2.75 J0.
G1 X189.055
G2 X191.805 Y75. I0. J-2.75
G1 Y58.024
G2 X189.669 Y50.959 I-12.75 J-0.001
G1 X162.155 Y9.624
G2 X115.955 I-23.1 J15.376
G1 X88.441 Y50.959
G2 X86.305 Y58.024 I10.614 J7.065
G1 Y72.462
G3 X85.755 Y73.012 I-0.55 J0. F1000.
G1 X85.205
G18 G3 X84.655 Z6.75 I0. K0.55
G0 Z23.2
Y71.912
G1 Z10.2 F1200.
Z3.75
G2 X85.205 Z3.2 I0.55 K0.
G1 X85.755 F1000.
G17 G3 X86.305 Y72.462 I0. J0.55
G1 Y75. F3600.
G2 X89.055 Y77.75 I2.75 J0.
G1 X189.055
G2 X191.805 Y75. I0. J-2.75
G1 Y58.024
G2 X189.669 Y50.959 I-12.75 J-0.001
G1 X162.155 Y9.624
G2 X115.955 I-23.1 J15.376
G1 X88.441 Y50.959
G2 X86.305 Y58.024 I10.614 J7.065
G1 Y72.462
G3 X85.755 Y73.012 I-0.55 J0. F1000.
G1 X85.205
G18 G3 X84.655 Z3.75 I0. K0.55
G0 Z23.2
X78.75 Y78.917
G1 Z10.2 F1200.
Z3.75
G19 G3 Y79.467 Z3.2 J0.55 K0.
G1 Y80.017 F1000.
G17 G3 X78.2 Y80.567 I-0.55 J0.
G1 X9.1 F3600.
G2 X6.35 Y83.317 I0. J2.75
G1 Y85.039
X6.351 Y85.118
X6.272 Y85.117
X0.
G2 X-2.75 Y87.867 I0. J2.75
G1 Y102.616
G2 X0. Y105.366 I2.75 J0.
G1 X6.272
X6.351 Y105.365
X6.35 Y105.444
Y107.166
G2 X9.1 Y109.916 I2.75 J0.
G1 X290.9
G2 X293.65 Y107.166 I0. J-2.75
G1 Y105.444
X293.649 Y105.365
X293.728 Y105.366
X300.
G2 X302.75 Y102.616 I0. J-2.75
G1 Y87.867
G2 X300. Y85.117 I-2.75 J0.
G1 X293.728
X293.649 Y85.118
X293.65 Y85.039
Y83.317
G2 X290.9 Y80.567 I-2.75 J0.
G1 X78.2
G3 X77.65 Y80.017 I0. J-0.55 F1000.
G1 Y79.467
G19 G2 Y78.917 Z3.75 J0. K0.55
G0 Z23.2
X72.783 Y68.907
G1 Z10.2 F1200.
Z3.75
X72.778 Y68.903 Z3.664
X72.762 Y68.891 Z3.58
X72.736 Y68.87 Z3.5
X72.7 Y68.843 Z3.427
X72.656 Y68.808 Z3.361
X72.605 Y68.767 Z3.305
X72.547 Y68.722 Z3.26
X72.484 Y68.673 Z3.227
X72.418 Y68.621 Z3.207
X72.35 Y68.568 Z3.2
X71.918 Y68.228 F1000.
G17 G3 X71.825 Y67.456 I0.34 J-0.433
G2 X73.101 Y65.693 I-21.825 J-17.139 F3600.
G1 X100.614 Y24.358
G2 X102.75 Y17.293 I-10.614 J-7.065
G1 Y0.317
G2 X100. Y-2.433 I-2.75 J0.
G1 X0.
G2 X-2.75 Y0.317 I0. J2.75
G1 Y17.293
G2 X-0.614 Y24.358 I12.75 J0.
G1 X26.899 Y65.693
G2 X71.825 Y67.456 I23.101 J-15.376
G3 X72.597 Y67.363 I0.433 J0.34 F1000.
G1 X73.03 Y67.703
X73.097 Y67.756 Z3.207
X73.163 Y67.808 Z3.227
X73.226 Y67.857 Z3.26
X73.284 Y67.902 Z3.305
X73.336 Y67.943 Z3.361
X73.38 Y67.977 Z3.427
X73.415 Y68.005 Z3.5
X73.441 Y68.026 Z3.58
X73.457 Y68.038 Z3.664
X73.462 Y68.042 Z3.75
G0 Z23.2
X72.783 Y68.907
G1 Z7.2 F1200.
Z2.15
X72.778 Y68.903 Z2.064
X72.762 Y68.891 Z1.98
X72.736 Y68.87 Z1.9
X72.7 Y68.843 Z1.827
X72.656 Y68.808 Z1.761
X72.605 Y68.767 Z1.705
X72.547 Y68.722 Z1.66
X72.484 Y68.673 Z1.627
X72.418 Y68.621 Z1.607
X72.35 Y68.568 Z1.6
X71.918 Y68.228 F1000.
G3 X71.825 Y67.456 I0.34 J-0.433
G2 X73.101 Y65.693 I-21.825 J-17.139 F3600.
G1 X100.614 Y24.358
G2 X102.75 Y17.293 I-10.614 J-7.065
G1 Y0.317
G2 X100. Y-2.433 I-2.75 J0.
G1 X0.
G2 X-2.75 Y0.317 I0. J2.75
G1 Y17.293
G2 X-0.614 Y24.358 I12.75 J0.
G1 X26.899 Y65.693
G2 X71.825 Y67.456 I23.101 J-15.376
G3 X72.597 Y67.363 I0.433 J0.34 F1000.
G1 X73.03 Y67.703
X73.097 Y67.756 Z1.607
X73.163 Y67.808 Z1.627
X73.226 Y67.857 Z1.66
X73.284 Y67.902 Z1.705
X73.336 Y67.943 Z1.761
X73.38 Y67.977 Z1.827
X73.415 Y68.005 Z1.9
X73.441 Y68.026 Z1.98
X73.457 Y68.038 Z2.064
X73.462 Y68.042 Z2.15
G0 Z23.2
X78.75 Y78.917
G1 Z7.2 F1200.
Z2.15
G19 G3 Y79.467 Z1.6 J0.55 K0.
G1 Y80.017 F1000.
G17 G3 X78.2 Y80.567 I-0.55 J0.
G1 X9.1 F3600.
G2 X6.35 Y83.317 I0. J2.75
G1 Y85.039
X6.351 Y85.118
X6.272 Y85.117
X0.
G2 X-2.75 Y87.867 I0. J2.75
G1 Y102.616
G2 X0. Y105.366 I2.75 J0.
G1 X6.272
X6.351 Y105.365
X6.35 Y105.444
Y107.166
G2 X9.1 Y109.916 I2.75 J0.
G1 X144.5
Z2.
X155.5
Z1.6 F1200.
X290.9 F3600.
G2 X293.65 Y107.166 I0. J-2.75
G1 Y105.444
X293.649 Y105.365
X293.728 Y105.366
X300.
G2 X302.75 Y102.616 I0. J-2.75
G1 Y87.867
G2 X300. Y85.117 I-2.75 J0.
G1 X293.728
X293.649 Y85.118
X293.65 Y85.039
Y83.317
G2 X290.9 Y80.567 I-2.75 J0.
G1 X155.5
Z2.
X144.5
Z1.6 F1200.
X78.2 F3600.
G3 X77.65 Y80.017 I0. J-0.55 F1000.
G1 Y79.467
G19 G2 Y78.917 Z2.15 J0. K0.55
G0 Z23.2
X84.655 Y71.912
G1 Z7.2 F1200.
Z2.15
G18 G2 X85.205 Z1.6 I0.55 K0.
G1 X85.755 F1000.
G17 G3 X86.305 Y72.462 I0. J0.55
G1 Y75. F3600.
G2 X89.055 Y77.75 I2.75 J0.
G1 X144.5
Z2.
X155.5
Z1.6 F1200.
X189.055 F3600.
G2 X191.805 Y75. I0. J-2.75
G1 Y58.024
G2 X189.669 Y50.959 I-12.75 J-0.001
G1 X162.155 Y9.624
G2 X115.955 I-23.1 J15.376
G1 X88.441 Y50.959
G2 X86.305 Y58.024 I10.614 J7.065
G1 Y72.462
G3 X85.755 Y73.012 I-0.55 J0. F1000.
G1 X85.205
G18 G3 X84.655 Z2.15 I0. K0.55
G0 Z23.2
Y71.912
G1 Z5.6 F1200.
Z0.55
G2 X85.205 Z0. I0.55 K0.
G1 X85.755 F1000.
G17 G3 X86.305 Y72.462 I0. J0.55
G1 Y75. F3600.
G2 X89.055 Y77.75 I2.75 J0.
G1 X144.5
Z2.
X155.5
Z0. F1200.
X189.055 F3600.
G2 X191.805 Y75. I0. J-2.75
G1 Y58.024
G2 X189.669 Y50.959 I-12.75 J-0.001
G1 X162.155 Y9.624
G2 X115.955 I-23.1 J15.376
G1 X88.441 Y50.959
G2 X86.305 Y58.024 I10.614 J7.065
G1 Y72.462
G3 X85.755 Y73.012 I-0.55 J0. F1000.
G1 X85.205
G18 G3 X84.655 Z0.55 I0. K0.55
G0 Z23.2
X78.75 Y78.917
G1 Z5.6 F1200.
Z0.55
G19 G3 Y79.467 Z0. J0.55 K0.
G1 Y80.017 F1000.
G17 G3 X78.2 Y80.567 I-0.55 J0.
G1 X9.1 F3600.
G2 X6.35 Y83.317 I0. J2.75
G1 Y85.039
X6.351 Y85.118
X6.272 Y85.117
X0.
G2 X-2.75 Y87.867 I0. J2.75
G1 Y102.616
G2 X0. Y105.366 I2.75 J0.
G1 X6.272
X6.351 Y105.365
X6.35 Y105.444
Y107.166
G2 X9.1 Y109.916 I2.75 J0.
G1 X144.5
Z2.
X155.5
Z0. F1200.
X290.9 F3600.
G2 X293.65 Y107.166 I0. J-2.75
G1 Y105.444
X293.649 Y105.365
X293.728 Y105.366
X300.
G2 X302.75 Y102.616 I0. J-2.75
G1 Y87.867
G2 X300. Y85.117 I-2.75 J0.
G1 X293.728
X293.649 Y85.118
X293.65 Y85.039
Y83.317
G2 X290.9 Y80.567 I-2.75 J0.
G1 X155.5
Z2.
X144.5
Z0. F1200.
X78.2 F3600.
G3 X77.65 Y80.017 I0. J-0.55 F1000.
G1 Y79.467
G19 G2 Y78.917 Z0.55 J0. K0.55
G0 Z23.2
X72.783 Y68.907
G1 Z5.6 F1200.
Z0.55
X72.778 Y68.903 Z0.464
X72.762 Y68.891 Z0.38
X72.736 Y68.87 Z0.3
X72.7 Y68.843 Z0.227
X72.656 Y68.808 Z0.161
X72.605 Y68.767 Z0.105
X72.547 Y68.722 Z0.06
X72.484 Y68.673 Z0.027
X72.418 Y68.621 Z0.007
X72.35 Y68.568 Z0.
X71.918 Y68.228 F1000.
G17 G3 X71.825 Y67.456 I0.34 J-0.433
G2 X73.101 Y65.693 I-21.825 J-17.139 F3600.
G1 X100.614 Y24.358
G2 X102.75 Y17.293 I-10.614 J-7.065
G1 Y0.317
G2 X100. Y-2.433 I-2.75 J0.
G1 X0.
G2 X-2.75 Y0.317 I0. J2.75
G1 Y17.293
G2 X-0.614 Y24.358 I12.75 J0.
G1 X26.899 Y65.693
G2 X71.825 Y67.456 I23.101 J-15.376
G3 X72.597 Y67.363 I0.433 J0.34 F1000.
G1 X73.03 Y67.703
X73.097 Y67.756 Z0.007
X73.163 Y67.808 Z0.027
X73.226 Y67.857 Z0.06
X73.284 Y67.902 Z0.105
X73.336 Y67.943 Z0.161
X73.38 Y67.977 Z0.227
X73.415 Y68.005 Z0.3
X73.441 Y68.026 Z0.38
X73.457 Y68.038 Z0.464
X73.462 Y68.042 Z0.55
G0 Z33.2
G28 G91 Z0.
G90

(2D POCKET2 3)
M5
M9
M1
T142 M6
S12000 M3
G54
M8
G0 X49.423 Y56.18
Z33.2
Z23.2
G1 Z14.542 F1000.
X49.416 Y56.181 Z14.475
X49.397 Y56.184 Z14.411
X49.366 Y56.189 Z14.352
X49.324 Y56.196 Z14.3
X49.273 Y56.204 Z14.258
X49.214 Y56.213 Z14.226
X49.151 Y56.223 Z14.207
X49.085 Y56.234 Z14.2
X41.012 Y57.512
X40.952 Y57.517
X40.904 F3600.
G2 X39.561 Y58.073 I0. J1.9
G1 X39.528 Y58.095
X39.49 Y58.103
X39.452 Y58.095
X39.419 Y58.073
X39.398 Y58.041
X39.39 Y58.003
X39.398 Y57.965
X39.419 Y57.932
G2 X39.976 Y56.589 I-1.344 J-1.344
G1 Y56.54
X39.983 Y56.507
X40.004 Y56.48
X40.035 Y56.465
X40.069
X40.439 Y56.544
X42.581 Y56.575
X42.632 Y56.583
X43.308 Y56.782
G3 X43.298 Y57.149 I-0.054 J0.182
G1 X43.226 Y57.167 Z14.193 F1000.
X43.157 Y57.183 Z14.171
X43.093 Y57.199 Z14.136
X43.037 Y57.212 Z14.089
X42.991 Y57.223 Z14.031
X42.957 Y57.231 Z13.965
X42.936 Y57.236 Z13.894
X42.929 Y57.238 Z13.82
Z10.58
X42.922 Y57.24 Z10.506
X42.9 Y57.245 Z10.435
X42.866 Y57.253 Z10.369
X42.82 Y57.264 Z10.311
X42.764 Y57.278 Z10.264
X42.701 Y57.293 Z10.229
X42.631 Y57.31 Z10.207
X42.559 Y57.327 Z10.2
G3 X40.952 Y57.517 I-1.607 J-6.693
G1 X40.904 F3600.
G2 X39.561 Y58.073 I0. J1.9
G1 X39.528 Y58.095
X39.49 Y58.103
X39.452 Y58.095
X39.419 Y58.073
X39.398 Y58.041
X39.39 Y58.003
X39.398 Y57.965
X39.419 Y57.932
G2 X39.976 Y56.589 I-1.344 J-1.344
G1 Y56.54
X39.983 Y56.507
X40.004 Y56.48
X40.035 Y56.465
X40.069
X40.439 Y56.544
X42.581 Y56.575
X42.632 Y56.583
X43.308 Y56.782
G3 X43.298 Y57.149 I-0.054 J0.182
G1 X43.226 Y57.167 Z10.193 F1000.
X43.157 Y57.183 Z10.171
X43.093 Y57.199 Z10.136
X43.037 Y57.212 Z10.089
X42.991 Y57.223 Z10.031
X42.957 Y57.231 Z9.965
X42.936 Y57.236 Z9.894
X42.929 Y57.238 Z9.82
Z9.48
X42.922 Y57.24 Z9.406
X42.9 Y57.245 Z9.335
X42.866 Y57.253 Z9.269
X42.82 Y57.264 Z9.211
X42.764 Y57.278 Z9.164
X42.701 Y57.293 Z9.129
X42.631 Y57.31 Z9.107
X42.559 Y57.327 Z9.1
G3 X40.952 Y57.517 I-1.607 J-6.693
G1 X40.904 F3600.
G2 X39.561 Y58.073 I0. J1.9
G1 X39.528 Y58.095
X39.49 Y58.103
X39.452 Y58.095
X39.419 Y58.073
X39.398 Y58.041
X39.39 Y58.003
X39.398 Y57.965
X39.419 Y57.932
G2 X39.976 Y56.589 I-1.344 J-1.344
G1 Y56.54
X39.98 Y56.481 F1000.
X40.164 Y55.323
X40.175 Y55.249 Z9.107
X40.187 Y55.179 Z9.129
X40.197 Y55.114 Z9.164
X40.206 Y55.057 Z9.211
X40.213 Y55.011 Z9.269
X40.219 Y54.976 Z9.335
X40.222 Y54.955 Z9.406
X40.223 Y54.947 Z9.48
G0 Z23.2
X40.285 Y44.484
G1 Z14.314 F1000.
X40.28 Y44.481 Z14.279
X40.265 Y44.474 Z14.247
X40.243 Y44.463 Z14.222
X40.215 Y44.448 Z14.206
X40.183 Y44.432 Z14.2
G3 X39.976 Y44.094 I0.173 J-0.339
G1 Y44.045 F3600.
G2 X39.419 Y42.702 I-1.9 J0.
G1 X39.398 Y42.669
X39.39 Y42.631
X39.398 Y42.593
X39.419 Y42.561
X39.452 Y42.539
X39.49 Y42.531
X39.528 Y42.539
X39.561 Y42.561
G2 X40.904 Y43.117 I1.344 J-1.344
G1 X40.952
X40.986 Y43.125
X41.013 Y43.146
X41.028 Y43.176
Y43.211
X40.949 Y43.581
X40.917 Y45.722
X40.91 Y45.773
X40.71 Y46.449
G3 X40.343 Y46.439 I-0.182 J-0.054
G1 X40.326 Y46.367 Z14.193 F1000.
X40.309 Y46.298 Z14.171
X40.294 Y46.234 Z14.136
X40.281 Y46.178 Z14.089
X40.27 Y46.132 Z14.031
X40.261 Y46.098 Z13.965
X40.256 Y46.077 Z13.894
X40.255 Y46.07 Z13.82
Z10.58
X40.253 Y46.063 Z10.506
X40.248 Y46.042 Z10.435
X40.24 Y46.008 Z10.369
X40.229 Y45.962 Z10.311
X40.215 Y45.906 Z10.264
X40.2 Y45.842 Z10.229
X40.183 Y45.773 Z10.207
X40.166 Y45.7 Z10.2
G3 X39.976 Y44.094 I6.693 J-1.607
G1 Y44.045 F3600.
G2 X39.419 Y42.702 I-1.9 J0.
G1 X39.398 Y42.669
X39.39 Y42.631
X39.398 Y42.593
X39.419 Y42.561
X39.452 Y42.539
X39.49 Y42.531
X39.528 Y42.539
X39.561 Y42.561
G2 X40.904 Y43.117 I1.344 J-1.344
G1 X40.952
X40.986 Y43.125
X41.013 Y43.146
X41.028 Y43.176
Y43.211
X40.949 Y43.581
X40.917 Y45.722
X40.91 Y45.773
X40.71 Y46.449
G3 X40.343 Y46.439 I-0.182 J-0.054
G1 X40.326 Y46.367 Z10.193 F1000.
X40.309 Y46.298 Z10.171
X40.294 Y46.234 Z10.136
X40.281 Y46.178 Z10.089
X40.27 Y46.132 Z10.031
X40.261 Y46.098 Z9.965
X40.256 Y46.077 Z9.894
X40.255 Y46.07 Z9.82
Z9.48
X40.253 Y46.063 Z9.406
X40.248 Y46.042 Z9.335
X40.24 Y46.008 Z9.269
X40.229 Y45.962 Z9.211
X40.215 Y45.906 Z9.164
X40.2 Y45.842 Z9.129
X40.183 Y45.773 Z9.107
X40.166 Y45.7 Z9.1
G3 X39.976 Y44.094 I6.693 J-1.607
G1 Y44.045 F3600.
G2 X39.419 Y42.702 I-1.9 J0.
G1 X39.398 Y42.669
X39.39 Y42.631
X39.398 Y42.593
X39.419 Y42.561
X39.452 Y42.539
X39.49 Y42.531
X39.528 Y42.539
X39.561 Y42.561
G2 X40.904 Y43.117 I1.344 J-1.344
G1 X40.952
X41.012 Y43.122 F1000.
X42.17 Y43.305
X42.243 Y43.317 Z9.107
X42.314 Y43.328 Z9.129
X42.379 Y43.338 Z9.164
X42.435 Y43.347 Z9.211
X42.482 Y43.355 Z9.269
X42.517 Y43.36 Z9.335
X42.538 Y43.363 Z9.406
X42.545 Y43.365 Z9.48
G0 Z33.2
X50.568 Y44.455
Z23.2
G1 Z14.542 F1000.
X50.574 Y44.454 Z14.475
X50.593 Y44.451 Z14.411
X50.624 Y44.446 Z14.352
X50.666 Y44.44 Z14.3
X50.718 Y44.432 Z14.258
X50.776 Y44.422 Z14.226
X50.839 Y44.412 Z14.207
X50.905 Y44.402 Z14.2
X58.988 Y43.122
X59.048 Y43.117
X59.096 F3600.
G2 X60.439 Y42.561 I0. J-1.9
G1 X60.472 Y42.539
X60.51 Y42.531
X60.548 Y42.539
X60.581 Y42.561
X60.602 Y42.593
X60.61 Y42.631
X60.602 Y42.669
X60.581 Y42.702
G2 X60.024 Y44.045 I1.344 J1.344
G1 Y44.094
X60.017 Y44.127
X59.996 Y44.154
X59.965 Y44.169
X59.931
X59.561 Y44.09
X57.419 Y44.059
X57.368 Y44.051
X56.692 Y43.852
G3 X56.702 Y43.485 I0.054 J-0.182
G1 X56.774 Y43.467 Z14.193 F1000.
X56.843 Y43.451 Z14.171
X56.907 Y43.435 Z14.136
X56.963 Y43.422 Z14.089
X57.009 Y43.411 Z14.031
X57.043 Y43.403 Z13.965
X57.064 Y43.398 Z13.894
X57.071 Y43.396 Z13.82
Z10.58
X57.078 Y43.394 Z10.506
X57.1 Y43.389 Z10.435
X57.134 Y43.381 Z10.369
X57.18 Y43.37 Z10.311
X57.236 Y43.356 Z10.264
X57.299 Y43.341 Z10.229
X57.369 Y43.324 Z10.207
X57.441 Y43.307 Z10.2
G3 X59.048 Y43.117 I1.607 J6.693
G1 X59.096 F3600.
G2 X60.439 Y42.561 I0. J-1.9
G1 X60.472 Y42.539
X60.51 Y42.531
X60.548 Y42.539
X60.581 Y42.561
X60.602 Y42.593
X60.61 Y42.631
X60.602 Y42.669
X60.581 Y42.702
G2 X60.024 Y44.045 I1.344 J1.344
G1 Y44.094
X60.017 Y44.127
X59.996 Y44.154
X59.965 Y44.169
X59.931
X59.561 Y44.09
X57.419 Y44.059
X57.368 Y44.051
X56.692 Y43.852
G3 X56.702 Y43.485 I0.054 J-0.182
G1 X56.774 Y43.467 Z10.193 F1000.
X56.843 Y43.451 Z10.171
X56.907 Y43.435 Z10.136
X56.963 Y43.422 Z10.089
X57.009 Y43.411 Z10.031
X57.043 Y43.403 Z9.965
X57.064 Y43.398 Z9.894
X57.071 Y43.396 Z9.82
Z9.48
X57.078 Y43.394 Z9.406
X57.1 Y43.389 Z9.335
X57.134 Y43.381 Z9.269
X57.18 Y43.37 Z9.211
X57.236 Y43.356 Z9.164
X57.299 Y43.341 Z9.129
X57.369 Y43.324 Z9.107
X57.441 Y43.307 Z9.1
G3 X59.048 Y43.117 I1.607 J6.693
G1 X59.096 F3600.
G2 X60.439 Y42.561 I0. J-1.9
G1 X60.472 Y42.539
X60.51 Y42.531
X60.548 Y42.539
X60.581 Y42.561
X60.602 Y42.593
X60.61 Y42.631
X60.602 Y42.669
X60.581 Y42.702
G2 X60.024 Y44.045 I1.344 J1.344
G1 Y44.094
X60.02 Y44.153 F1000.
X59.836 Y45.311
X59.825 Y45.385 Z9.107
X59.813 Y45.455 Z9.129
X59.803 Y45.52 Z9.164
X59.794 Y45.577 Z9.211
X59.787 Y45.623 Z9.269
X59.781 Y45.658 Z9.335
X59.778 Y45.679 Z9.406
X59.777 Y45.687 Z9.48
G0 Z23.2
X59.715 Y56.15
G1 Z14.314 F1000.
X59.72 Y56.153 Z14.279
X59.735 Y56.16 Z14.247
X59.757 Y56.171 Z14.222
X59.785 Y56.186 Z14.206
X59.817 Y56.202 Z14.2
G3 X60.024 Y56.54 I-0.173 J0.339
G1 Y56.589 F3600.
G2 X60.581 Y57.932 I1.9 J0.
G1 X60.602 Y57.965
X60.61 Y58.003
X60.602 Y58.041
X60.581 Y58.073
X60.548 Y58.095
X60.51 Y58.103
X60.472 Y58.095
X60.439 Y58.073
G2 X59.096 Y57.517 I-1.344 J1.344
G1 X59.048
X59.014 Y57.509
X58.987 Y57.488
X58.972 Y57.458
Y57.423
X59.051 Y57.053
X59.083 Y54.912
X59.09 Y54.861
X59.29 Y54.185
G3 X59.657 Y54.195 I0.182 J0.054
G1 X59.674 Y54.267 Z14.193 F1000.
X59.691 Y54.336 Z14.171
X59.706 Y54.4 Z14.136
X59.719 Y54.456 Z14.089
X59.73 Y54.502 Z14.031
X59.739 Y54.536 Z13.965
X59.744 Y54.557 Z13.894
X59.745 Y54.564 Z13.82
Z10.58
X59.747 Y54.571 Z10.506
X59.752 Y54.592 Z10.435
X59.76 Y54.626 Z10.369
X59.771 Y54.672 Z10.311
X59.785 Y54.728 Z10.264
X59.8 Y54.792 Z10.229
X59.817 Y54.861 Z10.207
X59.834 Y54.934 Z10.2
G3 X60.024 Y56.54 I-6.693 J1.607
G1 Y56.589 F3600.
G2 X60.581 Y57.932 I1.9 J0.
G1 X60.602 Y57.965
X60.61 Y58.003
X60.602 Y58.041
X60.581 Y58.073
X60.548 Y58.095
X60.51 Y58.103
X60.472 Y58.095
X60.439 Y58.073
G2 X59.096 Y57.517 I-1.344 J1.344
G1 X59.048
X59.014 Y57.509
X58.987 Y57.488
X58.972 Y57.458
Y57.423
X59.051 Y57.053
X59.083 Y54.912
X59.09 Y54.861
X59.29 Y54.185
G3 X59.657 Y54.195 I0.182 J0.054
G1 X59.674 Y54.267 Z10.193 F1000.
X59.691 Y54.336 Z10.171
X59.706 Y54.4 Z10.136
X59.719 Y54.456 Z10.089
X59.73 Y54.502 Z10.031
X59.739 Y54.536 Z9.965
X59.744 Y54.557 Z9.894
X59.745 Y54.564 Z9.82
Z9.48
X59.747 Y54.571 Z9.406
X59.752 Y54.592 Z9.335
X59.76 Y54.626 Z9.269
X59.771 Y54.672 Z9.211
X59.785 Y54.728 Z9.164
X59.8 Y54.792 Z9.129
X59.817 Y54.861 Z9.107
X59.834 Y54.934 Z9.1
G3 X60.024 Y56.54 I-6.693 J1.607
G1 Y56.589 F3600.
G2 X60.581 Y57.932 I1.9 J0.
G1 X60.602 Y57.965
X60.61 Y58.003
X60.602 Y58.041
X60.581 Y58.073
X60.548 Y58.095
X60.51 Y58.103
X60.472 Y58.095
X60.439 Y58.073
G2 X59.096 Y57.517 I-1.344 J1.344
G1 X59.048
X58.988 Y57.512 F1000.
X57.83 Y57.329
X57.757 Y57.317 Z9.107
X57.686 Y57.306 Z9.129
X57.621 Y57.296 Z9.164
X57.565 Y57.287 Z9.211
X57.518 Y57.279 Z9.269
X57.483 Y57.274 Z9.335
X57.462 Y57.271 Z9.406
X57.455 Y57.269 Z9.48
G0 Z33.2
X138.478 Y30.863
Z23.2
G1 Z14.542 F1000.
X138.471 Y30.864 Z14.475
X138.452 Y30.867 Z14.411
X138.421 Y30.872 Z14.352
X138.379 Y30.879 Z14.3
X138.328 Y30.887 Z14.258
X138.269 Y30.896 Z14.226
X138.206 Y30.906 Z14.207
X138.14 Y30.917 Z14.2
X130.067 Y32.195
X130.008 Y32.2
X129.959 F3600.
G2 X128.616 Y32.756 I0. J1.9
G1 X128.583 Y32.778
X128.545 Y32.786
X128.507 Y32.778
X128.474 Y32.756
X128.453 Y32.724
X128.445 Y32.686
X128.453 Y32.648
X128.474 Y32.615
G2 X129.031 Y31.272 I-1.343 J-1.344
G1 Y31.223
X129.039 Y31.19
X129.06 Y31.163
X129.09 Y31.148
X129.125
X129.495 Y31.227
X131.636 Y31.258
X131.687 Y31.266
X132.363 Y31.465
G3 X132.353 Y31.832 I-0.054 J0.182
G1 X132.281 Y31.85 Z14.193 F1000.
X132.212 Y31.866 Z14.171
X132.148 Y31.882 Z14.136
X132.092 Y31.895 Z14.089
X132.046 Y31.906 Z14.031
X132.012 Y31.914 Z13.965
X131.991 Y31.919 Z13.894
X131.984 Y31.921 Z13.82
Z10.58
X131.977 Y31.923 Z10.506
X131.956 Y31.928 Z10.435
X131.922 Y31.936 Z10.369
X131.876 Y31.947 Z10.311
X131.82 Y31.961 Z10.264
X131.756 Y31.976 Z10.229
X131.686 Y31.993 Z10.207
X131.614 Y32.01 Z10.2
G3 X130.008 Y32.2 I-1.607 J-6.693
G1 X129.959 F3600.
G2 X128.616 Y32.756 I0. J1.9
G1 X128.583 Y32.778
X128.545 Y32.786
X128.507 Y32.778
X128.474 Y32.756
X128.453 Y32.724
X128.445 Y32.686
X128.453 Y32.648
X128.474 Y32.615
G2 X129.031 Y31.272 I-1.343 J-1.344
G1 Y31.223
X129.039 Y31.19
X129.06 Y31.163
X129.09 Y31.148
X129.125
X129.495 Y31.227
X131.636 Y31.258
X131.687 Y31.266
X132.363 Y31.465
G3 X132.353 Y31.832 I-0.054 J0.182
G1 X132.281 Y31.85 Z10.193 F1000.
X132.212 Y31.866 Z10.171
X132.148 Y31.882 Z10.136
X132.092 Y31.895 Z10.089
X132.046 Y31.906 Z10.031
X132.012 Y31.914 Z9.965
X131.991 Y31.919 Z9.894
X131.984 Y31.921 Z9.82
Z9.48
X131.977 Y31.923 Z9.406
X131.956 Y31.928 Z9.335
X131.922 Y31.936 Z9.269
X131.876 Y31.947 Z9.211
X131.82 Y31.961 Z9.164
X131.756 Y31.976 Z9.129
X131.686 Y31.993 Z9.107
X131.614 Y32.01 Z9.1
G3 X130.008 Y32.2 I-1.607 J-6.693
G1 X129.959 F3600.
G2 X128.616 Y32.756 I0. J1.9
G1 X128.583 Y32.778
X128.545 Y32.786
X128.507 Y32.778
X128.474 Y32.756
X128.453 Y32.724
X128.445 Y32.686
X128.453 Y32.648
X128.474 Y32.615
G2 X129.031 Y31.272 I-1.343 J-1.344
G1 Y31.223
X129.036 Y31.164 F1000.
X129.219 Y30.006
X129.231 Y29.932 Z9.107
X129.242 Y29.862 Z9.129
X129.252 Y29.797 Z9.164
X129.261 Y29.74 Z9.211
X129.269 Y29.694 Z9.269
X129.274 Y29.659 Z9.335
X129.277 Y29.638 Z9.406
X129.279 Y29.63 Z9.48
G0 Z23.2
X129.34 Y19.167
G1 Z14.314 F1000.
X129.335 Y19.164 Z14.279
X129.321 Y19.157 Z14.247
X129.298 Y19.146 Z14.222
X129.27 Y19.131 Z14.206
X129.238 Y19.115 Z14.2
G3 X129.031 Y18.777 I0.173 J-0.339
G1 Y18.728 F3600.
G2 X128.474 Y17.385 I-1.9 J0.
G1 X128.453 Y17.352
X128.445 Y17.314
X128.453 Y17.276
X128.474 Y17.244
X128.507 Y17.222
X128.545 Y17.214
X128.583 Y17.222
X128.616 Y17.244
G2 X129.959 Y17.8 I1.343 J-1.344
G1 X130.008
X130.041 Y17.808
X130.068 Y17.829
X130.083 Y17.859
Y17.894
X130.004 Y18.263
X129.973 Y20.405
X129.965 Y20.456
X129.766 Y21.132
G3 X129.399 Y21.122 I-0.182 J-0.054
G1 X129.381 Y21.05 Z14.193 F1000.
X129.365 Y20.981 Z14.171
X129.349 Y20.917 Z14.136
X129.336 Y20.861 Z14.089
X129.325 Y20.815 Z14.031
X129.317 Y20.781 Z13.965
X129.312 Y20.76 Z13.894
X129.31 Y20.753 Z13.82
Z10.58
X129.308 Y20.746 Z10.506
X129.303 Y20.725 Z10.435
X129.295 Y20.691 Z10.369
X129.284 Y20.645 Z10.311
X129.27 Y20.589 Z10.264
X129.255 Y20.525 Z10.229
X129.238 Y20.456 Z10.207
X129.221 Y20.383 Z10.2
G3 X129.031 Y18.777 I6.693 J-1.607
G1 Y18.728 F3600.
G2 X128.474 Y17.385 I-1.9 J0.
G1 X128.453 Y17.352
X128.445 Y17.314
X128.453 Y17.276
X128.474 Y17.244
X128.507 Y17.222
X128.545 Y17.214
X128.583 Y17.222
X128.616 Y17.244
G2 X129.959 Y17.8 I1.343 J-1.344
G1 X130.008
X130.041 Y17.808
X130.068 Y17.829
X130.083 Y17.859
Y17.894
X130.004 Y18.263
X129.973 Y20.405
X129.965 Y20.456
X129.766 Y21.132
G3 X129.399 Y21.122 I-0.182 J-0.054
G1 X129.381 Y21.05 Z10.193 F1000.
X129.365 Y20.981 Z10.171
X129.349 Y20.917 Z10.136
X129.336 Y20.861 Z10.089
X129.325 Y20.815 Z10.031
X129.317 Y20.781 Z9.965
X129.312 Y20.76 Z9.894
X129.31 Y20.753 Z9.82
Z9.48
X129.308 Y20.746 Z9.406
X129.303 Y20.725 Z9.335
X129.295 Y20.691 Z9.269
X129.284 Y20.645 Z9.211
X129.27 Y20.589 Z9.164
X129.255 Y20.525 Z9.129
X129.238 Y20.456 Z9.107
X129.221 Y20.383 Z9.1
G3 X129.031 Y18.777 I6.693 J-1.607
G1 Y18.728 F3600.
G2 X128.474 Y17.385 I-1.9 J0.
G1 X128.453 Y17.352
X128.445 Y17.314
X128.453 Y17.276
X128.474 Y17.244
X128.507 Y17.222
X128.545 Y17.214
X128.583 Y17.222
X128.616 Y17.244
G2 X129.959 Y17.8 I1.343 J-1.344
G1 X130.008
X130.067 Y17.805 F1000.
X131.225 Y17.988
X131.298 Y18. Z9.107
X131.369 Y18.011 Z9.129
X131.434 Y18.021 Z9.164
X131.491 Y18.03 Z9.211
X131.537 Y18.038 Z9.269
X131.572 Y18.043 Z9.335
X131.593 Y18.046 Z9.406
X131.601 Y18.048 Z9.48
G0 Z33.2
X139.622 Y19.138
Z23.2
G1 Z14.542 F1000.
X139.629 Y19.137 Z14.475
X139.648 Y19.134 Z14.411
X139.679 Y19.129 Z14.352
X139.721 Y19.123 Z14.3
X139.773 Y19.115 Z14.258
X139.831 Y19.105 Z14.226
X139.894 Y19.095 Z14.207
X139.96 Y19.085 Z14.2
X148.043 Y17.805
X148.102 Y17.8
X148.151 F3600.
G2 X149.494 Y17.244 I0. J-1.9
G1 X149.527 Y17.222
X149.565 Y17.214
X149.603 Y17.222
X149.636 Y17.244
X149.657 Y17.276
X149.665 Y17.314
X149.657 Y17.352
X149.636 Y17.385
G2 X149.079 Y18.728 I1.343 J1.344
G1 Y18.777
X149.071 Y18.81
X149.05 Y18.837
X149.02 Y18.852
X148.985
X148.615 Y18.773
X146.474 Y18.742
X146.423 Y18.734
X145.747 Y18.535
G3 X145.757 Y18.168 I0.054 J-0.182
G1 X145.829 Y18.15 Z14.193 F1000.
X145.898 Y18.134 Z14.171
X145.962 Y18.118 Z14.136
X146.018 Y18.105 Z14.089
X146.064 Y18.094 Z14.031
X146.098 Y18.086 Z13.965
X146.119 Y18.081 Z13.894
X146.126 Y18.079 Z13.82
Z10.58
X146.133 Y18.077 Z10.506
X146.154 Y18.072 Z10.435
X146.188 Y18.064 Z10.369
X146.234 Y18.053 Z10.311
X146.29 Y18.039 Z10.264
X146.354 Y18.024 Z10.229
X146.424 Y18.007 Z10.207
X146.496 Y17.99 Z10.2
G3 X148.102 Y17.8 I1.607 J6.693
G1 X148.151 F3600.
G2 X149.494 Y17.244 I0. J-1.9
G1 X149.527 Y17.222
X149.565 Y17.214
X149.603 Y17.222
X149.636 Y17.244
X149.657 Y17.276
X149.665 Y17.314
X149.657 Y17.352
X149.636 Y17.385
G2 X149.079 Y18.728 I1.343 J1.344
G1 Y18.777
X149.071 Y18.81
X149.05 Y18.837
X149.02 Y18.852
X148.985
X148.615 Y18.773
X146.474 Y18.742
X146.423 Y18.734
X145.747 Y18.535
G3 X145.757 Y18.168 I0.054 J-0.182
G1 X145.829 Y18.15 Z10.193 F1000.
X145.898 Y18.134 Z10.171
X145.962 Y18.118 Z10.136
X146.018 Y18.105 Z10.089
X146.064 Y18.094 Z10.031
X146.098 Y18.086 Z9.965
X146.119 Y18.081 Z9.894
X146.126 Y18.079 Z9.82
Z9.48
X146.133 Y18.077 Z9.406
X146.154 Y18.072 Z9.335
X146.188 Y18.064 Z9.269
X146.234 Y18.053 Z9.211
X146.29 Y18.039 Z9.164
X146.354 Y18.024 Z9.129
X146.424 Y18.007 Z9.107
X146.496 Y17.99 Z9.1
G3 X148.102 Y17.8 I1.607 J6.693
G1 X148.151 F3600.
G2 X149.494 Y17.244 I0. J-1.9
G1 X149.527 Y17.222
X149.565 Y17.214
X149.603 Y17.222
X149.636 Y17.244
X149.657 Y17.276
X149.665 Y17.314
X149.657 Y17.352
X149.636 Y17.385
G2 X149.079 Y18.728 I1.343 J1.344
G1 Y18.777
X149.074 Y18.836 F1000.
X148.891 Y19.994
X148.879 Y20.068 Z9.107
X148.868 Y20.138 Z9.129
X148.858 Y20.203 Z9.164
X148.849 Y20.26 Z9.211
X148.841 Y20.306 Z9.269
X148.836 Y20.341 Z9.335
X148.833 Y20.362 Z9.406
X148.831 Y20.37 Z9.48
G0 Z23.2
X148.77 Y30.833
G1 Z14.314 F1000.
X148.775 Y30.836 Z14.279
X148.789 Y30.843 Z14.247
X148.812 Y30.854 Z14.222
X148.84 Y30.869 Z14.206
X148.872 Y30.885 Z14.2
G3 X149.079 Y31.223 I-0.173 J0.339
G1 Y31.272 F3600.
G2 X149.636 Y32.615 I1.9 J0.
G1 X149.657 Y32.648
X149.665 Y32.686
X149.657 Y32.724
X149.636 Y32.756
X149.603 Y32.778
X149.565 Y32.786
X149.527 Y32.778
X149.494 Y32.756
G2 X148.151 Y32.2 I-1.343 J1.344
G1 X148.102
X148.069 Y32.192
X148.042 Y32.171
X148.027 Y32.141
Y32.106
X148.106 Y31.737
X148.137 Y29.595
X148.145 Y29.544
X148.344 Y28.868
G3 X148.711 Y28.878 I0.182 J0.054
G1 X148.729 Y28.95 Z14.193 F1000.
X148.745 Y29.019 Z14.171
X148.761 Y29.083 Z14.136
X148.774 Y29.139 Z14.089
X148.785 Y29.185 Z14.031
X148.793 Y29.219 Z13.965
X148.798 Y29.24 Z13.894
X148.8 Y29.247 Z13.82
Z10.58
X148.802 Y29.254 Z10.506
X148.807 Y29.275 Z10.435
X148.815 Y29.309 Z10.369
X148.826 Y29.355 Z10.311
X148.84 Y29.411 Z10.264
X148.855 Y29.475 Z10.229
X148.872 Y29.544 Z10.207
X148.889 Y29.617 Z10.2
G3 X149.079 Y31.223 I-6.693 J1.607
G1 Y31.272 F3600.
G2 X149.636 Y32.615 I1.9 J0.
G1 X149.657 Y32.648
X149.665 Y32.686
X149.657 Y32.724
X149.636 Y32.756
X149.603 Y32.778
X149.565 Y32.786
X149.527 Y32.778
X149.494 Y32.756
G2 X148.151 Y32.2 I-1.343 J1.344
G1 X148.102
X148.069 Y32.192
X148.042 Y32.171
X148.027 Y32.141
Y32.106
X148.106 Y31.737
X148.137 Y29.595
X148.145 Y29.544
X148.344 Y28.868
G3 X148.711 Y28.878 I0.182 J0.054
G1 X148.729 Y28.95 Z10.193 F1000.
X148.745 Y29.019 Z10.171
X148.761 Y29.083 Z10.136
X148.774 Y29.139 Z10.089
X148.785 Y29.185 Z10.031
X148.793 Y29.219 Z9.965
X148.798 Y29.24 Z9.894
X148.8 Y29.247 Z9.82
Z9.48
X148.802 Y29.254 Z9.406
X148.807 Y29.275 Z9.335
X148.815 Y29.309 Z9.269
X148.826 Y29.355 Z9.211
X148.84 Y29.411 Z9.164
X148.855 Y29.475 Z9.129
X148.872 Y29.544 Z9.107
X148.889 Y29.617 Z9.1
G3 X149.079 Y31.223 I-6.693 J1.607
G1 Y31.272 F3600.
G2 X149.636 Y32.615 I1.9 J0.
G1 X149.657 Y32.648
X149.665 Y32.686
X149.657 Y32.724
X149.636 Y32.756
X149.603 Y32.778
X149.565 Y32.786
X149.527 Y32.778
X149.494 Y32.756
G2 X148.151 Y32.2 I-1.343 J1.344
G1 X148.102
X148.043 Y32.195 F1000.
X146.885 Y32.012
X146.812 Y32. Z9.107
X146.741 Y31.989 Z9.129
X146.676 Y31.979 Z9.164
X146.619 Y31.97 Z9.211
X146.573 Y31.962 Z9.269
X146.538 Y31.957 Z9.335
X146.517 Y31.954 Z9.406
X146.509 Y31.952 Z9.48
G0 Z33.2
X54.107 Y43.426
Z23.2
G1 Z14.314 F1000.
X54.11 Y43.421 Z14.279
X54.117 Y43.407 Z14.247
X54.129 Y43.384 Z14.222
X54.143 Y43.356 Z14.206
X54.159 Y43.324 Z14.2
G3 X54.498 Y43.117 I0.339 J0.173
G1 X54.546 F3600.
G2 X55.889 Y42.561 I0. J-1.9
G1 X55.922 Y42.539
X55.96 Y42.531
X55.998 Y42.539
X56.031 Y42.561
X56.052 Y42.593
X56.06 Y42.631
X56.052 Y42.669
X56.031 Y42.702
G2 X55.474 Y44.045 I1.344 J1.344
G1 Y44.094
X55.467 Y44.127
X55.446 Y44.154
X55.415 Y44.169
X55.381
X55.011 Y44.09
X52.869 Y44.059
X52.818 Y44.051
X52.142 Y43.852
G3 X52.152 Y43.485 I0.054 J-0.182
G1 X52.224 Y43.467 Z14.193 F1000.
X52.293 Y43.451 Z14.171
X52.357 Y43.435 Z14.136
X52.413 Y43.422 Z14.089
X52.459 Y43.411 Z14.031
X52.493 Y43.403 Z13.965
X52.514 Y43.398 Z13.894
X52.521 Y43.396 Z13.82
Z10.58
X52.528 Y43.394 Z10.506
X52.55 Y43.389 Z10.435
X52.584 Y43.381 Z10.369
X52.63 Y43.37 Z10.311
X52.686 Y43.356 Z10.264
X52.749 Y43.341 Z10.229
X52.819 Y43.324 Z10.207
X52.891 Y43.307 Z10.2
G3 X54.498 Y43.117 I1.607 J6.693
G1 X54.546 F3600.
G2 X55.889 Y42.561 I0. J-1.9
G1 X55.922 Y42.539
X55.96 Y42.531
X55.998 Y42.539
X56.031 Y42.561
X56.052 Y42.593
X56.06 Y42.631
X56.052 Y42.669
X56.031 Y42.702
G2 X55.474 Y44.045 I1.344 J1.344
G1 Y44.094
X55.467 Y44.127
X55.446 Y44.154
X55.415 Y44.169
X55.381
X55.011 Y44.09
X52.869 Y44.059
X52.818 Y44.051
X52.142 Y43.852
G3 X52.152 Y43.485 I0.054 J-0.182
G1 X52.224 Y43.467 Z10.193 F1000.
X52.293 Y43.451 Z10.171
X52.357 Y43.435 Z10.136
X52.413 Y43.422 Z10.089
X52.459 Y43.411 Z10.031
X52.493 Y43.403 Z9.965
X52.514 Y43.398 Z9.894
X52.521 Y43.396 Z9.82
Z6.58
X52.528 Y43.394 Z6.506
X52.55 Y43.389 Z6.435
X52.584 Y43.381 Z6.369
X52.63 Y43.37 Z6.311
X52.686 Y43.356 Z6.264
X52.749 Y43.341 Z6.229
X52.819 Y43.324 Z6.207
X52.891 Y43.307 Z6.2
G3 X54.498 Y43.117 I1.607 J6.693
G1 X54.546 F3600.
G2 X55.889 Y42.561 I0. J-1.9
G1 X55.922 Y42.539
X55.96 Y42.531
X55.998 Y42.539
X56.031 Y42.561
X56.052 Y42.593
X56.06 Y42.631
X56.052 Y42.669
X56.031 Y42.702
G2 X55.474 Y44.045 I1.344 J1.344
G1 Y44.094
X55.467 Y44.127
X55.446 Y44.154
X55.415 Y44.169
X55.381
X55.011 Y44.09
X52.869 Y44.059
X52.818 Y44.051
X52.142 Y43.852
G3 X52.152 Y43.485 I0.054 J-0.182
G1 X52.224 Y43.467 Z6.193 F1000.
X52.293 Y43.451 Z6.171
X52.357 Y43.435 Z6.136
X52.413 Y43.422 Z6.089
X52.459 Y43.411 Z6.031
X52.493 Y43.403 Z5.965
X52.514 Y43.398 Z5.894
X52.521 Y43.396 Z5.82
Z2.58
X52.528 Y43.394 Z2.506
X52.55 Y43.389 Z2.435
X52.584 Y43.381 Z2.369
X52.63 Y43.37 Z2.311
X52.686 Y43.356 Z2.264
X52.749 Y43.341 Z2.229
X52.819 Y43.324 Z2.207
X52.891 Y43.307 Z2.2
G3 X54.498 Y43.117 I1.607 J6.693
G1 X54.546 F3600.
G2 X55.889 Y42.561 I0. J-1.9
G1 X55.922 Y42.539
X55.96 Y42.531
X55.998 Y42.539
X56.031 Y42.561
X56.052 Y42.593
X56.06 Y42.631
X56.052 Y42.669
X56.031 Y42.702
G2 X55.474 Y44.045 I1.344 J1.344
G1 Y44.094
X55.467 Y44.127
X55.446 Y44.154
X55.415 Y44.169
X55.381
X55.011 Y44.09
X52.869 Y44.059
X52.818 Y44.051
X52.142 Y43.852
G3 X52.152 Y43.485 I0.054 J-0.182
G1 X52.224 Y43.467 Z2.193 F1000.
X52.293 Y43.451 Z2.171
X52.357 Y43.435 Z2.136
X52.413 Y43.422 Z2.089
X52.459 Y43.411 Z2.031
X52.493 Y43.403 Z1.965
X52.514 Y43.398 Z1.894
X52.521 Y43.396 Z1.82
Z0.38
X52.528 Y43.394 Z0.306
X52.55 Y43.389 Z0.235
X52.584 Y43.381 Z0.169
X52.63 Y43.37 Z0.111
X52.686 Y43.356 Z0.064
X52.749 Y43.341 Z0.029
X52.819 Y43.324 Z0.007
X52.891 Y43.307 Z0.
G3 X54.498 Y43.117 I1.607 J6.693
G1 X54.546 F3600.
G2 X55.889 Y42.561 I0. J-1.9
G1 X55.922 Y42.539
X55.96 Y42.531
X55.998 Y42.539
X56.031 Y42.561
X56.052 Y42.593
X56.06 Y42.631
X56.052 Y42.669
X56.031 Y42.702
G2 X55.474 Y44.045 I1.344 J1.344
G1 Y44.094
X55.47 Y44.153 F1000.
X55.286 Y45.311
X55.275 Y45.385 Z0.007
X55.263 Y45.455 Z0.029
X55.253 Y45.52 Z0.064
X55.244 Y45.577 Z0.111
X55.237 Y45.623 Z0.169
X55.231 Y45.658 Z0.235
X55.228 Y45.679 Z0.306
X55.227 Y45.687 Z0.38
G0 Z23.2
X44.835 Y44.484
G1 Z14.314 F1000.
X44.83 Y44.481 Z14.279
X44.815 Y44.474 Z14.247
X44.793 Y44.463 Z14.222
X44.765 Y44.448 Z14.206
X44.733 Y44.432 Z14.2
G3 X44.526 Y44.094 I0.173 J-0.339
G1 Y44.045 F3600.
G2 X43.969 Y42.702 I-1.9 J0.
G1 X43.948 Y42.669
X43.94 Y42.631
X43.948 Y42.593
X43.969 Y42.561
X44.002 Y42.539
X44.04 Y42.531
X44.078 Y42.539
X44.111 Y42.561
G2 X45.454 Y43.117 I1.344 J-1.344
G1 X45.502
X45.536 Y43.125
X45.563 Y43.146
X45.578 Y43.176
Y43.211
X45.499 Y43.581
X45.467 Y45.722
X45.46 Y45.773
X45.26 Y46.449
G3 X44.893 Y46.439 I-0.182 J-0.054
G1 X44.876 Y46.367 Z14.193 F1000.
X44.859 Y46.298 Z14.171
X44.844 Y46.234 Z14.136
X44.831 Y46.178 Z14.089
X44.82 Y46.132 Z14.031
X44.811 Y46.098 Z13.965
X44.806 Y46.077 Z13.894
X44.805 Y46.07 Z13.82
Z10.58
X44.803 Y46.063 Z10.506
X44.798 Y46.042 Z10.435
X44.79 Y46.008 Z10.369
X44.779 Y45.962 Z10.311
X44.765 Y45.906 Z10.264
X44.75 Y45.842 Z10.229
X44.733 Y45.773 Z10.207
X44.716 Y45.7 Z10.2
G3 X44.526 Y44.094 I6.693 J-1.607
G1 Y44.045 F3600.
G2 X43.969 Y42.702 I-1.9 J0.
G1 X43.948 Y42.669
X43.94 Y42.631
X43.948 Y42.593
X43.969 Y42.561
X44.002 Y42.539
X44.04 Y42.531
X44.078 Y42.539
X44.111 Y42.561
G2 X45.454 Y43.117 I1.344 J-1.344
G1 X45.502
X45.536 Y43.125
X45.563 Y43.146
X45.578 Y43.176
Y43.211
X45.499 Y43.581
X45.467 Y45.722
X45.46 Y45.773
X45.26 Y46.449
G3 X44.893 Y46.439 I-0.182 J-0.054
G1 X44.876 Y46.367 Z10.193 F1000.
X44.859 Y46.298 Z10.171
X44.844 Y46.234 Z10.136
X44.831 Y46.178 Z10.089
X44.82 Y46.132 Z10.031
X44.811 Y46.098 Z9.965
X44.806 Y46.077 Z9.894
X44.805 Y46.07 Z9.82
Z6.58
X44.803 Y46.063 Z6.506
X44.798 Y46.042 Z6.435
X44.79 Y46.008 Z6.369
X44.779 Y45.962 Z6.311
X44.765 Y45.906 Z6.264
X44.75 Y45.842 Z6.229
X44.733 Y45.773 Z6.207
X44.716 Y45.7 Z6.2
G3 X44.526 Y44.094 I6.693 J-1.607
G1 Y44.045 F3600.
G2 X43.969 Y42.702 I-1.9 J0.
G1 X43.948 Y42.669
X43.94 Y42.631
X43.948 Y42.593
X43.969 Y42.561
X44.002 Y42.539
X44.04 Y42.531
X44.078 Y42.539
X44.111 Y42.561
G2 X45.454 Y43.117 I1.344 J-1.344
G1 X45.502
X45.536 Y43.125
X45.563 Y43.146
X45.578 Y43.176
Y43.211
X45.499 Y43.581
X45.467 Y45.722
X45.46 Y45.773
X45.26 Y46.449
G3 X44.893 Y46.439 I-0.182 J-0.054
G1 X44.876 Y46.367 Z6.193 F1000.
X44.859 Y46.298 Z6.171
X44.844 Y46.234 Z6.136
X44.831 Y46.178 Z6.089
X44.82 Y46.132 Z6.031
X44.811 Y46.098 Z5.965
X44.806 Y46.077 Z5.894
X44.805 Y46.07 Z5.82
Z2.58
X44.803 Y46.063 Z2.506
X44.798 Y46.042 Z2.435
X44.79 Y46.008 Z2.369
X44.779 Y45.962 Z2.311
X44.765 Y45.906 Z2.264
X44.75 Y45.842 Z2.229
X44.733 Y45.773 Z2.207
X44.716 Y45.7 Z2.2
G3 X44.526 Y44.094 I6.693 J-1.607
G1 Y44.045 F3600.
G2 X43.969 Y42.702 I-1.9 J0.
G1 X43.948 Y42.669
X43.94 Y42.631
X43.948 Y42.593
X43.969 Y42.561
X44.002 Y42.539
X44.04 Y42.531
X44.078 Y42.539
X44.111 Y42.561
G2 X45.454 Y43.117 I1.344 J-1.344
G1 X45.502
X45.536 Y43.125
X45.563 Y43.146
X45.578 Y43.176
Y43.211
X45.499 Y43.581
X45.467 Y45.722
X45.46 Y45.773
X45.26 Y46.449
G3 X44.893 Y46.439 I-0.182 J-0.054
G1 X44.876 Y46.367 Z2.193 F1000.
X44.859 Y46.298 Z2.171
X44.844 Y46.234 Z2.136
X44.831 Y46.178 Z2.089
X44.82 Y46.132 Z2.031
X44.811 Y46.098 Z1.965
X44.806 Y46.077 Z1.894
X44.805 Y46.07 Z1.82
Z0.38
X44.803 Y46.063 Z0.306
X44.798 Y46.042 Z0.235
X44.79 Y46.008 Z0.169
X44.779 Y45.962 Z0.111
X44.765 Y45.906 Z0.064
X44.75 Y45.842 Z0.029
X44.733 Y45.773 Z0.007
X44.716 Y45.7 Z0.
G3 X44.526 Y44.094 I6.693 J-1.607
G1 Y44.045 F3600.
G2 X43.969 Y42.702 I-1.9 J0.
G1 X43.948 Y42.669
X43.94 Y42.631
X43.948 Y42.593
X43.969 Y42.561
X44.002 Y42.539
X44.04 Y42.531
X44.078 Y42.539
X44.111 Y42.561
G2 X45.454 Y43.117 I1.344 J-1.344
G1 X45.502
X45.562 Y43.122 F1000.
X46.72 Y43.305
X46.793 Y43.317 Z0.007
X46.864 Y43.328 Z0.029
X46.929 Y43.338 Z0.064
X46.985 Y43.347 Z0.111
X47.032 Y43.355 Z0.169
X47.067 Y43.36 Z0.235
X47.088 Y43.363 Z0.306
X47.095 Y43.365 Z0.38
G0 Z23.2
X45.893 Y57.208
G1 Z14.314 F1000.
X45.89 Y57.213 Z14.279
X45.883 Y57.227 Z14.247
X45.871 Y57.25 Z14.222
X45.857 Y57.278 Z14.206
X45.841 Y57.31 Z14.2
G3 X45.502 Y57.517 I-0.339 J-0.173
G1 X45.454 F3600.
G2 X44.111 Y58.073 I0. J1.9
G1 X44.078 Y58.095
X44.04 Y58.103
X44.002 Y58.095
X43.969 Y58.073
X43.948 Y58.041
X43.94 Y58.003
X43.948 Y57.965
X43.969 Y57.932
G2 X44.526 Y56.589 I-1.344 J-1.344
G1 Y56.54
X44.533 Y56.507
X44.554 Y56.48
X44.585 Y56.465
X44.619
X44.989 Y56.544
X47.131 Y56.575
X47.182 Y56.583
X47.858 Y56.782
G3 X47.848 Y57.149 I-0.054 J0.182
G1 X47.776 Y57.167 Z14.193 F1000.
X47.707 Y57.183 Z14.171
X47.643 Y57.199 Z14.136
X47.587 Y57.212 Z14.089
X47.541 Y57.223 Z14.031
X47.507 Y57.231 Z13.965
X47.486 Y57.236 Z13.894
X47.479 Y57.238 Z13.82
Z10.58
X47.472 Y57.24 Z10.506
X47.45 Y57.245 Z10.435
X47.416 Y57.253 Z10.369
X47.37 Y57.264 Z10.311
X47.314 Y57.278 Z10.264
X47.251 Y57.293 Z10.229
X47.181 Y57.31 Z10.207
X47.109 Y57.327 Z10.2
G3 X45.502 Y57.517 I-1.607 J-6.693
G1 X45.454 F3600.
G2 X44.111 Y58.073 I0. J1.9
G1 X44.078 Y58.095
X44.04 Y58.103
X44.002 Y58.095
X43.969 Y58.073
X43.948 Y58.041
X43.94 Y58.003
X43.948 Y57.965
X43.969 Y57.932
G2 X44.526 Y56.589 I-1.344 J-1.344
G1 Y56.54
X44.533 Y56.507
X44.554 Y56.48
X44.585 Y56.465
X44.619
X44.989 Y56.544
X47.131 Y56.575
X47.182 Y56.583
X47.858 Y56.782
G3 X47.848 Y57.149 I-0.054 J0.182
G1 X47.776 Y57.167 Z10.193 F1000.
X47.707 Y57.183 Z10.171
X47.643 Y57.199 Z10.136
X47.587 Y57.212 Z10.089
X47.541 Y57.223 Z10.031
X47.507 Y57.231 Z9.965
X47.486 Y57.236 Z9.894
X47.479 Y57.238 Z9.82
Z6.58
X47.472 Y57.24 Z6.506
X47.45 Y57.245 Z6.435
X47.416 Y57.253 Z6.369
X47.37 Y57.264 Z6.311
X47.314 Y57.278 Z6.264
X47.251 Y57.293 Z6.229
X47.181 Y57.31 Z6.207
X47.109 Y57.327 Z6.2
G3 X45.502 Y57.517 I-1.607 J-6.693
G1 X45.454 F3600.
G2 X44.111 Y58.073 I0. J1.9
G1 X44.078 Y58.095
X44.04 Y58.103
X44.002 Y58.095
X43.969 Y58.073
X43.948 Y58.041
X43.94 Y58.003
X43.948 Y57.965
X43.969 Y57.932
G2 X44.526 Y56.589 I-1.344 J-1.344
G1 Y56.54
X44.533 Y56.507
X44.554 Y56.48
X44.585 Y56.465
X44.619
X44.989 Y56.544
X47.131 Y56.575
X47.182 Y56.583
X47.858 Y56.782
G3 X47.848 Y57.149 I-0.054 J0.182
G1 X47.776 Y57.167 Z6.193 F1000.
X47.707 Y57.183 Z6.171
X47.643 Y57.199 Z6.136
X47.587 Y57.212 Z6.089
X47.541 Y57.223 Z6.031
X47.507 Y57.231 Z5.965
X47.486 Y57.236 Z5.894
X47.479 Y57.238 Z5.82
Z2.58
X47.472 Y57.24 Z2.506
X47.45 Y57.245 Z2.435
X47.416 Y57.253 Z2.369
X47.37 Y57.264 Z2.311
X47.314 Y57.278 Z2.264
X47.251 Y57.293 Z2.229
X47.181 Y57.31 Z2.207
X47.109 Y57.327 Z2.2
G3 X45.502 Y57.517 I-1.607 J-6.693
G1 X45.454 F3600.
G2 X44.111 Y58.073 I0. J1.9
G1 X44.078 Y58.095
X44.04 Y58.103
X44.002 Y58.095
X43.969 Y58.073
X43.948 Y58.041
X43.94 Y58.003
X43.948 Y57.965
X43.969 Y57.932
G2 X44.526 Y56.589 I-1.344 J-1.344
G1 Y56.54
X44.533 Y56.507
X44.554 Y56.48
X44.585 Y56.465
X44.619
X44.989 Y56.544
X47.131 Y56.575
X47.182 Y56.583
X47.858 Y56.782
G3 X47.848 Y57.149 I-0.054 J0.182
G1 X47.776 Y57.167 Z2.193 F1000.
X47.707 Y57.183 Z2.171
X47.643 Y57.199 Z2.136
X47.587 Y57.212 Z2.089
X47.541 Y57.223 Z2.031
X47.507 Y57.231 Z1.965
X47.486 Y57.236 Z1.894
X47.479 Y57.238 Z1.82
Z0.38
X47.472 Y57.24 Z0.306
X47.45 Y57.245 Z0.235
X47.416 Y57.253 Z0.169
X47.37 Y57.264 Z0.111
X47.314 Y57.278 Z0.064
X47.251 Y57.293 Z0.029
X47.181 Y57.31 Z0.007
X47.109 Y57.327 Z0.
G3 X45.502 Y57.517 I-1.607 J-6.693
G1 X45.454 F3600.
G2 X44.111 Y58.073 I0. J1.9
G1 X44.078 Y58.095
X44.04 Y58.103
X44.002 Y58.095
X43.969 Y58.073
X43.948 Y58.041
X43.94 Y58.003
X43.948 Y57.965
X43.969 Y57.932
G2 X44.526 Y56.589 I-1.344 J-1.344
G1 Y56.54
X44.53 Y56.481 F1000.
X44.714 Y55.323
X44.725 Y55.249 Z0.007
X44.737 Y55.179 Z0.029
X44.747 Y55.114 Z0.064
X44.756 Y55.057 Z0.111
X44.763 Y55.011 Z0.169
X44.769 Y54.976 Z0.235
X44.772 Y54.955 Z0.306
X44.773 Y54.947 Z0.38
G0 Z23.2
X55.165 Y56.15
G1 Z14.314 F1000.
X55.17 Y56.153 Z14.279
X55.185 Y56.16 Z14.247
X55.207 Y56.171 Z14.222
X55.235 Y56.186 Z14.206
X55.267 Y56.202 Z14.2
G3 X55.474 Y56.54 I-0.173 J0.339
G1 Y56.589 F3600.
G2 X56.031 Y57.932 I1.9 J0.
G1 X56.052 Y57.965
X56.06 Y58.003
X56.052 Y58.041
X56.031 Y58.073
X55.998 Y58.095
X55.96 Y58.103
X55.922 Y58.095
X55.889 Y58.073
G2 X54.546 Y57.517 I-1.344 J1.344
G1 X54.498
X54.464 Y57.509
X54.437 Y57.488
X54.422 Y57.458
Y57.423
X54.501 Y57.053
X54.533 Y54.912
X54.54 Y54.861
X54.74 Y54.185
G3 X55.107 Y54.195 I0.182 J0.054
G1 X55.124 Y54.267 Z14.193 F1000.
X55.141 Y54.336 Z14.171
X55.156 Y54.4 Z14.136
X55.169 Y54.456 Z14.089
X55.18 Y54.502 Z14.031
X55.189 Y54.536 Z13.965
X55.194 Y54.557 Z13.894
X55.195 Y54.564 Z13.82
Z10.58
X55.197 Y54.571 Z10.506
X55.202 Y54.592 Z10.435
X55.21 Y54.626 Z10.369
X55.221 Y54.672 Z10.311
X55.235 Y54.728 Z10.264
X55.25 Y54.792 Z10.229
X55.267 Y54.861 Z10.207
X55.284 Y54.934 Z10.2
G3 X55.474 Y56.54 I-6.693 J1.607
G1 Y56.589 F3600.
G2 X56.031 Y57.932 I1.9 J0.
G1 X56.052 Y57.965
X56.06 Y58.003
X56.052 Y58.041
X56.031 Y58.073
X55.998 Y58.095
X55.96 Y58.103
X55.922 Y58.095
X55.889 Y58.073
G2 X54.546 Y57.517 I-1.344 J1.344
G1 X54.498
X54.464 Y57.509
X54.437 Y57.488
X54.422 Y57.458
Y57.423
X54.501 Y57.053
X54.533 Y54.912
X54.54 Y54.861
X54.74 Y54.185
G3 X55.107 Y54.195 I0.182 J0.054
G1 X55.124 Y54.267 Z10.193 F1000.
X55.141 Y54.336 Z10.171
X55.156 Y54.4 Z10.136
X55.169 Y54.456 Z10.089
X55.18 Y54.502 Z10.031
X55.189 Y54.536 Z9.965
X55.194 Y54.557 Z9.894
X55.195 Y54.564 Z9.82
Z6.58
X55.197 Y54.571 Z6.506
X55.202 Y54.592 Z6.435
X55.21 Y54.626 Z6.369
X55.221 Y54.672 Z6.311
X55.235 Y54.728 Z6.264
X55.25 Y54.792 Z6.229
X55.267 Y54.861 Z6.207
X55.284 Y54.934 Z6.2
G3 X55.474 Y56.54 I-6.693 J1.607
G1 Y56.589 F3600.
G2 X56.031 Y57.932 I1.9 J0.
G1 X56.052 Y57.965
X56.06 Y58.003
X56.052 Y58.041
X56.031 Y58.073
X55.998 Y58.095
X55.96 Y58.103
X55.922 Y58.095
X55.889 Y58.073
G2 X54.546 Y57.517 I-1.344 J1.344
G1 X54.498
X54.464 Y57.509
X54.437 Y57.488
X54.422 Y57.458
Y57.423
X54.501 Y57.053
X54.533 Y54.912
X54.54 Y54.861
X54.74 Y54.185
G3 X55.107 Y54.195 I0.182 J0.054
G1 X55.124 Y54.267 Z6.193 F1000.
X55.141 Y54.336 Z6.171
X55.156 Y54.4 Z6.136
X55.169 Y54.456 Z6.089
X55.18 Y54.502 Z6.031
X55.189 Y54.536 Z5.965
X55.194 Y54.557 Z5.894
X55.195 Y54.564 Z5.82
Z2.58
X55.197 Y54.571 Z2.506
X55.202 Y54.592 Z2.435
X55.21 Y54.626 Z2.369
X55.221 Y54.672 Z2.311
X55.235 Y54.728 Z2.264
X55.25 Y54.792 Z2.229
X55.267 Y54.861 Z2.207
X55.284 Y54.934 Z2.2
G3 X55.474 Y56.54 I-6.693 J1.607
G1 Y56.589 F3600.
G2 X56.031 Y57.932 I1.9 J0.
G1 X56.052 Y57.965
X56.06 Y58.003
X56.052 Y58.041
X56.031 Y58.073
X55.998 Y58.095
X55.96 Y58.103
X55.922 Y58.095
X55.889 Y58.073
G2 X54.546 Y57.517 I-1.344 J1.344
G1 X54.498
X54.464 Y57.509
X54.437 Y57.488
X54.422 Y57.458
Y57.423
X54.501 Y57.053
X54.533 Y54.912
X54.54 Y54.861
X54.74 Y54.185
G3 X55.107 Y54.195 I0.182 J0.054
G1 X55.124 Y54.267 Z2.193 F1000.
X55.141 Y54.336 Z2.171
X55.156 Y54.4 Z2.136
X55.169 Y54.456 Z2.089
X55.18 Y54.502 Z2.031
X55.189 Y54.536 Z1.965
X55.194 Y54.557 Z1.894
X55.195 Y54.564 Z1.82
Z0.38
X55.197 Y54.571 Z0.306
X55.202 Y54.592 Z0.235
X55.21 Y54.626 Z0.169
X55.221 Y54.672 Z0.111
X55.235 Y54.728 Z0.064
X55.25 Y54.792 Z0.029
X55.267 Y54.861 Z0.007
X55.284 Y54.934 Z0.
G3 X55.474 Y56.54 I-6.693 J1.607
G1 Y56.589 F3600.
G2 X56.031 Y57.932 I1.9 J0.
G1 X56.052 Y57.965
X56.06 Y58.003
X56.052 Y58.041
X56.031 Y58.073
X55.998 Y58.095
X55.96 Y58.103
X55.922 Y58.095
X55.889 Y58.073
G2 X54.546 Y57.517 I-1.344 J1.344
G1 X54.498
X54.438 Y57.512 F1000.
X53.28 Y57.329
X53.207 Y57.317 Z0.007
X53.136 Y57.306 Z0.029
X53.071 Y57.296 Z0.064
X53.015 Y57.287 Z0.111
X52.968 Y57.279 Z0.169
X52.933 Y57.274 Z0.235
X52.912 Y57.271 Z0.306
X52.905 Y57.269 Z0.38
G0 Z23.2
X134.948 Y31.891
G1 Z14.314 F1000.
X134.945 Y31.896 Z14.279
X134.938 Y31.91 Z14.247
X134.927 Y31.933 Z14.222
X134.912 Y31.961 Z14.206
X134.896 Y31.993 Z14.2
G3 X134.558 Y32.2 I-0.339 J-0.173
G1 X134.509 F3600.
G2 X133.166 Y32.756 I0. J1.9
G1 X133.133 Y32.778
X133.095 Y32.786
X133.057 Y32.778
X133.024 Y32.756
X133.003 Y32.724
X132.995 Y32.686
X133.003 Y32.648
X133.024 Y32.615
G2 X133.581 Y31.272 I-1.343 J-1.344
G1 Y31.223
X133.589 Y31.19
X133.61 Y31.163
X133.64 Y31.148
X133.675
X134.045 Y31.227
X136.186 Y31.258
X136.237 Y31.266
X136.913 Y31.465
G3 X136.903 Y31.832 I-0.054 J0.182
G1 X136.831 Y31.85 Z14.193 F1000.
X136.762 Y31.866 Z14.171
X136.698 Y31.882 Z14.136
X136.642 Y31.895 Z14.089
X136.596 Y31.906 Z14.031
X136.562 Y31.914 Z13.965
X136.541 Y31.919 Z13.894
X136.534 Y31.921 Z13.82
Z10.58
X136.527 Y31.923 Z10.506
X136.506 Y31.928 Z10.435
X136.472 Y31.936 Z10.369
X136.426 Y31.947 Z10.311
X136.37 Y31.961 Z10.264
X136.306 Y31.976 Z10.229
X136.236 Y31.993 Z10.207
X136.164 Y32.01 Z10.2
G3 X134.558 Y32.2 I-1.607 J-6.693
G1 X134.509 F3600.
G2 X133.166 Y32.756 I0. J1.9
G1 X133.133 Y32.778
X133.095 Y32.786
X133.057 Y32.778
X133.024 Y32.756
X133.003 Y32.724
X132.995 Y32.686
X133.003 Y32.648
X133.024 Y32.615
G2 X133.581 Y31.272 I-1.343 J-1.344
G1 Y31.223
X133.589 Y31.19
X133.61 Y31.163
X133.64 Y31.148
X133.675
X134.045 Y31.227
X136.186 Y31.258
X136.237 Y31.266
X136.913 Y31.465
G3 X136.903 Y31.832 I-0.054 J0.182
G1 X136.831 Y31.85 Z10.193 F1000.
X136.762 Y31.866 Z10.171
X136.698 Y31.882 Z10.136
X136.642 Y31.895 Z10.089
X136.596 Y31.906 Z10.031
X136.562 Y31.914 Z9.965
X136.541 Y31.919 Z9.894
X136.534 Y31.921 Z9.82
Z6.58
X136.527 Y31.923 Z6.506
X136.506 Y31.928 Z6.435
X136.472 Y31.936 Z6.369
X136.426 Y31.947 Z6.311
X136.37 Y31.961 Z6.264
X136.306 Y31.976 Z6.229
X136.236 Y31.993 Z6.207
X136.164 Y32.01 Z6.2
G3 X134.558 Y32.2 I-1.607 J-6.693
G1 X134.509 F3600.
G2 X133.166 Y32.756 I0. J1.9
G1 X133.133 Y32.778
X133.095 Y32.786
X133.057 Y32.778
X133.024 Y32.756
X133.003 Y32.724
X132.995 Y32.686
X133.003 Y32.648
X133.024 Y32.615
G2 X133.581 Y31.272 I-1.343 J-1.344
G1 Y31.223
X133.589 Y31.19
X133.61 Y31.163
X133.64 Y31.148
X133.675
X134.045 Y31.227
X136.186 Y31.258
X136.237 Y31.266
X136.913 Y31.465
G3 X136.903 Y31.832 I-0.054 J0.182
G1 X136.831 Y31.85 Z6.193 F1000.
X136.762 Y31.866 Z6.171
X136.698 Y31.882 Z6.136
X136.642 Y31.895 Z6.089
X136.596 Y31.906 Z6.031
X136.562 Y31.914 Z5.965
X136.541 Y31.919 Z5.894
X136.534 Y31.921 Z5.82
Z2.58
X136.527 Y31.923 Z2.506
X136.506 Y31.928 Z2.435
X136.472 Y31.936 Z2.369
X136.426 Y31.947 Z2.311
X136.37 Y31.961 Z2.264
X136.306 Y31.976 Z2.229
X136.236 Y31.993 Z2.207
X136.164 Y32.01 Z2.2
G3 X134.558 Y32.2 I-1.607 J-6.693
G1 X134.509 F3600.
G2 X133.166 Y32.756 I0. J1.9
G1 X133.133 Y32.778
X133.095 Y32.786
X133.057 Y32.778
X133.024 Y32.756
X133.003 Y32.724
X132.995 Y32.686
X133.003 Y32.648
X133.024 Y32.615
G2 X133.581 Y31.272 I-1.343 J-1.344
G1 Y31.223
X133.589 Y31.19
X133.61 Y31.163
X133.64 Y31.148
X133.675
X134.045 Y31.227
X136.186 Y31.258
X136.237 Y31.266
X136.913 Y31.465
G3 X136.903 Y31.832 I-0.054 J0.182
G1 X136.831 Y31.85 Z2.193 F1000.
X136.762 Y31.866 Z2.171
X136.698 Y31.882 Z2.136
X136.642 Y31.895 Z2.089
X136.596 Y31.906 Z2.031
X136.562 Y31.914 Z1.965
X136.541 Y31.919 Z1.894
X136.534 Y31.921 Z1.82
Z0.38
X136.527 Y31.923 Z0.306
X136.506 Y31.928 Z0.235
X136.472 Y31.936 Z0.169
X136.426 Y31.947 Z0.111
X136.37 Y31.961 Z0.064
X136.306 Y31.976 Z0.029
X136.236 Y31.993 Z0.007
X136.164 Y32.01 Z0.
G3 X134.558 Y32.2 I-1.607 J-6.693
G1 X134.509 F3600.
G2 X133.166 Y32.756 I0. J1.9
G1 X133.133 Y32.778
X133.095 Y32.786
X133.057 Y32.778
X133.024 Y32.756
X133.003 Y32.724
X132.995 Y32.686
X133.003 Y32.648
X133.024 Y32.615
G2 X133.581 Y31.272 I-1.343 J-1.344
G1 Y31.223
X133.586 Y31.164 F1000.
X133.769 Y30.006
X133.781 Y29.932 Z0.007
X133.792 Y29.862 Z0.029
X133.802 Y29.797 Z0.064
X133.811 Y29.74 Z0.111
X133.819 Y29.694 Z0.169
X133.824 Y29.659 Z0.235
X133.827 Y29.638 Z0.306
X133.829 Y29.63 Z0.38
G0 Z23.2
X144.22 Y30.833
G1 Z14.314 F1000.
X144.225 Y30.836 Z14.279
X144.239 Y30.843 Z14.247
X144.262 Y30.854 Z14.222
X144.29 Y30.869 Z14.206
X144.322 Y30.885 Z14.2
G3 X144.529 Y31.223 I-0.173 J0.339
G1 Y31.272 F3600.
G2 X145.086 Y32.615 I1.9 J0.
G1 X145.107 Y32.648
X145.115 Y32.686
X145.107 Y32.724
X145.086 Y32.756
X145.053 Y32.778
X145.015 Y32.786
X144.977 Y32.778
X144.944 Y32.756
G2 X143.601 Y32.2 I-1.343 J1.344
G1 X143.552
X143.519 Y32.192
X143.492 Y32.171
X143.477 Y32.141
Y32.106
X143.556 Y31.737
X143.587 Y29.595
X143.595 Y29.544
X143.794 Y28.868
G3 X144.161 Y28.878 I0.182 J0.054
G1 X144.179 Y28.95 Z14.193 F1000.
X144.195 Y29.019 Z14.171
X144.211 Y29.083 Z14.136
X144.224 Y29.139 Z14.089
X144.235 Y29.185 Z14.031
X144.243 Y29.219 Z13.965
X144.248 Y29.24 Z13.894
X144.25 Y29.247 Z13.82
Z10.58
X144.252 Y29.254 Z10.506
X144.257 Y29.275 Z10.435
X144.265 Y29.309 Z10.369
X144.276 Y29.355 Z10.311
X144.29 Y29.411 Z10.264
X144.305 Y29.475 Z10.229
X144.322 Y29.544 Z10.207
X144.339 Y29.617 Z10.2
G3 X144.529 Y31.223 I-6.693 J1.607
G1 Y31.272 F3600.
G2 X145.086 Y32.615 I1.9 J0.
G1 X145.107 Y32.648
X145.115 Y32.686
X145.107 Y32.724
X145.086 Y32.756
X145.053 Y32.778
X145.015 Y32.786
X144.977 Y32.778
X144.944 Y32.756
G2 X143.601 Y32.2 I-1.343 J1.344
G1 X143.552
X143.519 Y32.192
X143.492 Y32.171
X143.477 Y32.141
Y32.106
X143.556 Y31.737
X143.587 Y29.595
X143.595 Y29.544
X143.794 Y28.868
G3 X144.161 Y28.878 I0.182 J0.054
G1 X144.179 Y28.95 Z10.193 F1000.
X144.195 Y29.019 Z10.171
X144.211 Y29.083 Z10.136
X144.224 Y29.139 Z10.089
X144.235 Y29.185 Z10.031
X144.243 Y29.219 Z9.965
X144.248 Y29.24 Z9.894
X144.25 Y29.247 Z9.82
Z6.58
X144.252 Y29.254 Z6.506
X144.257 Y29.275 Z6.435
X144.265 Y29.309 Z6.369
X144.276 Y29.355 Z6.311
X144.29 Y29.411 Z6.264
X144.305 Y29.475 Z6.229
X144.322 Y29.544 Z6.207
X144.339 Y29.617 Z6.2
G3 X144.529 Y31.223 I-6.693 J1.607
G1 Y31.272 F3600.
G2 X145.086 Y32.615 I1.9 J0.
G1 X145.107 Y32.648
X145.115 Y32.686
X145.107 Y32.724
X145.086 Y32.756
X145.053 Y32.778
X145.015 Y32.786
X144.977 Y32.778
X144.944 Y32.756
G2 X143.601 Y32.2 I-1.343 J1.344
G1 X143.552
X143.519 Y32.192
X143.492 Y32.171
X143.477 Y32.141
Y32.106
X143.556 Y31.737
X143.587 Y29.595
X143.595 Y29.544
X143.794 Y28.868
G3 X144.161 Y28.878 I0.182 J0.054
G1 X144.179 Y28.95 Z6.193 F1000.
X144.195 Y29.019 Z6.171
X144.211 Y29.083 Z6.136
X144.224 Y29.139 Z6.089
X144.235 Y29.185 Z6.031
X144.243 Y29.219 Z5.965
X144.248 Y29.24 Z5.894
X144.25 Y29.247 Z5.82
Z2.58
X144.252 Y29.254 Z2.506
X144.257 Y29.275 Z2.435
X144.265 Y29.309 Z2.369
X144.276 Y29.355 Z2.311
X144.29 Y29.411 Z2.264
X144.305 Y29.475 Z2.229
X144.322 Y29.544 Z2.207
X144.339 Y29.617 Z2.2
G3 X144.529 Y31.223 I-6.693 J1.607
G1 Y31.272 F3600.
G2 X145.086 Y32.615 I1.9 J0.
G1 X145.107 Y32.648
X145.115 Y32.686
X145.107 Y32.724
X145.086 Y32.756
X145.053 Y32.778
X145.015 Y32.786
X144.977 Y32.778
X144.944 Y32.756
G2 X143.601 Y32.2 I-1.343 J1.344
G1 X143.552
X143.519 Y32.192
X143.492 Y32.171
X143.477 Y32.141
Y32.106
X143.556 Y31.737
X143.587 Y29.595
X143.595 Y29.544
X143.794 Y28.868
G3 X144.161 Y28.878 I0.182 J0.054
G1 X144.179 Y28.95 Z2.193 F1000.
X144.195 Y29.019 Z2.171
X144.211 Y29.083 Z2.136
X144.224 Y29.139 Z2.089
X144.235 Y29.185 Z2.031
X144.243 Y29.219 Z1.965
X144.248 Y29.24 Z1.894
X144.25 Y29.247 Z1.82
Z0.38
X144.252 Y29.254 Z0.306
X144.257 Y29.275 Z0.235
X144.265 Y29.309 Z0.169
X144.276 Y29.355 Z0.111
X144.29 Y29.411 Z0.064
X144.305 Y29.475 Z0.029
X144.322 Y29.544 Z0.007
X144.339 Y29.617 Z0.
G3 X144.529 Y31.223 I-6.693 J1.607
G1 Y31.272 F3600.
G2 X145.086 Y32.615 I1.9 J0.
G1 X145.107 Y32.648
X145.115 Y32.686
X145.107 Y32.724
X145.086 Y32.756
X145.053 Y32.778
X145.015 Y32.786
X144.977 Y32.778
X144.944 Y32.756
G2 X143.601 Y32.2 I-1.343 J1.344
G1 X143.552
X143.493 Y32.195 F1000.
X142.335 Y32.012
X142.262 Y32. Z0.007
X142.191 Y31.989 Z0.029
X142.126 Y31.979 Z0.064
X142.069 Y31.97 Z0.111
X142.023 Y31.962 Z0.169
X141.988 Y31.957 Z0.235
X141.967 Y31.954 Z0.306
X141.959 Y31.952 Z0.38
G0 Z23.2
X143.162 Y18.109
G1 Z14.314 F1000.
X143.165 Y18.104 Z14.279
X143.172 Y18.09 Z14.247
X143.183 Y18.067 Z14.222
X143.198 Y18.039 Z14.206
X143.214 Y18.007 Z14.2
G3 X143.552 Y17.8 I0.339 J0.173
G1 X143.601 F3600.
G2 X144.944 Y17.244 I0. J-1.9
G1 X144.977 Y17.222
X145.015 Y17.214
X145.053 Y17.222
X145.086 Y17.244
X145.107 Y17.276
X145.115 Y17.314
X145.107 Y17.352
X145.086 Y17.385
G2 X144.529 Y18.728 I1.343 J1.344
G1 Y18.777
X144.521 Y18.81
X144.5 Y18.837
X144.47 Y18.852
X144.435
X144.065 Y18.773
X141.924 Y18.742
X141.873 Y18.734
X141.197 Y18.535
G3 X141.207 Y18.168 I0.054 J-0.182
G1 X141.279 Y18.15 Z14.193 F1000.
X141.348 Y18.134 Z14.171
X141.412 Y18.118 Z14.136
X141.468 Y18.105 Z14.089
X141.514 Y18.094 Z14.031
X141.548 Y18.086 Z13.965
X141.569 Y18.081 Z13.894
X141.576 Y18.079 Z13.82
Z10.58
X141.583 Y18.077 Z10.506
X141.604 Y18.072 Z10.435
X141.638 Y18.064 Z10.369
X141.684 Y18.053 Z10.311
X141.74 Y18.039 Z10.264
X141.804 Y18.024 Z10.229
X141.874 Y18.007 Z10.207
X141.946 Y17.99 Z10.2
G3 X143.552 Y17.8 I1.607 J6.693
G1 X143.601 F3600.
G2 X144.944 Y17.244 I0. J-1.9
G1 X144.977 Y17.222
X145.015 Y17.214
X145.053 Y17.222
X145.086 Y17.244
X145.107 Y17.276
X145.115 Y17.314
X145.107 Y17.352
X145.086 Y17.385
G2 X144.529 Y18.728 I1.343 J1.344
G1 Y18.777
X144.521 Y18.81
X144.5 Y18.837
X144.47 Y18.852
X144.435
X144.065 Y18.773
X141.924 Y18.742
X141.873 Y18.734
X141.197 Y18.535
G3 X141.207 Y18.168 I0.054 J-0.182
G1 X141.279 Y18.15 Z10.193 F1000.
X141.348 Y18.134 Z10.171
X141.412 Y18.118 Z10.136
X141.468 Y18.105 Z10.089
X141.514 Y18.094 Z10.031
X141.548 Y18.086 Z9.965
X141.569 Y18.081 Z9.894
X141.576 Y18.079 Z9.82
Z6.58
X141.583 Y18.077 Z6.506
X141.604 Y18.072 Z6.435
X141.638 Y18.064 Z6.369
X141.684 Y18.053 Z6.311
X141.74 Y18.039 Z6.264
X141.804 Y18.024 Z6.229
X141.874 Y18.007 Z6.207
X141.946 Y17.99 Z6.2
G3 X143.552 Y17.8 I1.607 J6.693
G1 X143.601 F3600.
G2 X144.944 Y17.244 I0. J-1.9
G1 X144.977 Y17.222
X145.015 Y17.214
X145.053 Y17.222
X145.086 Y17.244
X145.107 Y17.276
X145.115 Y17.314
X145.107 Y17.352
X145.086 Y17.385
G2 X144.529 Y18.728 I1.343 J1.344
G1 Y18.777
X144.521 Y18.81
X144.5 Y18.837
X144.47 Y18.852
X144.435
X144.065 Y18.773
X141.924 Y18.742
X141.873 Y18.734
X141.197 Y18.535
G3 X141.207 Y18.168 I0.054 J-0.182
G1 X141.279 Y18.15 Z6.193 F1000.
X141.348 Y18.134 Z6.171
X141.412 Y18.118 Z6.136
X141.468 Y18.105 Z6.089
X141.514 Y18.094 Z6.031
X141.548 Y18.086 Z5.965
X141.569 Y18.081 Z5.894
X141.576 Y18.079 Z5.82
Z2.58
X141.583 Y18.077 Z2.506
X141.604 Y18.072 Z2.435
X141.638 Y18.064 Z2.369
X141.684 Y18.053 Z2.311
X141.74 Y18.039 Z2.264
X141.804 Y18.024 Z2.229
X141.874 Y18.007 Z2.207
X141.946 Y17.99 Z2.2
G3 X143.552 Y17.8 I1.607 J6.693
G1 X143.601 F3600.
G2 X144.944 Y17.244 I0. J-1.9
G1 X144.977 Y17.222
X145.015 Y17.214
X145.053 Y17.222
X145.086 Y17.244
X145.107 Y17.276
X145.115 Y17.314
X145.107 Y17.352
X145.086 Y17.385
G2 X144.529 Y18.728 I1.343 J1.344
G1 Y18.777
X144.521 Y18.81
X144.5 Y18.837
X144.47 Y18.852
X144.435
X144.065 Y18.773
X141.924 Y18.742
X141.873 Y18.734
X141.197 Y18.535
G3 X141.207 Y18.168 I0.054 J-0.182
G1 X141.279 Y18.15 Z2.193 F1000.
X141.348 Y18.134 Z2.171
X141.412 Y18.118 Z2.136
X141.468 Y18.105 Z2.089
X141.514 Y18.094 Z2.031
X141.548 Y18.086 Z1.965
X141.569 Y18.081 Z1.894
X141.576 Y18.079 Z1.82
Z0.38
X141.583 Y18.077 Z0.306
X141.604 Y18.072 Z0.235
X141.638 Y18.064 Z0.169
X141.684 Y18.053 Z0.111
X141.74 Y18.039 Z0.064
X141.804 Y18.024 Z0.029
X141.874 Y18.007 Z0.007
X141.946 Y17.99 Z0.
G3 X143.552 Y17.8 I1.607 J6.693
G1 X143.601 F3600.
G2 X144.944 Y17.244 I0. J-1.9
G1 X144.977 Y17.222
X145.015 Y17.214
X145.053 Y17.222
X145.086 Y17.244
X145.107 Y17.276
X145.115 Y17.314
X145.107 Y17.352
X145.086 Y17.385
G2 X144.529 Y18.728 I1.343 J1.344
G1 Y18.777
X144.524 Y18.836 F1000.
X144.341 Y19.994
X144.329 Y20.068 Z0.007
X144.318 Y20.138 Z0.029
X144.308 Y20.203 Z0.064
X144.299 Y20.26 Z0.111
X144.291 Y20.306 Z0.169
X144.286 Y20.341 Z0.235
X144.283 Y20.362 Z0.306
X144.281 Y20.37 Z0.38
G0 Z23.2
X133.89 Y19.167
G1 Z14.314 F1000.
X133.885 Y19.164 Z14.279
X133.871 Y19.157 Z14.247
X133.848 Y19.146 Z14.222
X133.82 Y19.131 Z14.206
X133.788 Y19.115 Z14.2
G3 X133.581 Y18.777 I0.173 J-0.339
G1 Y18.728 F3600.
G2 X133.024 Y17.385 I-1.9 J0.
G1 X133.003 Y17.352
X132.995 Y17.314
X133.003 Y17.276
X133.024 Y17.244
X133.057 Y17.222
X133.095 Y17.214
X133.133 Y17.222
X133.166 Y17.244
G2 X134.509 Y17.8 I1.343 J-1.344
G1 X134.558
X134.591 Y17.808
X134.618 Y17.829
X134.633 Y17.859
Y17.894
X134.554 Y18.263
X134.523 Y20.405
X134.515 Y20.456
X134.316 Y21.132
G3 X133.949 Y21.122 I-0.182 J-0.054
G1 X133.931 Y21.05 Z14.193 F1000.
X133.915 Y20.981 Z14.171
X133.899 Y20.917 Z14.136
X133.886 Y20.861 Z14.089
X133.875 Y20.815 Z14.031
X133.867 Y20.781 Z13.965
X133.862 Y20.76 Z13.894
X133.86 Y20.753 Z13.82
Z10.58
X133.858 Y20.746 Z10.506
X133.853 Y20.725 Z10.435
X133.845 Y20.691 Z10.369
X133.834 Y20.645 Z10.311
X133.82 Y20.589 Z10.264
X133.805 Y20.525 Z10.229
X133.788 Y20.456 Z10.207
X133.771 Y20.383 Z10.2
G3 X133.581 Y18.777 I6.693 J-1.607
G1 Y18.728 F3600.
G2 X133.024 Y17.385 I-1.9 J0.
G1 X133.003 Y17.352
X132.995 Y17.314
X133.003 Y17.276
X133.024 Y17.244
X133.057 Y17.222
X133.095 Y17.214
X133.133 Y17.222
X133.166 Y17.244
G2 X134.509 Y17.8 I1.343 J-1.344
G1 X134.558
X134.591 Y17.808
X134.618 Y17.829
X134.633 Y17.859
Y17.894
X134.554 Y18.263
X134.523 Y20.405
X134.515 Y20.456
X134.316 Y21.132
G3 X133.949 Y21.122 I-0.182 J-0.054
G1 X133.931 Y21.05 Z10.193 F1000.
X133.915 Y20.981 Z10.171
X133.899 Y20.917 Z10.136
X133.886 Y20.861 Z10.089
X133.875 Y20.815 Z10.031
X133.867 Y20.781 Z9.965
X133.862 Y20.76 Z9.894
X133.86 Y20.753 Z9.82
Z6.58
X133.858 Y20.746 Z6.506
X133.853 Y20.725 Z6.435
X133.845 Y20.691 Z6.369
X133.834 Y20.645 Z6.311
X133.82 Y20.589 Z6.264
X133.805 Y20.525 Z6.229
X133.788 Y20.456 Z6.207
X133.771 Y20.383 Z6.2
G3 X133.581 Y18.777 I6.693 J-1.607
G1 Y18.728 F3600.
G2 X133.024 Y17.385 I-1.9 J0.
G1 X133.003 Y17.352
X132.995 Y17.314
X133.003 Y17.276
X133.024 Y17.244
X133.057 Y17.222
X133.095 Y17.214
X133.133 Y17.222
X133.166 Y17.244
G2 X134.509 Y17.8 I1.343 J-1.344
G1 X134.558
X134.591 Y17.808
X134.618 Y17.829
X134.633 Y17.859
Y17.894
X134.554 Y18.263
X134.523 Y20.405
X134.515 Y20.456
X134.316 Y21.132
G3 X133.949 Y21.122 I-0.182 J-0.054
G1 X133.931 Y21.05 Z6.193 F1000.
X133.915 Y20.981 Z6.171
X133.899 Y20.917 Z6.136
X133.886 Y20.861 Z6.089
X133.875 Y20.815 Z6.031
X133.867 Y20.781 Z5.965
X133.862 Y20.76 Z5.894
X133.86 Y20.753 Z5.82
Z2.58
X133.858 Y20.746 Z2.506
X133.853 Y20.725 Z2.435
X133.845 Y20.691 Z2.369
X133.834 Y20.645 Z2.311
X133.82 Y20.589 Z2.264
X133.805 Y20.525 Z2.229
X133.788 Y20.456 Z2.207
X133.771 Y20.383 Z2.2
G3 X133.581 Y18.777 I6.693 J-1.607
G1 Y18.728 F3600.
G2 X133.024 Y17.385 I-1.9 J0.
G1 X133.003 Y17.352
X132.995 Y17.314
X133.003 Y17.276
X133.024 Y17.244
X133.057 Y17.222
X133.095 Y17.214
X133.133 Y17.222
X133.166 Y17.244
G2 X134.509 Y17.8 I1.343 J-1.344
G1 X134.558
X134.591 Y17.808
X134.618 Y17.829
X134.633 Y17.859
Y17.894
X134.554 Y18.263
X134.523 Y20.405
X134.515 Y20.456
X134.316 Y21.132
G3 X133.949 Y21.122 I-0.182 J-0.054
G1 X133.931 Y21.05 Z2.193 F1000.
X133.915 Y20.981 Z2.171
X133.899 Y20.917 Z2.136
X133.886 Y20.861 Z2.089
X133.875 Y20.815 Z2.031
X133.867 Y20.781 Z1.965
X133.862 Y20.76 Z1.894
X133.86 Y20.753 Z1.82
Z0.38
X133.858 Y20.746 Z0.306
X133.853 Y20.725 Z0.235
X133.845 Y20.691 Z0.169
X133.834 Y20.645 Z0.111
X133.82 Y20.589 Z0.064
X133.805 Y20.525 Z0.029
X133.788 Y20.456 Z0.007
X133.771 Y20.383 Z0.
G3 X133.581 Y18.777 I6.693 J-1.607
G1 Y18.728 F3600.
G2 X133.024 Y17.385 I-1.9 J0.
G1 X133.003 Y17.352
X132.995 Y17.314
X133.003 Y17.276
X133.024 Y17.244
X133.057 Y17.222
X133.095 Y17.214
X133.133 Y17.222
X133.166 Y17.244
G2 X134.509 Y17.8 I1.343 J-1.344
G1 X134.558
X134.617 Y17.805 F1000.
X135.775 Y17.988
X135.848 Y18. Z0.007
X135.919 Y18.011 Z0.029
X135.984 Y18.021 Z0.064
X136.041 Y18.03 Z0.111
X136.087 Y18.038 Z0.169
X136.122 Y18.043 Z0.235
X136.143 Y18.046 Z0.306
X136.151 Y18.048 Z0.38
G0 Z33.2

(2D CONTOUR4 3)
G0 X293.944 Y105.794
Z33.2
Z23.2
G1 Z22.2 F1200.
Z15.58
X293.936 Z15.506
X293.915 Y105.795 Z15.435
X293.88 Z15.369
X293.832 Z15.311
X293.775 Y105.796 Z15.264
X293.709 Y105.797 Z15.229
X293.638 Z15.207
X293.564 Y105.798 Z15.2
X293.184 Y105.802 F1000.
G3 X292.8 Y105.425 I-0.004 J-0.38
G2 X292.243 Y104.1 I-1.9 J0.019 F3600.
G1 X292.222 Y104.068
X292.214 Y104.03
X292.222 Y103.992
X292.243 Y103.96
X292.276 Y103.938
X292.314 Y103.93
X292.352 Y103.938
X292.384 Y103.96
G2 X293.709 Y104.516 I1.344 J-1.344
G3 X294.086 Y104.9 I-0.004 J0.38 F1000.
G1 X294.082 Y105.28
X294.081 Y105.354 Z15.207
Y105.425 Z15.229
X294.08 Y105.491 Z15.264
X294.079 Y105.548 Z15.311
Y105.596 Z15.369
Y105.631 Z15.435
X294.078 Y105.652 Z15.506
Y105.66 Z15.58
G0 Z23.2
X293.944 Y105.794
G1 Z19.2 F1200.
Z12.58
X293.936 Z12.506
X293.915 Y105.795 Z12.435
X293.88 Z12.369
X293.832 Z12.311
X293.775 Y105.796 Z12.264
X293.709 Y105.797 Z12.229
X293.638 Z12.207
X293.564 Y105.798 Z12.2
X293.184 Y105.802 F1000.
G3 X292.8 Y105.425 I-0.004 J-0.38
G2 X292.243 Y104.1 I-1.9 J0.019 F3600.
G1 X292.222 Y104.068
X292.214 Y104.03
X292.222 Y103.992
X292.243 Y103.96
X292.276 Y103.938
X292.314 Y103.93
X292.352 Y103.938
X292.384 Y103.96
G2 X293.709 Y104.516 I1.344 J-1.344
G3 X294.086 Y104.9 I-0.004 J0.38 F1000.
G1 X294.082 Y105.28
X294.081 Y105.354 Z12.207
Y105.425 Z12.229
X294.08 Y105.491 Z12.264
X294.079 Y105.548 Z12.311
Y105.596 Z12.369
Y105.631 Z12.435
X294.078 Y105.652 Z12.506
Y105.66 Z12.58
G0 Z23.2
X293.944 Y105.794
G1 Z16.2 F1200.
Z9.58
X293.936 Z9.506
X293.915 Y105.795 Z9.435
X293.88 Z9.369
X293.832 Z9.311
X293.775 Y105.796 Z9.264
X293.709 Y105.797 Z9.229
X293.638 Z9.207
X293.564 Y105.798 Z9.2
X293.184 Y105.802 F1000.
G3 X292.8 Y105.425 I-0.004 J-0.38
G2 X292.243 Y104.1 I-1.9 J0.019 F3600.
G1 X292.222 Y104.068
X292.214 Y104.03
X292.222 Y103.992
X292.243 Y103.96
X292.276 Y103.938
X292.314 Y103.93
X292.352 Y103.938
X292.384 Y103.96
G2 X293.709 Y104.516 I1.344 J-1.344
G3 X294.086 Y104.9 I-0.004 J0.38 F1000.
G1 X294.082 Y105.28
X294.081 Y105.354 Z9.207
Y105.425 Z9.229
X294.08 Y105.491 Z9.264
X294.079 Y105.548 Z9.311
Y105.596 Z9.369
Y105.631 Z9.435
X294.078 Y105.652 Z9.506
Y105.66 Z9.58
G0 Z23.2
X293.944 Y105.794
G1 Z13.2 F1200.
Z6.58
X293.936 Z6.506
X293.915 Y105.795 Z6.435
X293.88 Z6.369
X293.832 Z6.311
X293.775 Y105.796 Z6.264
X293.709 Y105.797 Z6.229
X293.638 Z6.207
X293.564 Y105.798 Z6.2
X293.184 Y105.802 F1000.
G3 X292.8 Y105.425 I-0.004 J-0.38
G2 X292.243 Y104.1 I-1.9 J0.019 F3600.
G1 X292.222 Y104.068
X292.214 Y104.03
X292.222 Y103.992
X292.243 Y103.96
X292.276 Y103.938
X292.314 Y103.93
X292.352 Y103.938
X292.384 Y103.96
G2 X293.709 Y104.516 I1.344 J-1.344
G3 X294.086 Y104.9 I-0.004 J0.38 F1000.
G1 X294.082 Y105.28
X294.081 Y105.354 Z6.207
Y105.425 Z6.229
X294.08 Y105.491 Z6.264
X294.079 Y105.548 Z6.311
Y105.596 Z6.369
Y105.631 Z6.435
X294.078 Y105.652 Z6.506
Y105.66 Z6.58
G0 Z23.2
X293.944 Y105.794
G1 Z10.2 F1200.
Z3.58
X293.936 Z3.506
X293.915 Y105.795 Z3.435
X293.88 Z3.369
X293.832 Z3.311
X293.775 Y105.796 Z3.264
X293.709 Y105.797 Z3.229
X293.638 Z3.207
X293.564 Y105.798 Z3.2
X293.184 Y105.802 F1000.
G3 X292.8 Y105.425 I-0.004 J-0.38
G2 X292.243 Y104.1 I-1.9 J0.019 F3600.
G1 X292.222 Y104.068
X292.214 Y104.03
X292.222 Y103.992
X292.243 Y103.96
X292.276 Y103.938
X292.314 Y103.93
X292.352 Y103.938
X292.384 Y103.96
G2 X293.709 Y104.516 I1.344 J-1.344
G3 X294.086 Y104.9 I-0.004 J0.38 F1000.
G1 X294.082 Y105.28
X294.081 Y105.354 Z3.207
Y105.425 Z3.229
X294.08 Y105.491 Z3.264
X294.079 Y105.548 Z3.311
Y105.596 Z3.369
Y105.631 Z3.435
X294.078 Y105.652 Z3.506
Y105.66 Z3.58
G0 Z23.2
X293.944 Y105.794
G1 Z7.2 F1200.
Z1.98
X293.936 Z1.906
X293.915 Y105.795 Z1.835
X293.88 Z1.769
X293.832 Z1.711
X293.775 Y105.796 Z1.664
X293.709 Y105.797 Z1.629
X293.638 Z1.607
X293.564 Y105.798 Z1.6
X293.184 Y105.802 F1000.
G3 X292.8 Y105.425 I-0.004 J-0.38
G2 X292.243 Y104.1 I-1.9 J0.019 F3600.
G1 X292.222 Y104.068
X292.214 Y104.03
X292.222 Y103.992
X292.243 Y103.96
X292.276 Y103.938
X292.314 Y103.93
X292.352 Y103.938
X292.384 Y103.96
G2 X293.709 Y104.516 I1.344 J-1.344
G3 X294.086 Y104.9 I-0.004 J0.38 F1000.
G1 X294.082 Y105.28
X294.081 Y105.354 Z1.607
Y105.425 Z1.629
X294.08 Y105.491 Z1.664
X294.079 Y105.548 Z1.711
Y105.596 Z1.769
Y105.631 Z1.835
X294.078 Y105.652 Z1.906
Y105.66 Z1.98
G0 Z23.2
X293.944 Y105.794
G1 Z5.6 F1200.
Z0.38
X293.936 Z0.306
X293.915 Y105.795 Z0.235
X293.88 Z0.169
X293.832 Z0.111
X293.775 Y105.796 Z0.064
X293.709 Y105.797 Z0.029
X293.638 Z0.007
X293.564 Y105.798 Z0.
X293.184 Y105.802 F1000.
G3 X292.8 Y105.425 I-0.004 J-0.38
G2 X292.243 Y104.1 I-1.9 J0.019 F3600.
G1 X292.222 Y104.068
X292.214 Y104.03
X292.222 Y103.992
X292.243 Y103.96
X292.276 Y103.938
X292.314 Y103.93
X292.352 Y103.938
X292.384 Y103.96
G2 X293.709 Y104.516 I1.344 J-1.344
G3 X294.086 Y104.9 I-0.004 J0.38 F1000.
G1 X294.082 Y105.28
X294.081 Y105.354 Z0.007
Y105.425 Z0.029
X294.08 Y105.491 Z0.064
X294.079 Y105.548 Z0.111
Y105.596 Z0.169
Y105.631 Z0.235
X294.078 Y105.652 Z0.306
Y105.66 Z0.38
G0 Z23.2
Y84.824
G1 Z22.2 F1200.
Z15.58
Y84.831 Z15.506
X294.079 Y84.853 Z15.435
Y84.888 Z15.369
Y84.935 Z15.311
X294.08 Y84.992 Z15.264
X294.081 Y85.058 Z15.229
Y85.129 Z15.207
X294.082 Y85.204 Z15.2
X294.086 Y85.584 F1000.
G3 X293.709 Y85.967 I-0.38 J0.004
G2 X292.385 Y86.524 I0.019 J1.9 F3600.
G1 X292.352 Y86.545
X292.314 Y86.553
X292.276 Y86.545
X292.243 Y86.524
X292.222 Y86.491
X292.214 Y86.453
X292.222 Y86.415
X292.243 Y86.382
G2 X292.8 Y85.058 I-1.343 J-1.344
G3 X293.184 Y84.681 I0.38 J0.004 F1000.
G1 X293.564 Y84.685
X293.638 Y84.686 Z15.207
X293.709 Y84.687 Z15.229
X293.775 Z15.264
X293.832 Y84.688 Z15.311
X293.88 Z15.369
X293.915 Y84.689 Z15.435
X293.936 Z15.506
X293.944 Z15.58
G0 Z23.2
X294.078 Y84.824
G1 Z19.2 F1200.
Z12.58
Y84.831 Z12.506
X294.079 Y84.853 Z12.435
Y84.888 Z12.369
Y84.935 Z12.311
X294.08 Y84.992 Z12.264
X294.081 Y85.058 Z12.229
Y85.129 Z12.207
X294.082 Y85.204 Z12.2
X294.086 Y85.584 F1000.
G3 X293.709 Y85.967 I-0.38 J0.004
G2 X292.385 Y86.524 I0.019 J1.9 F3600.
G1 X292.352 Y86.545
X292.314 Y86.553
X292.276 Y86.545
X292.243 Y86.524
X292.222 Y86.491
X292.214 Y86.453
X292.222 Y86.415
X292.243 Y86.382
G2 X292.8 Y85.058 I-1.343 J-1.344
G3 X293.184 Y84.681 I0.38 J0.004 F1000.
G1 X293.564 Y84.685
X293.638 Y84.686 Z12.207
X293.709 Y84.687 Z12.229
X293.775 Z12.264
X293.832 Y84.688 Z12.311
X293.88 Z12.369
X293.915 Y84.689 Z12.435
X293.936 Z12.506
X293.944 Z12.58
G0 Z23.2
X294.078 Y84.824
G1 Z16.2 F1200.
Z9.58
Y84.831 Z9.506
X294.079 Y84.853 Z9.435
Y84.888 Z9.369
Y84.935 Z9.311
X294.08 Y84.992 Z9.264
X294.081 Y85.058 Z9.229
Y85.129 Z9.207
X294.082 Y85.204 Z9.2
X294.086 Y85.584 F1000.
G3 X293.709 Y85.967 I-0.38 J0.004
G2 X292.385 Y86.524 I0.019 J1.9 F3600.
G1 X292.352 Y86.545
X292.314 Y86.553
X292.276 Y86.545
X292.243 Y86.524
X292.222 Y86.491
X292.214 Y86.453
X292.222 Y86.415
X292.243 Y86.382
G2 X292.8 Y85.058 I-1.343 J-1.344
G3 X293.184 Y84.681 I0.38 J0.004 F1000.
G1 X293.564 Y84.685
X293.638 Y84.686 Z9.207
X293.709 Y84.687 Z9.229
X293.775 Z9.264
X293.832 Y84.688 Z9.311
X293.88 Z9.369
X293.915 Y84.689 Z9.435
X293.936 Z9.506
X293.944 Z9.58
G0 Z23.2
X294.078 Y84.824
G1 Z13.2 F1200.
Z6.58
Y84.831 Z6.506
X294.079 Y84.853 Z6.435
Y84.888 Z6.369
Y84.935 Z6.311
X294.08 Y84.992 Z6.264
X294.081 Y85.058 Z6.229
Y85.129 Z6.207
X294.082 Y85.204 Z6.2
X294.086 Y85.584 F1000.
G3 X293.709 Y85.967 I-0.38 J0.004
G2 X292.385 Y86.524 I0.019 J1.9 F3600.
G1 X292.352 Y86.545
X292.314 Y86.553
X292.276 Y86.545
X292.243 Y86.524
X292.222 Y86.491
X292.214 Y86.453
X292.222 Y86.415
X292.243 Y86.382
G2 X292.8 Y85.058 I-1.343 J-1.344
G3 X293.184 Y84.681 I0.38 J0.004 F1000.
G1 X293.564 Y84.685
X293.638 Y84.686 Z6.207
X293.709 Y84.687 Z6.229
X293.775 Z6.264
X293.832 Y84.688 Z6.311
X293.88 Z6.369
X293.915 Y84.689 Z6.435
X293.936 Z6.506
X293.944 Z6.58
G0 Z23.2
X294.078 Y84.824
G1 Z10.2 F1200.
Z3.58
Y84.831 Z3.506
X294.079 Y84.853 Z3.435
Y84.888 Z3.369
Y84.935 Z3.311
X294.08 Y84.992 Z3.264
X294.081 Y85.058 Z3.229
Y85.129 Z3.207
X294.082 Y85.204 Z3.2
X294.086 Y85.584 F1000.
G3 X293.709 Y85.967 I-0.38 J0.004
G2 X292.385 Y86.524 I0.019 J1.9 F3600.
G1 X292.352 Y86.545
X292.314 Y86.553
X292.276 Y86.545
X292.243 Y86.524
X292.222 Y86.491
X292.214 Y86.453
X292.222 Y86.415
X292.243 Y86.382
G2 X292.8 Y85.058 I-1.343 J-1.344
G3 X293.184 Y84.681 I0.38 J0.004 F1000.
G1 X293.564 Y84.685
X293.638 Y84.686 Z3.207
X293.709 Y84.687 Z3.229
X293.775 Z3.264
X293.832 Y84.688 Z3.311
X293.88 Z3.369
X293.915 Y84.689 Z3.435
X293.936 Z3.506
X293.944 Z3.58
G0 Z23.2
X294.078 Y84.824
G1 Z7.2 F1200.
Z1.98
Y84.831 Z1.906
X294.079 Y84.853 Z1.835
Y84.888 Z1.769
Y84.935 Z1.711
X294.08 Y84.992 Z1.664
X294.081 Y85.058 Z1.629
Y85.129 Z1.607
X294.082 Y85.204 Z1.6
X294.086 Y85.584 F1000.
G3 X293.709 Y85.967 I-0.38 J0.004
G2 X292.385 Y86.524 I0.019 J1.9 F3600.
G1 X292.352 Y86.545
X292.314 Y86.553
X292.276 Y86.545
X292.243 Y86.524
X292.222 Y86.491
X292.214 Y86.453
X292.222 Y86.415
X292.243 Y86.382
G2 X292.8 Y85.058 I-1.343 J-1.344
G3 X293.184 Y84.681 I0.38 J0.004 F1000.
G1 X293.564 Y84.685
X293.638 Y84.686 Z1.607
X293.709 Y84.687 Z1.629
X293.775 Z1.664
X293.832 Y84.688 Z1.711
X293.88 Z1.769
X293.915 Y84.689 Z1.835
X293.936 Z1.906
X293.944 Z1.98
G0 Z23.2
X294.078 Y84.824
G1 Z5.6 F1200.
Z0.38
Y84.831 Z0.306
X294.079 Y84.853 Z0.235
Y84.888 Z0.169
Y84.935 Z0.111
X294.08 Y84.992 Z0.064
X294.081 Y85.058 Z0.029
Y85.129 Z0.007
X294.082 Y85.204 Z0.
X294.086 Y85.584 F1000.
G3 X293.709 Y85.967 I-0.38 J0.004
G2 X292.385 Y86.524 I0.019 J1.9 F3600.
G1 X292.352 Y86.545
X292.314 Y86.553
X292.276 Y86.545
X292.243 Y86.524
X292.222 Y86.491
X292.214 Y86.453
X292.222 Y86.415
X292.243 Y86.382
G2 X292.8 Y85.058 I-1.343 J-1.344
G3 X293.184 Y84.681 I0.38 J0.004 F1000.
G1 X293.564 Y84.685
X293.638 Y84.686 Z0.007
X293.709 Y84.687 Z0.029
X293.775 Z0.064
X293.832 Y84.688 Z0.111
X293.88 Z0.169
X293.915 Y84.689 Z0.235
X293.936 Z0.306
X293.944 Z0.38
G0 Z23.2
X6.056
G1 Z22.2 F1200.
Z15.58
X6.064 Z15.506
X6.085 Z15.435
X6.12 Y84.688 Z15.369
X6.168 Z15.311
X6.225 Y84.687 Z15.264
X6.291 Z15.229
X6.362 Y84.686 Z15.207
X6.436 Y84.685 Z15.2
X6.816 Y84.681 F1000.
G3 X7.2 Y85.058 I0.004 J0.38
G2 X7.756 Y86.382 I1.9 J-0.019 F3600.
G1 X7.778 Y86.415
X7.786 Y86.453
X7.778 Y86.491
X7.756 Y86.524
X7.724 Y86.545
X7.686 Y86.553
X7.647 Y86.545
X7.615 Y86.524
G2 X6.29 Y85.967 I-1.343 J1.344
G3 X5.914 Y85.584 I0.004 J-0.38 F1000.
G1 X5.918 Y85.204
X5.919 Y85.129 Z15.207
X5.92 Y85.058 Z15.229
Y84.992 Z15.264
X5.921 Y84.935 Z15.311
Y84.888 Z15.369
X5.922 Y84.852 Z15.435
Y84.831 Z15.506
Y84.824 Z15.58
G0 Z23.2
X6.056 Y84.689
G1 Z19.2 F1200.
Z12.58
X6.064 Z12.506
X6.085 Z12.435
X6.12 Y84.688 Z12.369
X6.168 Z12.311
X6.225 Y84.687 Z12.264
X6.291 Z12.229
X6.362 Y84.686 Z12.207
X6.436 Y84.685 Z12.2
X6.816 Y84.681 F1000.
G3 X7.2 Y85.058 I0.004 J0.38
G2 X7.756 Y86.382 I1.9 J-0.019 F3600.
G1 X7.778 Y86.415
X7.786 Y86.453
X7.778 Y86.491
X7.756 Y86.524
X7.724 Y86.545
X7.686 Y86.553
X7.647 Y86.545
X7.615 Y86.524
G2 X6.29 Y85.967 I-1.343 J1.344
G3 X5.914 Y85.584 I0.004 J-0.38 F1000.
G1 X5.918 Y85.204
X5.919 Y85.129 Z12.207
X5.92 Y85.058 Z12.229
Y84.992 Z12.264
X5.921 Y84.935 Z12.311
Y84.888 Z12.369
X5.922 Y84.852 Z12.435
Y84.831 Z12.506
Y84.824 Z12.58
G0 Z23.2
X6.056 Y84.689
G1 Z16.2 F1200.
Z9.58
X6.064 Z9.506
X6.085 Z9.435
X6.12 Y84.688 Z9.369
X6.168 Z9.311
X6.225 Y84.687 Z9.264
X6.291 Z9.229
X6.362 Y84.686 Z9.207
X6.436 Y84.685 Z9.2
X6.816 Y84.681 F1000.
G3 X7.2 Y85.058 I0.004 J0.38
G2 X7.756 Y86.382 I1.9 J-0.019 F3600.
G1 X7.778 Y86.415
X7.786 Y86.453
X7.778 Y86.491
X7.756 Y86.524
X7.724 Y86.545
X7.686 Y86.553
X7.647 Y86.545
X7.615 Y86.524
G2 X6.29 Y85.967 I-1.343 J1.344
G3 X5.914 Y85.584 I0.004 J-0.38 F1000.
G1 X5.918 Y85.204
X5.919 Y85.129 Z9.207
X5.92 Y85.058 Z9.229
Y84.992 Z9.264
X5.921 Y84.935 Z9.311
Y84.888 Z9.369
X5.922 Y84.852 Z9.435
Y84.831 Z9.506
Y84.824 Z9.58
G0 Z23.2
X6.056 Y84.689
G1 Z13.2 F1200.
Z6.58
X6.064 Z6.506
X6.085 Z6.435
X6.12 Y84.688 Z6.369
X6.168 Z6.311
X6.225 Y84.687 Z6.264
X6.291 Z6.229
X6.362 Y84.686 Z6.207
X6.436 Y84.685 Z6.2
X6.816 Y84.681 F1000.
G3 X7.2 Y85.058 I0.004 J0.38
G2 X7.756 Y86.382 I1.9 J-0.019 F3600.
G1 X7.778 Y86.415
X7.786 Y86.453
X7.778 Y86.491
X7.756 Y86.524
X7.724 Y86.545
X7.686 Y86.553
X7.647 Y86.545
X7.615 Y86.524
G2 X6.29 Y85.967 I-1.343 J1.344
G3 X5.914 Y85.584 I0.004 J-0.38 F1000.
G1 X5.918 Y85.204
X5.919 Y85.129 Z6.207
X5.92 Y85.058 Z6.229
Y84.992 Z6.264
X5.921 Y84.935 Z6.311
Y84.888 Z6.369
X5.922 Y84.852 Z6.435
Y84.831 Z6.506
Y84.824 Z6.58
G0 Z23.2
X6.056 Y84.689
G1 Z10.2 F1200.
Z3.58
X6.064 Z3.506
X6.085 Z3.435
X6.12 Y84.688 Z3.369
X6.168 Z3.311
X6.225 Y84.687 Z3.264
X6.291 Z3.229
X6.362 Y84.686 Z3.207
X6.436 Y84.685 Z3.2
X6.816 Y84.681 F1000.
G3 X7.2 Y85.058 I0.004 J0.38
G2 X7.756 Y86.382 I1.9 J-0.019 F3600.
G1 X7.778 Y86.415
X7.786 Y86.453
X7.778 Y86.491
X7.756 Y86.524
X7.724 Y86.545
X7.686 Y86.553
X7.647 Y86.545
X7.615 Y86.524
G2 X6.29 Y85.967 I-1.343 J1.344
G3 X5.914 Y85.584 I0.004 J-0.38 F1000.
G1 X5.918 Y85.204
X5.919 Y85.129 Z3.207
X5.92 Y85.058 Z3.229
Y84.992 Z3.264
X5.921 Y84.935 Z3.311
Y84.888 Z3.369
X5.922 Y84.852 Z3.435
Y84.831 Z3.506
Y84.824 Z3.58
G0 Z23.2
X6.056 Y84.689
G1 Z7.2 F1200.
Z1.98
X6.064 Z1.906
X6.085 Z1.835
X6.12 Y84.688 Z1.769
X6.168 Z1.711
X6.225 Y84.687 Z1.664
X6.291 Z1.629
X6.362 Y84.686 Z1.607
X6.436 Y84.685 Z1.6
X6.816 Y84.681 F1000.
G3 X7.2 Y85.058 I0.004 J0.38
G2 X7.756 Y86.382 I1.9 J-0.019 F3600.
G1 X7.778 Y86.415
X7.786 Y86.453
X7.778 Y86.491
X7.756 Y86.524
X7.724 Y86.545
X7.686 Y86.553
X7.647 Y86.545
X7.615 Y86.524
G2 X6.29 Y85.967 I-1.343 J1.344
G3 X5.914 Y85.584 I0.004 J-0.38 F1000.
G1 X5.918 Y85.204
X5.919 Y85.129 Z1.607
X5.92 Y85.058 Z1.629
Y84.992 Z1.664
X5.921 Y84.935 Z1.711
Y84.888 Z1.769
