(1001)
(2018-01-30 100MM BRACKET)
(T24  D=4. CR=0. TAPER=118DEG - ZMIN=-2.702 - DRILL)
(T162  D=5.5 CR=0. - ZMIN=0. - FLAT END MILL)
G90 G94 G91.1 G40 G49 G17
G21
G28 G91 Z0.
G90

(DRILL3 3)
M5
M9
T24 M6
S8000 M3
G54
M8
G0 X45. Y28.284
Z33.2
Z23.2
G98 G83 X45. Y28.284 Z-2.702 R23.2 Q4. F800.
X104.598 Y20.
X96.716 Y80.
X156.314 Y71.716
G80
Z33.2
G28 G91 Z0.
G90

(2D CONTOUR4 2)
M5
M9
M1
T162 M6
S12000 M3
G54
M8
G0 X149.885 Y99.793
Z33.2
Z23.2
G1 Z22.2 F1200.
Z15.75
X149.89 Y99.789 Z15.664
X149.904 Y99.774 Z15.58
X149.927 Y99.751 Z15.5
X149.959 Y99.719 Z15.427
X149.999 Y99.68 Z15.361
X150.045 Y99.633 Z15.305
X150.097 Y99.581 Z15.26
X150.154 Y99.525 Z15.227
X150.213 Y99.465 Z15.207
X150.274 Y99.405 Z15.2
X150.663 Y99.016 F1000.
G3 X151.44 I0.389 J0.389
G2 X160.456 Y102.75 I9.016 J-9.016 F3600.
G1 X198.814
G2 X204.064 Y97.5 I0. J-5.25
G1 Y82.5
G2 X198.814 Y77.25 I-5.25 J0.
G1 X179.064
Y0.
G2 X176.314 Y-2.75 I-2.75 J0.
G1 X76.314
G2 X73.564 Y0. I0. J2.75
G1 Y15.858
G2 X77.298 Y24.873 I12.75 J0.
G1 X151.44 Y99.016
G3 Y99.793 I-0.389 J0.389 F1000.
G1 X151.052 Y100.182
X150.991 Y100.243 Z15.207
X150.931 Y100.303 Z15.227
X150.875 Y100.359 Z15.26
X150.823 Y100.411 Z15.305
X150.777 Y100.457 Z15.361
X150.737 Y100.497 Z15.427
X150.705 Y100.529 Z15.5
X150.682 Y100.552 Z15.58
X150.667 Y100.566 Z15.664
X150.663 Y100.571 Z15.75
G0 Z23.2
X51.429 Y0.207
G1 Z22.2 F1200.
Z15.75
X51.424 Y0.211 Z15.664
X51.41 Y0.226 Z15.58
X51.387 Y0.249 Z15.5
X51.355 Y0.281 Z15.427
X51.315 Y0.32 Z15.361
X51.269 Y0.367 Z15.305
X51.217 Y0.419 Z15.26
X51.16 Y0.475 Z15.227
X51.101 Y0.535 Z15.207
X51.04 Y0.595 Z15.2
X50.651 Y0.984 F1000.
G3 X49.873 I-0.389 J-0.389
G2 X40.858 Y-2.75 I-9.016 J9.016 F3600.
G1 X5.
G2 X-2.75 Y5. I0. J7.75
G1 Y15.
G2 X5. Y22.75 I7.75 J0.
G1 X20.
G3 X22.25 Y25. I0. J2.25
G1 Y100.
G2 X25. Y102.75 I2.75 J0.
G1 X125.
G2 X127.75 Y100. I0. J-2.75
G1 Y84.142
G2 X124.016 Y75.127 I-12.75 J0.
G1 X49.873 Y0.984
G3 Y0.207 I0.389 J-0.389 F1000.
G1 X50.262 Y-0.182
X50.323 Y-0.243 Z15.207
X50.383 Y-0.303 Z15.227
X50.439 Y-0.359 Z15.26
X50.491 Y-0.411 Z15.305
X50.537 Y-0.457 Z15.361
X50.577 Y-0.497 Z15.427
X50.609 Y-0.529 Z15.5
X50.632 Y-0.552 Z15.58
X50.646 Y-0.566 Z15.664
X50.651 Y-0.571 Z15.75
G0 Z23.2
X51.429 Y0.207
G1 Z19.2 F1200.
Z12.75
X51.424 Y0.211 Z12.664
X51.41 Y0.226 Z12.58
X51.387 Y0.249 Z12.5
X51.355 Y0.281 Z12.427
X51.315 Y0.32 Z12.361
X51.269 Y0.367 Z12.305
X51.217 Y0.419 Z12.26
X51.16 Y0.475 Z12.227
X51.101 Y0.535 Z12.207
X51.04 Y0.595 Z12.2
X50.651 Y0.984 F1000.
G3 X49.873 I-0.389 J-0.389
G2 X40.858 Y-2.75 I-9.016 J9.016 F3600.
G1 X5.
G2 X-2.75 Y5. I0. J7.75
G1 Y15.
G2 X5. Y22.75 I7.75 J0.
G1 X20.
G3 X22.25 Y25. I0. J2.25
G1 Y100.
G2 X25. Y102.75 I2.75 J0.
G1 X125.
G2 X127.75 Y100. I0. J-2.75
G1 Y84.142
G2 X124.016 Y75.127 I-12.75 J0.
G1 X49.873 Y0.984
G3 Y0.207 I0.389 J-0.389 F1000.
G1 X50.262 Y-0.182
X50.323 Y-0.243 Z12.207
X50.383 Y-0.303 Z12.227
X50.439 Y-0.359 Z12.26
X50.491 Y-0.411 Z12.305
X50.537 Y-0.457 Z12.361
X50.577 Y-0.497 Z12.427
X50.609 Y-0.529 Z12.5
X50.632 Y-0.552 Z12.58
X50.646 Y-0.566 Z12.664
X50.651 Y-0.571 Z12.75
G0 Z23.2
X149.885 Y99.793
G1 Z19.2 F1200.
Z12.75
X149.89 Y99.789 Z12.664
X149.904 Y99.774 Z12.58
X149.927 Y99.751 Z12.5
X149.959 Y99.719 Z12.427
X149.999 Y99.68 Z12.361
X150.045 Y99.633 Z12.305
X150.097 Y99.581 Z12.26
X150.154 Y99.525 Z12.227
X150.213 Y99.465 Z12.207
X150.274 Y99.405 Z12.2
X150.663 Y99.016 F1000.
G3 X151.44 I0.389 J0.389
G2 X160.456 Y102.75 I9.016 J-9.016 F3600.
G1 X198.814
G2 X204.064 Y97.5 I0. J-5.25
G1 Y82.5
G2 X198.814 Y77.25 I-5.25 J0.
G1 X179.064
Y0.
G2 X176.314 Y-2.75 I-2.75 J0.
G1 X76.314
G2 X73.564 Y0. I0. J2.75
G1 Y15.858
G2 X77.298 Y24.873 I12.75 J0.
G1 X151.44 Y99.016
G3 Y99.793 I-0.389 J0.389 F1000.
G1 X151.052 Y100.182
X150.991 Y100.243 Z12.207
X150.931 Y100.303 Z12.227
X150.875 Y100.359 Z12.26
X150.823 Y100.411 Z12.305
X150.777 Y100.457 Z12.361
X150.737 Y100.497 Z12.427
X150.705 Y100.529 Z12.5
X150.682 Y100.552 Z12.58
X150.667 Y100.566 Z12.664
X150.663 Y100.571 Z12.75
G0 Z23.2
X149.885 Y99.793
G1 Z16.2 F1200.
Z9.75
X149.89 Y99.789 Z9.664
X149.904 Y99.774 Z9.58
X149.927 Y99.751 Z9.5
X149.959 Y99.719 Z9.427
X149.999 Y99.68 Z9.361
X150.045 Y99.633 Z9.305
X150.097 Y99.581 Z9.26
X150.154 Y99.525 Z9.227
X150.213 Y99.465 Z9.207
X150.274 Y99.405 Z9.2
X150.663 Y99.016 F1000.
G3 X151.44 I0.389 J0.389
G2 X160.456 Y102.75 I9.016 J-9.016 F3600.
G1 X198.814
G2 X204.064 Y97.5 I0. J-5.25
G1 Y82.5
G2 X198.814 Y77.25 I-5.25 J0.
G1 X179.064
Y0.
G2 X176.314 Y-2.75 I-2.75 J0.
G1 X76.314
G2 X73.564 Y0. I0. J2.75
G1 Y15.858
G2 X77.298 Y24.873 I12.75 J0.
G1 X151.44 Y99.016
G3 Y99.793 I-0.389 J0.389 F1000.
G1 X151.052 Y100.182
X150.991 Y100.243 Z9.207
X150.931 Y100.303 Z9.227
X150.875 Y100.359 Z9.26
X150.823 Y100.411 Z9.305
X150.777 Y100.457 Z9.361
X150.737 Y100.497 Z9.427
X150.705 Y100.529 Z9.5
X150.682 Y100.552 Z9.58
X150.667 Y100.566 Z9.664
X150.663 Y100.571 Z9.75
G0 Z23.2
X51.429 Y0.207
G1 Z16.2 F1200.
Z9.75
X51.424 Y0.211 Z9.664
X51.41 Y0.226 Z9.58
X51.387 Y0.249 Z9.5
X51.355 Y0.281 Z9.427
X51.315 Y0.32 Z9.361
X51.269 Y0.367 Z9.305
X51.217 Y0.419 Z9.26
X51.16 Y0.475 Z9.227
X51.101 Y0.535 Z9.207
X51.04 Y0.595 Z9.2
X50.651 Y0.984 F1000.
G3 X49.873 I-0.389 J-0.389
G2 X40.858 Y-2.75 I-9.016 J9.016 F3600.
G1 X5.
G2 X-2.75 Y5. I0. J7.75
G1 Y15.
G2 X5. Y22.75 I7.75 J0.
G1 X20.
G3 X22.25 Y25. I0. J2.25
G1 Y100.
G2 X25. Y102.75 I2.75 J0.
G1 X125.
G2 X127.75 Y100. I0. J-2.75
G1 Y84.142
G2 X124.016 Y75.127 I-12.75 J0.
G1 X49.873 Y0.984
G3 Y0.207 I0.389 J-0.389 F1000.
G1 X50.262 Y-0.182
X50.323 Y-0.243 Z9.207
X50.383 Y-0.303 Z9.227
X50.439 Y-0.359 Z9.26
X50.491 Y-0.411 Z9.305
X50.537 Y-0.457 Z9.361
X50.577 Y-0.497 Z9.427
X50.609 Y-0.529 Z9.5
X50.632 Y-0.552 Z9.58
X50.646 Y-0.566 Z9.664
X50.651 Y-0.571 Z9.75
G0 Z23.2
X51.429 Y0.207
G1 Z13.2 F1200.
Z6.75
X51.424 Y0.211 Z6.664
X51.41 Y0.226 Z6.58
X51.387 Y0.249 Z6.5
X51.355 Y0.281 Z6.427
X51.315 Y0.32 Z6.361
X51.269 Y0.367 Z6.305
X51.217 Y0.419 Z6.26
X51.16 Y0.475 Z6.227
X51.101 Y0.535 Z6.207
X51.04 Y0.595 Z6.2
X50.651 Y0.984 F1000.
G3 X49.873 I-0.389 J-0.389
G2 X40.858 Y-2.75 I-9.016 J9.016 F3600.
G1 X5.
G2 X-2.75 Y5. I0. J7.75
G1 Y15.
G2 X5. Y22.75 I7.75 J0.
G1 X20.
G3 X22.25 Y25. I0. J2.25
G1 Y100.
G2 X25. Y102.75 I2.75 J0.
G1 X125.
G2 X127.75 Y100. I0. J-2.75
G1 Y84.142
G2 X124.016 Y75.127 I-12.75 J0.
G1 X49.873 Y0.984
G3 Y0.207 I0.389 J-0.389 F1000.
G1 X50.262 Y-0.182
X50.323 Y-0.243 Z6.207
X50.383 Y-0.303 Z6.227
X50.439 Y-0.359 Z6.26
X50.491 Y-0.411 Z6.305
X50.537 Y-0.457 Z6.361
X50.577 Y-0.497 Z6.427
X50.609 Y-0.529 Z6.5
X50.632 Y-0.552 Z6.58
X50.646 Y-0.566 Z6.664
X50.651 Y-0.571 Z6.75
G0 Z23.2
X149.885 Y99.793
G1 Z13.2 F1200.
Z6.75
X149.89 Y99.789 Z6.664
X149.904 Y99.774 Z6.58
X149.927 Y99.751 Z6.5
X149.959 Y99.719 Z6.427
X149.999 Y99.68 Z6.361
X150.045 Y99.633 Z6.305
X150.097 Y99.581 Z6.26
X150.154 Y99.525 Z6.227
X150.213 Y99.465 Z6.207
X150.274 Y99.405 Z6.2
X150.663 Y99.016 F1000.
G3 X151.44 I0.389 J0.389
G2 X160.456 Y102.75 I9.016 J-9.016 F3600.
G1 X198.814
G2 X204.064 Y97.5 I0. J-5.25
G1 Y82.5
G2 X198.814 Y77.25 I-5.25 J0.
G1 X179.064
Y0.
G2 X176.314 Y-2.75 I-2.75 J0.
G1 X76.314
G2 X73.564 Y0. I0. J2.75
G1 Y15.858
G2 X77.298 Y24.873 I12.75 J0.
G1 X151.44 Y99.016
G3 Y99.793 I-0.389 J0.389 F1000.
G1 X151.052 Y100.182
X150.991 Y100.243 Z6.207
X150.931 Y100.303 Z6.227
X150.875 Y100.359 Z6.26
X150.823 Y100.411 Z6.305
X150.777 Y100.457 Z6.361
X150.737 Y100.497 Z6.427
X150.705 Y100.529 Z6.5
X150.682 Y100.552 Z6.58
X150.667 Y100.566 Z6.664
X150.663 Y100.571 Z6.75
G0 Z23.2
X149.885 Y99.793
G1 Z10.2 F1200.
Z3.75
X149.89 Y99.789 Z3.664
X149.904 Y99.774 Z3.58
X149.927 Y99.751 Z3.5
X149.959 Y99.719 Z3.427
X149.999 Y99.68 Z3.361
X150.045 Y99.633 Z3.305
X150.097 Y99.581 Z3.26
X150.154 Y99.525 Z3.227
X150.213 Y99.465 Z3.207
X150.274 Y99.405 Z3.2
X150.663 Y99.016 F1000.
G3 X151.44 I0.389 J0.389
G2 X160.456 Y102.75 I9.016 J-9.016 F3600.
G1 X198.814
G2 X204.064 Y97.5 I0. J-5.25
G1 Y82.5
G2 X198.814 Y77.25 I-5.25 J0.
G1 X179.064
Y0.
G2 X176.314 Y-2.75 I-2.75 J0.
G1 X76.314
G2 X73.564 Y0. I0. J2.75
G1 Y15.858
G2 X77.298 Y24.873 I12.75 J0.
G1 X151.44 Y99.016
G3 Y99.793 I-0.389 J0.389 F1000.
G1 X151.052 Y100.182
X150.991 Y100.243 Z3.207
X150.931 Y100.303 Z3.227
X150.875 Y100.359 Z3.26
X150.823 Y100.411 Z3.305
X150.777 Y100.457 Z3.361
X150.737 Y100.497 Z3.427
X150.705 Y100.529 Z3.5
X150.682 Y100.552 Z3.58
X150.667 Y100.566 Z3.664
X150.663 Y100.571 Z3.75
G0 Z23.2
X51.429 Y0.207
G1 Z10.2 F1200.
Z3.75
X51.424 Y0.211 Z3.664
X51.41 Y0.226 Z3.58
X51.387 Y0.249 Z3.5
X51.355 Y0.281 Z3.427
X51.315 Y0.32 Z3.361
X51.269 Y0.367 Z3.305
X51.217 Y0.419 Z3.26
X51.16 Y0.475 Z3.227
X51.101 Y0.535 Z3.207
X51.04 Y0.595 Z3.2
X50.651 Y0.984 F1000.
G3 X49.873 I-0.389 J-0.389
G2 X40.858 Y-2.75 I-9.016 J9.016 F3600.
G1 X5.
G2 X-2.75 Y5. I0. J7.75
G1 Y15.
G2 X5. Y22.75 I7.75 J0.
G1 X20.
G3 X22.25 Y25. I0. J2.25
G1 Y100.
G2 X25. Y102.75 I2.75 J0.
G1 X125.
G2 X127.75 Y100. I0. J-2.75
G1 Y84.142
G2 X124.016 Y75.127 I-12.75 J0.
G1 X49.873 Y0.984
G3 Y0.207 I0.389 J-0.389 F1000.
G1 X50.262 Y-0.182
X50.323 Y-0.243 Z3.207
X50.383 Y-0.303 Z3.227
X50.439 Y-0.359 Z3.26
X50.491 Y-0.411 Z3.305
X50.537 Y-0.457 Z3.361
X50.577 Y-0.497 Z3.427
X50.609 Y-0.529 Z3.5
X50.632 Y-0.552 Z3.58
X50.646 Y-0.566 Z3.664
X50.651 Y-0.571 Z3.75
G0 Z23.2
X51.429 Y0.207
G1 Z7.2 F1200.
Z2.15
X51.424 Y0.211 Z2.064
X51.41 Y0.226 Z1.98
X51.387 Y0.249 Z1.9
X51.355 Y0.281 Z1.827
X51.315 Y0.32 Z1.761
X51.269 Y0.367 Z1.705
X51.217 Y0.419 Z1.66
X51.16 Y0.475 Z1.627
X51.101 Y0.535 Z1.607
X51.04 Y0.595 Z1.6
X50.651 Y0.984 F1000.
G3 X49.873 I-0.389 J-0.389
G2 X40.858 Y-2.75 I-9.016 J9.016 F3600.
G1 X5.
G2 X-2.75 Y5. I0. J7.75
G1 Y15.
G2 X5. Y22.75 I7.75 J0.
G1 X20.
G3 X22.25 Y25. I0. J2.25
G1 Y100.
G2 X25. Y102.75 I2.75 J0.
G1 X125.
G2 X127.75 Y100. I0. J-2.75
G1 Y84.142
G2 X124.016 Y75.127 I-12.75 J0.
G1 X49.873 Y0.984
G3 Y0.207 I0.389 J-0.389 F1000.
G1 X50.262 Y-0.182
X50.323 Y-0.243 Z1.607
X50.383 Y-0.303 Z1.627
X50.439 Y-0.359 Z1.66
X50.491 Y-0.411 Z1.705
X50.537 Y-0.457 Z1.761
X50.577 Y-0.497 Z1.827
X50.609 Y-0.529 Z1.9
X50.632 Y-0.552 Z1.98
X50.646 Y-0.566 Z2.064
X50.651 Y-0.571 Z2.15
G0 Z23.2
X149.885 Y99.793
G1 Z7.2 F1200.
Z2.15
X149.89 Y99.789 Z2.064
X149.904 Y99.774 Z1.98
X149.927 Y99.751 Z1.9
X149.959 Y99.719 Z1.827
X149.999 Y99.68 Z1.761
X150.045 Y99.633 Z1.705
X150.097 Y99.581 Z1.66
X150.154 Y99.525 Z1.627
X150.213 Y99.465 Z1.607
X150.274 Y99.405 Z1.6
X150.663 Y99.016 F1000.
G3 X151.44 I0.389 J0.389
G2 X160.456 Y102.75 I9.016 J-9.016 F3600.
G1 X198.814
G2 X204.064 Y97.5 I0. J-5.25
G1 Y82.5
G2 X198.814 Y77.25 I-5.25 J0.
G1 X179.064
Y0.
G2 X176.314 Y-2.75 I-2.75 J0.
G1 X76.314
G2 X73.564 Y0. I0. J2.75
G1 Y15.858
G2 X77.298 Y24.873 I12.75 J0.
G1 X151.44 Y99.016
G3 Y99.793 I-0.389 J0.389 F1000.
G1 X151.052 Y100.182
X150.991 Y100.243 Z1.607
X150.931 Y100.303 Z1.627
X150.875 Y100.359 Z1.66
X150.823 Y100.411 Z1.705
X150.777 Y100.457 Z1.761
X150.737 Y100.497 Z1.827
X150.705 Y100.529 Z1.9
X150.682 Y100.552 Z1.98
X150.667 Y100.566 Z2.064
X150.663 Y100.571 Z2.15
G0 Z23.2
X149.885 Y99.793
G1 Z5.6 F1200.
Z0.55
X149.89 Y99.789 Z0.464
X149.904 Y99.774 Z0.38
X149.927 Y99.751 Z0.3
X149.959 Y99.719 Z0.227
X149.999 Y99.68 Z0.161
X150.045 Y99.633 Z0.105
X150.097 Y99.581 Z0.06
X150.154 Y99.525 Z0.027
X150.213 Y99.465 Z0.007
X150.274 Y99.405 Z0.
X150.663 Y99.016 F1000.
G3 X151.44 I0.389 J0.389
G2 X160.456 Y102.75 I9.016 J-9.016 F3600.
G1 X198.814
G2 X204.064 Y97.5 I0. J-5.25
G1 Y82.5
G2 X198.814 Y77.25 I-5.25 J0.
G1 X179.064
Y0.
G2 X176.314 Y-2.75 I-2.75 J0.
G1 X76.314
G2 X73.564 Y0. I0. J2.75
G1 Y15.858
G2 X77.298 Y24.873 I12.75 J0.
G1 X151.44 Y99.016
G3 Y99.793 I-0.389 J0.389 F1000.
G1 X151.052 Y100.182
X150.991 Y100.243 Z0.007
X150.931 Y100.303 Z0.027
X150.875 Y100.359 Z0.06
X150.823 Y100.411 Z0.105
X150.777 Y100.457 Z0.161
X150.737 Y100.497 Z0.227
X150.705 Y100.529 Z0.3
X150.682 Y100.552 Z0.38
X150.667 Y100.566 Z0.464
X150.663 Y100.571 Z0.55
G0 Z23.2
X51.429 Y0.207
G1 Z5.6 F1200.
Z0.55
X51.424 Y0.211 Z0.464
X51.41 Y0.226 Z0.38
X51.387 Y0.249 Z0.3
X51.355 Y0.281 Z0.227
X51.315 Y0.32 Z0.161
X51.269 Y0.367 Z0.105
X51.217 Y0.419 Z0.06
X51.16 Y0.475 Z0.027
X51.101 Y0.535 Z0.007
X51.04 Y0.595 Z0.
X50.651 Y0.984 F1000.
G3 X49.873 I-0.389 J-0.389
G2 X40.858 Y-2.75 I-9.016 J9.016 F3600.
G1 X5.
G2 X-2.75 Y5. I0. J7.75
G1 Y15.
G2 X5. Y22.75 I7.75 J0.
G1 X20.
G3 X22.25 Y25. I0. J2.25
G1 Y100.
G2 X25. Y102.75 I2.75 J0.
G1 X125.
G2 X127.75 Y100. I0. J-2.75
G1 Y84.142
G2 X124.016 Y75.127 I-12.75 J0.
G1 X49.873 Y0.984
G3 Y0.207 I0.389 J-0.389 F1000.
G1 X50.262 Y-0.182
X50.323 Y-0.243 Z0.007
X50.383 Y-0.303 Z0.027
X50.439 Y-0.359 Z0.06
X50.491 Y-0.411 Z0.105
X50.537 Y-0.457 Z0.161
X50.577 Y-0.497 Z0.227
X50.609 Y-0.529 Z0.3
X50.632 Y-0.552 Z0.38
X50.646 Y-0.566 Z0.464
X50.651 Y-0.571 Z0.55
G0 Z33.2

M9
G28 G91 Z0.
G90
G28 G91 X0. Y0.
G90
M30
