(2019-02-09 WOOD SAW)
(2019-02-09 WOOD SAW)
(T24  D=4. CR=0. TAPER=118DEG - ZMIN=-2.702 - DRILL)
(T42  D=0.1 CR=0. TAPER=45DEG - ZMIN=14.2 - TAPERED MILL)
(T162  D=5.5 CR=0. - ZMIN=0. - FLAT END MILL)
G90 G94 G91.1 G40 G49 G17
G21
G28 G91 Z0.
G90

(DRILL3 3)
M5
M9
T24 M6
S8000 M3
G54
M8
G0 X72.604 Y67.07
Z33.2
Z23.2
G98 G83 X72.604 Y67.07 Z-2.702 R23.2 Q4. F800.
X72.358 Y26.987
X19.781 Y21.471
X20.027 Y61.554
G80
Z33.2
G28 G91 Z0.
G90

(DRILL3 4)
M5
M9
M1
T42 M6
S12000 M3
G54
M8
G0 X72.604 Y67.07
Z33.2
Z23.2
G83 X72.604 Y67.07 Z14.2 R23.2 Q4. F1200.
X20.027 Y61.554
G80
Z33.2
G28 G91 Z0.
G90

(2D CONTOUR4 2)
M5
M9
M1
T162 M6
S12000 M3
G54
M8
G0 X94.232 Y66.466
Z33.2
Z23.2
G1 Z22.2 F1200.
Z15.75
X94.225 Y66.468 Z15.664
X94.205 Y66.472 Z15.58
X94.173 Y66.479 Z15.5
X94.129 Y66.489 Z15.427
X94.074 Y66.501 Z15.361
X94.01 Y66.516 Z15.305
X93.938 Y66.531 Z15.26
X93.861 Y66.549 Z15.227
X93.779 Y66.567 Z15.207
X93.695 Y66.586 Z15.2
X93.158 Y66.705 F1000.
G3 X92.502 Y66.287 I-0.119 J-0.537
G2 X92.018 Y64.644 I-12.446 J2.767 F3600.
G1 X91.482 Y63.189
G2 X84.934 Y56.056 I-11.963 J4.41
G1 X49.612 Y39.487
G2 X34.895 Y37.902 I-9.662 J20.596
G1 X3.278 Y45.108
G2 X-2.272 Y55.345 I1.722 J7.556
G1 X5.614 Y76.735
G2 X12.886 Y81.804 I7.272 J-2.681
G1 X80.055
G2 X92.502 Y66.287 I0. J-12.75
G3 X92.919 Y65.631 I0.537 J-0.119 F1000.
G1 X93.456 Y65.512
X93.54 Y65.493 Z15.207
X93.622 Y65.475 Z15.227
X93.7 Y65.458 Z15.26
X93.772 Y65.442 Z15.305
X93.836 Y65.427 Z15.361
X93.89 Y65.415 Z15.427
X93.934 Y65.406 Z15.5
X93.967 Y65.398 Z15.58
X93.986 Y65.394 Z15.664
X93.993 Y65.393 Z15.75
G0 Z23.2
X92.202 Y26.204
G1 Z22.2 F1200.
Z15.75
X92.196 Y26.203 Z15.664
X92.176 Y26.201 Z15.58
X92.143 Y26.197 Z15.5
X92.098 Y26.192 Z15.427
X92.042 Y26.185 Z15.361
X91.977 Y26.177 Z15.305
X91.904 Y26.169 Z15.26
X91.825 Y26.159 Z15.227
X91.742 Y26.15 Z15.207
X91.656 Y26.139 Z15.2
X91.11 Y26.075 F1000.
G3 X90.628 Y25.464 I0.064 J-0.546
G2 X89.929 Y19.561 I-12.662 J-1.493 F3600.
G1 X89.816 Y19.254
G2 X88.404 Y17.716 I-2.58 J0.952
G1 X49.366 Y-0.596
G2 X34.649 Y-2.181 I-9.662 J20.596
G1 X4.732 Y4.638
G2 X-0.817 Y14.874 I1.722 J7.556
G1 X5.368 Y31.652
G2 X12.639 Y36.721 I7.272 J-2.681
G1 X39.958
X77.966
G2 X90.628 Y25.464 I0. J-12.75
G3 X91.239 Y24.983 I0.546 J0.064 F1000.
G1 X91.785 Y25.047
X91.871 Y25.057 Z15.207
X91.954 Y25.067 Z15.227
X92.033 Y25.076 Z15.26
X92.106 Y25.085 Z15.305
X92.171 Y25.093 Z15.361
X92.227 Y25.099 Z15.427
X92.272 Y25.104 Z15.5
X92.305 Y25.108 Z15.58
X92.325 Y25.111 Z15.664
X92.331 Z15.75
G0 Z23.2
X92.202 Y26.204
G1 Z19.2 F1200.
Z12.75
X92.196 Y26.203 Z12.664
X92.176 Y26.201 Z12.58
X92.143 Y26.197 Z12.5
X92.098 Y26.192 Z12.427
X92.042 Y26.185 Z12.361
X91.977 Y26.177 Z12.305
X91.904 Y26.169 Z12.26
X91.825 Y26.159 Z12.227
X91.742 Y26.15 Z12.207
X91.656 Y26.139 Z12.2
X91.11 Y26.075 F1000.
G3 X90.628 Y25.464 I0.064 J-0.546
G2 X89.929 Y19.561 I-12.662 J-1.493 F3600.
G1 X89.816 Y19.254
G2 X88.404 Y17.716 I-2.58 J0.952
G1 X49.366 Y-0.596
G2 X34.649 Y-2.181 I-9.662 J20.596
G1 X4.732 Y4.638
G2 X-0.817 Y14.874 I1.722 J7.556
G1 X5.368 Y31.652
G2 X12.639 Y36.721 I7.272 J-2.681
G1 X39.958
X77.966
G2 X90.628 Y25.464 I0. J-12.75
G3 X91.239 Y24.983 I0.546 J0.064 F1000.
G1 X91.785 Y25.047
X91.871 Y25.057 Z12.207
X91.954 Y25.067 Z12.227
X92.033 Y25.076 Z12.26
X92.106 Y25.085 Z12.305
X92.171 Y25.093 Z12.361
X92.227 Y25.099 Z12.427
X92.272 Y25.104 Z12.5
X92.305 Y25.108 Z12.58
X92.325 Y25.111 Z12.664
X92.331 Z12.75
G0 Z23.2
X94.232 Y66.466
G1 Z19.2 F1200.
Z12.75
X94.225 Y66.468 Z12.664
X94.205 Y66.472 Z12.58
X94.173 Y66.479 Z12.5
X94.129 Y66.489 Z12.427
X94.074 Y66.501 Z12.361
X94.01 Y66.516 Z12.305
X93.938 Y66.531 Z12.26
X93.861 Y66.549 Z12.227
X93.779 Y66.567 Z12.207
X93.695 Y66.586 Z12.2
X93.158 Y66.705 F1000.
G3 X92.502 Y66.287 I-0.119 J-0.537
G2 X92.018 Y64.644 I-12.446 J2.767 F3600.
G1 X91.482 Y63.189
G2 X84.934 Y56.056 I-11.963 J4.41
G1 X49.612 Y39.487
G2 X34.895 Y37.902 I-9.662 J20.596
G1 X3.278 Y45.108
G2 X-2.272 Y55.345 I1.722 J7.556
G1 X5.614 Y76.735
G2 X12.886 Y81.804 I7.272 J-2.681
G1 X80.055
G2 X92.502 Y66.287 I0. J-12.75
G3 X92.919 Y65.631 I0.537 J-0.119 F1000.
G1 X93.456 Y65.512
X93.54 Y65.493 Z12.207
X93.622 Y65.475 Z12.227
X93.7 Y65.458 Z12.26
X93.772 Y65.442 Z12.305
X93.836 Y65.427 Z12.361
X93.89 Y65.415 Z12.427
X93.934 Y65.406 Z12.5
X93.967 Y65.398 Z12.58
X93.986 Y65.394 Z12.664
X93.993 Y65.393 Z12.75
G0 Z23.2
X94.232 Y66.466
G1 Z16.2 F1200.
Z9.75
X94.225 Y66.468 Z9.664
X94.205 Y66.472 Z9.58
X94.173 Y66.479 Z9.5
X94.129 Y66.489 Z9.427
X94.074 Y66.501 Z9.361
X94.01 Y66.516 Z9.305
X93.938 Y66.531 Z9.26
X93.861 Y66.549 Z9.227
X93.779 Y66.567 Z9.207
X93.695 Y66.586 Z9.2
X93.158 Y66.705 F1000.
G3 X92.502 Y66.287 I-0.119 J-0.537
G2 X92.018 Y64.644 I-12.446 J2.767 F3600.
G1 X91.482 Y63.189
G2 X84.934 Y56.056 I-11.963 J4.41
G1 X49.612 Y39.487
G2 X34.895 Y37.902 I-9.662 J20.596
G1 X3.278 Y45.108
G2 X-2.272 Y55.345 I1.722 J7.556
G1 X5.614 Y76.735
G2 X12.886 Y81.804 I7.272 J-2.681
G1 X80.055
G2 X92.502 Y66.287 I0. J-12.75
G3 X92.919 Y65.631 I0.537 J-0.119 F1000.
G1 X93.456 Y65.512
X93.54 Y65.493 Z9.207
X93.622 Y65.475 Z9.227
X93.7 Y65.458 Z9.26
X93.772 Y65.442 Z9.305
X93.836 Y65.427 Z9.361
X93.89 Y65.415 Z9.427
X93.934 Y65.406 Z9.5
X93.967 Y65.398 Z9.58
X93.986 Y65.394 Z9.664
X93.993 Y65.393 Z9.75
G0 Z23.2
X92.202 Y26.204
G1 Z16.2 F1200.
Z9.75
X92.196 Y26.203 Z9.664
X92.176 Y26.201 Z9.58
X92.143 Y26.197 Z9.5
X92.098 Y26.192 Z9.427
X92.042 Y26.185 Z9.361
X91.977 Y26.177 Z9.305
X91.904 Y26.169 Z9.26
X91.825 Y26.159 Z9.227
X91.742 Y26.15 Z9.207
X91.656 Y26.139 Z9.2
X91.11 Y26.075 F1000.
G3 X90.628 Y25.464 I0.064 J-0.546
G2 X89.929 Y19.561 I-12.662 J-1.493 F3600.
G1 X89.816 Y19.254
G2 X88.404 Y17.716 I-2.58 J0.952
G1 X49.366 Y-0.596
G2 X34.649 Y-2.181 I-9.662 J20.596
G1 X4.732 Y4.638
G2 X-0.817 Y14.874 I1.722 J7.556
G1 X5.368 Y31.652
G2 X12.639 Y36.721 I7.272 J-2.681
G1 X39.958
X77.966
G2 X90.628 Y25.464 I0. J-12.75
G3 X91.239 Y24.983 I0.546 J0.064 F1000.
G1 X91.785 Y25.047
X91.871 Y25.057 Z9.207
X91.954 Y25.067 Z9.227
X92.033 Y25.076 Z9.26
X92.106 Y25.085 Z9.305
X92.171 Y25.093 Z9.361
X92.227 Y25.099 Z9.427
X92.272 Y25.104 Z9.5
X92.305 Y25.108 Z9.58
X92.325 Y25.111 Z9.664
X92.331 Z9.75
G0 Z23.2
X92.202 Y26.204
G1 Z13.2 F1200.
Z6.75
X92.196 Y26.203 Z6.664
X92.176 Y26.201 Z6.58
X92.143 Y26.197 Z6.5
X92.098 Y26.192 Z6.427
X92.042 Y26.185 Z6.361
X91.977 Y26.177 Z6.305
X91.904 Y26.169 Z6.26
X91.825 Y26.159 Z6.227
X91.742 Y26.15 Z6.207
X91.656 Y26.139 Z6.2
X91.11 Y26.075 F1000.
G3 X90.628 Y25.464 I0.064 J-0.546
G2 X89.929 Y19.561 I-12.662 J-1.493 F3600.
G1 X89.816 Y19.254
G2 X88.404 Y17.716 I-2.58 J0.952
G1 X49.366 Y-0.596
G2 X34.649 Y-2.181 I-9.662 J20.596
G1 X4.732 Y4.638
G2 X-0.817 Y14.874 I1.722 J7.556
G1 X5.368 Y31.652
G2 X12.639 Y36.721 I7.272 J-2.681
G1 X39.958
X77.966
G2 X90.628 Y25.464 I0. J-12.75
G3 X91.239 Y24.983 I0.546 J0.064 F1000.
G1 X91.785 Y25.047
X91.871 Y25.057 Z6.207
X91.954 Y25.067 Z6.227
X92.033 Y25.076 Z6.26
X92.106 Y25.085 Z6.305
X92.171 Y25.093 Z6.361
X92.227 Y25.099 Z6.427
X92.272 Y25.104 Z6.5
X92.305 Y25.108 Z6.58
X92.325 Y25.111 Z6.664
X92.331 Z6.75
G0 Z23.2
X94.232 Y66.466
G1 Z13.2 F1200.
Z6.75
X94.225 Y66.468 Z6.664
X94.205 Y66.472 Z6.58
X94.173 Y66.479 Z6.5
X94.129 Y66.489 Z6.427
X94.074 Y66.501 Z6.361
X94.01 Y66.516 Z6.305
X93.938 Y66.531 Z6.26
X93.861 Y66.549 Z6.227
X93.779 Y66.567 Z6.207
X93.695 Y66.586 Z6.2
X93.158 Y66.705 F1000.
G3 X92.502 Y66.287 I-0.119 J-0.537
G2 X92.018 Y64.644 I-12.446 J2.767 F3600.
G1 X91.482 Y63.189
G2 X84.934 Y56.056 I-11.963 J4.41
G1 X49.612 Y39.487
G2 X34.895 Y37.902 I-9.662 J20.596
G1 X3.278 Y45.108
G2 X-2.272 Y55.345 I1.722 J7.556
G1 X5.614 Y76.735
G2 X12.886 Y81.804 I7.272 J-2.681
G1 X80.055
G2 X92.502 Y66.287 I0. J-12.75
G3 X92.919 Y65.631 I0.537 J-0.119 F1000.
G1 X93.456 Y65.512
X93.54 Y65.493 Z6.207
X93.622 Y65.475 Z6.227
X93.7 Y65.458 Z6.26
X93.772 Y65.442 Z6.305
X93.836 Y65.427 Z6.361
X93.89 Y65.415 Z6.427
X93.934 Y65.406 Z6.5
X93.967 Y65.398 Z6.58
X93.986 Y65.394 Z6.664
X93.993 Y65.393 Z6.75
G0 Z23.2
X94.232 Y66.466
G1 Z10.2 F1200.
Z3.75
X94.225 Y66.468 Z3.664
X94.205 Y66.472 Z3.58
X94.173 Y66.479 Z3.5
X94.129 Y66.489 Z3.427
X94.074 Y66.501 Z3.361
X94.01 Y66.516 Z3.305
X93.938 Y66.531 Z3.26
X93.861 Y66.549 Z3.227
X93.779 Y66.567 Z3.207
X93.695 Y66.586 Z3.2
X93.158 Y66.705 F1000.
G3 X92.502 Y66.287 I-0.119 J-0.537
G2 X92.018 Y64.644 I-12.446 J2.767 F3600.
G1 X91.482 Y63.189
G2 X84.934 Y56.056 I-11.963 J4.41
G1 X49.612 Y39.487
G2 X34.895 Y37.902 I-9.662 J20.596
G1 X3.278 Y45.108
G2 X-2.272 Y55.345 I1.722 J7.556
G1 X5.614 Y76.735
G2 X12.886 Y81.804 I7.272 J-2.681
G1 X80.055
G2 X92.502 Y66.287 I0. J-12.75
G3 X92.919 Y65.631 I0.537 J-0.119 F1000.
G1 X93.456 Y65.512
X93.54 Y65.493 Z3.207
X93.622 Y65.475 Z3.227
X93.7 Y65.458 Z3.26
X93.772 Y65.442 Z3.305
X93.836 Y65.427 Z3.361
X93.89 Y65.415 Z3.427
X93.934 Y65.406 Z3.5
X93.967 Y65.398 Z3.58
X93.986 Y65.394 Z3.664
X93.993 Y65.393 Z3.75
G0 Z23.2
X92.202 Y26.204
G1 Z10.2 F1200.
Z3.75
X92.196 Y26.203 Z3.664
X92.176 Y26.201 Z3.58
X92.143 Y26.197 Z3.5
X92.098 Y26.192 Z3.427
X92.042 Y26.185 Z3.361
X91.977 Y26.177 Z3.305
X91.904 Y26.169 Z3.26
X91.825 Y26.159 Z3.227
X91.742 Y26.15 Z3.207
X91.656 Y26.139 Z3.2
X91.11 Y26.075 F1000.
G3 X90.628 Y25.464 I0.064 J-0.546
G2 X89.929 Y19.561 I-12.662 J-1.493 F3600.
G1 X89.816 Y19.254
G2 X88.404 Y17.716 I-2.58 J0.952
G1 X49.366 Y-0.596
G2 X34.649 Y-2.181 I-9.662 J20.596
G1 X4.732 Y4.638
G2 X-0.817 Y14.874 I1.722 J7.556
G1 X5.368 Y31.652
G2 X12.639 Y36.721 I7.272 J-2.681
G1 X39.958
X77.966
G2 X90.628 Y25.464 I0. J-12.75
G3 X91.239 Y24.983 I0.546 J0.064 F1000.
G1 X91.785 Y25.047
X91.871 Y25.057 Z3.207
X91.954 Y25.067 Z3.227
X92.033 Y25.076 Z3.26
X92.106 Y25.085 Z3.305
X92.171 Y25.093 Z3.361
X92.227 Y25.099 Z3.427
X92.272 Y25.104 Z3.5
X92.305 Y25.108 Z3.58
X92.325 Y25.111 Z3.664
X92.331 Z3.75
G0 Z23.2
X92.202 Y26.204
G1 Z7.2 F1200.
Z2.15
X92.196 Y26.203 Z2.064
X92.176 Y26.201 Z1.98
X92.143 Y26.197 Z1.9
X92.098 Y26.192 Z1.827
X92.042 Y26.185 Z1.761
X91.977 Y26.177 Z1.705
X91.904 Y26.169 Z1.66
X91.825 Y26.159 Z1.627
X91.742 Y26.15 Z1.607
X91.656 Y26.139 Z1.6
X91.11 Y26.075 F1000.
G3 X90.628 Y25.464 I0.064 J-0.546
G2 X89.929 Y19.561 I-12.662 J-1.493 F3600.
G1 X89.816 Y19.254
G2 X88.404 Y17.716 I-2.58 J0.952
G1 X49.366 Y-0.596
G2 X34.649 Y-2.181 I-9.662 J20.596
G1 X4.732 Y4.638
G2 X-0.817 Y14.874 I1.722 J7.556
G1 X5.368 Y31.652
G2 X12.639 Y36.721 I7.272 J-2.681
G1 X39.958
X77.966
G2 X90.628 Y25.464 I0. J-12.75
G3 X91.239 Y24.983 I0.546 J0.064 F1000.
G1 X91.785 Y25.047
X91.871 Y25.057 Z1.607
X91.954 Y25.067 Z1.627
X92.033 Y25.076 Z1.66
X92.106 Y25.085 Z1.705
X92.171 Y25.093 Z1.761
X92.227 Y25.099 Z1.827
X92.272 Y25.104 Z1.9
X92.305 Y25.108 Z1.98
X92.325 Y25.111 Z2.064
X92.331 Z2.15
G0 Z23.2
X94.232 Y66.466
G1 Z7.2 F1200.
Z2.15
X94.225 Y66.468 Z2.064
X94.205 Y66.472 Z1.98
X94.173 Y66.479 Z1.9
X94.129 Y66.489 Z1.827
X94.074 Y66.501 Z1.761
X94.01 Y66.516 Z1.705
X93.938 Y66.531 Z1.66
X93.861 Y66.549 Z1.627
X93.779 Y66.567 Z1.607
X93.695 Y66.586 Z1.6
X93.158 Y66.705 F1000.
G3 X92.502 Y66.287 I-0.119 J-0.537
G2 X92.018 Y64.644 I-12.446 J2.767 F3600.
G1 X91.482 Y63.189
G2 X84.934 Y56.056 I-11.963 J4.41
G1 X49.612 Y39.487
G2 X34.895 Y37.902 I-9.662 J20.596
G1 X3.278 Y45.108
G2 X-2.272 Y55.345 I1.722 J7.556
G1 X5.614 Y76.735
G2 X12.886 Y81.804 I7.272 J-2.681
G1 X80.055
G2 X92.502 Y66.287 I0. J-12.75
G3 X92.919 Y65.631 I0.537 J-0.119 F1000.
G1 X93.456 Y65.512
X93.54 Y65.493 Z1.607
X93.622 Y65.475 Z1.627
X93.7 Y65.458 Z1.66
X93.772 Y65.442 Z1.705
X93.836 Y65.427 Z1.761
X93.89 Y65.415 Z1.827
X93.934 Y65.406 Z1.9
X93.967 Y65.398 Z1.98
X93.986 Y65.394 Z2.064
X93.993 Y65.393 Z2.15
G0 Z23.2
X94.232 Y66.466
G1 Z5.6 F1200.
Z0.55
X94.225 Y66.468 Z0.464
X94.205 Y66.472 Z0.38
X94.173 Y66.479 Z0.3
X94.129 Y66.489 Z0.227
X94.074 Y66.501 Z0.161
X94.01 Y66.516 Z0.105
X93.938 Y66.531 Z0.06
X93.861 Y66.549 Z0.027
X93.779 Y66.567 Z0.007
X93.695 Y66.586 Z0.
X93.158 Y66.705 F1000.
G3 X92.502 Y66.287 I-0.119 J-0.537
G2 X92.018 Y64.644 I-12.446 J2.767 F3600.
G1 X91.482 Y63.189
G2 X84.934 Y56.056 I-11.963 J4.41
G1 X49.612 Y39.487
G2 X34.895 Y37.902 I-9.662 J20.596
G1 X3.278 Y45.108
G2 X-2.272 Y55.345 I1.722 J7.556
G1 X5.614 Y76.735
G2 X12.886 Y81.804 I7.272 J-2.681
G1 X80.055
G2 X92.502 Y66.287 I0. J-12.75
G3 X92.919 Y65.631 I0.537 J-0.119 F1000.
G1 X93.456 Y65.512
X93.54 Y65.493 Z0.007
X93.622 Y65.475 Z0.027
X93.7 Y65.458 Z0.06
X93.772 Y65.442 Z0.105
X93.836 Y65.427 Z0.161
X93.89 Y65.415 Z0.227
X93.934 Y65.406 Z0.3
X93.967 Y65.398 Z0.38
X93.986 Y65.394 Z0.464
X93.993 Y65.393 Z0.55
G0 Z23.2
X92.202 Y26.204
G1 Z5.6 F1200.
Z0.55
X92.196 Y26.203 Z0.464
X92.176 Y26.201 Z0.38
X92.143 Y26.197 Z0.3
X92.098 Y26.192 Z0.227
X92.042 Y26.185 Z0.161
X91.977 Y26.177 Z0.105
X91.904 Y26.169 Z0.06
X91.825 Y26.159 Z0.027
X91.742 Y26.15 Z0.007
X91.656 Y26.139 Z0.
X91.11 Y26.075 F1000.
G3 X90.628 Y25.464 I0.064 J-0.546
G2 X89.929 Y19.561 I-12.662 J-1.493 F3600.
G1 X89.816 Y19.254
G2 X88.404 Y17.716 I-2.58 J0.952
G1 X49.366 Y-0.596
G2 X34.649 Y-2.181 I-9.662 J20.596
G1 X4.732 Y4.638
G2 X-0.817 Y14.874 I1.722 J7.556
G1 X5.368 Y31.652
G2 X12.639 Y36.721 I7.272 J-2.681
G1 X39.958
X77.966
G2 X90.628 Y25.464 I0. J-12.75
G3 X91.239 Y24.983 I0.546 J0.064 F1000.
G1 X91.785 Y25.047
X91.871 Y25.057 Z0.007
X91.954 Y25.067 Z0.027
X92.033 Y25.076 Z0.06
X92.106 Y25.085 Z0.105
X92.171 Y25.093 Z0.161
X92.227 Y25.099 Z0.227
X92.272 Y25.104 Z0.3
X92.305 Y25.108 Z0.38
X92.325 Y25.111 Z0.464
X92.331 Z0.55
G0 Z33.2

M9
G28 G91 Z0.
G90
G28 G91 X0. Y0.
G90
M30
