(2018-01-26 6X CHISELS )
(2018-01-26 6X CHISELS )
(T24  D=4. CR=0. TAPER=118DEG - ZMIN=-0.702 - DRILL)
(T142  D=3.8 CR=0. - ZMIN=0. - FLAT END MILL)
(T162  D=5.5 CR=0. - ZMIN=0. - FLAT END MILL)
G90 G94 G91.1 G40 G49 G17
G21
G28 G91 Z0.
G90

(DRILL3 3)
M5
M9
T24 M6
S8000 M3
G54
M8
G0 X9.1 Y71.568
Z33.2
Z23.2
G98 G83 X9.1 Y71.568 Z-0.702 R23.2 Q4. F800.
Y103.436
X290.9
Y71.568
G80
Z33.2
G28 G91 Z0.
G90

(2D POCKET2 2)
M5
M9
M1
T162 M6
S12000 M3
G54
M8
G0 X-7.659 Y85.842
Z33.2
Z23.2
G1 Z14.75 F1000.
G18 G2 X-7.109 Z14.2 I0.55 K0.
G1 X-2.65
X12.229 F3600.
G17 G3 X12.549 Y86.161 I0. J0.319
G1 Y88.366
G3 X12.229 Y88.685 I-0.319 J0.
G1 X-2.64
G3 X-2.915 Y88.41 I0. J-0.275
G1 X-2.919 Y83.216
G3 X-2.644 Y82.941 I0.275 J0.
G1 X15.372
X15.451 Y82.94
X15.45 Y83.019
Y91.508
X15.451 Y91.587
X15.372 Y91.586
X0.
X-2.641
G3 X-2.91 Y91.37 I0. J-0.275
G1 X-4.04 Y86.176
G3 X-3.771 Y85.842 I0.269 J-0.058
G18 G3 X-3.221 Z13.65 I0. K-0.55 F1000.
G1 Z10.75
G2 X-2.671 Z10.2 I0.55 K0.
G1 X-2.65
X12.229 F3600.
G17 G3 X12.549 Y86.161 I0. J0.319
G1 Y88.366
G3 X12.229 Y88.685 I-0.319 J0.
G1 X-2.64
G3 X-2.915 Y88.41 I0. J-0.275
G1 X-2.919 Y83.216
G3 X-2.644 Y82.941 I0.275 J0.
G1 X15.372
X15.451 Y82.94
X15.45 Y83.019
Y91.508
X15.451 Y91.587
X15.372 Y91.586
X0.
X-2.641
G3 X-2.91 Y91.37 I0. J-0.275
G1 X-4.04 Y86.176
G3 X-3.771 Y85.842 I0.269 J-0.058
G18 G3 X-3.221 Z9.65 I0. K-0.55 F1000.
G2 X-2.671 Z9.1 I0.55 K0.
G1 X-2.65
X12.229 F3600.
G17 G3 X12.549 Y86.161 I0. J0.319
G1 Y88.366
G3 X12.229 Y88.685 I-0.319 J0.
G1 X-2.64
G3 X-2.915 Y88.41 I0. J-0.275
G1 X-2.919 Y83.216
G3 X-2.644 Y82.941 I0.275 J0.
G1 X15.372
X15.451 Y82.94
X15.45 Y83.019
Y91.508
X15.451 Y91.587
X15.372 Y91.586
X0.
X-2.641
X-2.727 Y91.58 F1000.
X-5.443 Y91.149
X-5.528 Y91.136 Z9.107
X-5.611 Y91.123 Z9.127
X-5.69 Y91.11 Z9.16
X-5.762 Y91.099 Z9.205
X-5.827 Y91.088 Z9.261
X-5.883 Y91.08 Z9.327
X-5.927 Y91.073 Z9.4
X-5.96 Y91.068 Z9.48
X-5.98 Y91.064 Z9.564
X-5.986 Y91.063 Z9.65
G0 Z33.2
X307.649 Y88.685
Z23.2
G1 Z14.75 F1000.
G18 G3 X307.099 Z14.2 I-0.55 K0.
G1 X302.65
X287.771 F3600.
G17 G3 X287.451 Y88.366 I0. J-0.319
G1 Y86.161
G3 X287.771 Y85.842 I0.319 J0.
G1 X302.64
G3 X302.915 Y86.117 I0. J0.275
G1 X302.919 Y91.311
G3 X302.644 Y91.586 I-0.275 J0.
G1 X284.628
X284.549 Y91.587
X284.55 Y91.508
Y83.019
X284.549 Y82.94
X284.628 Y82.941
X300.
X302.641
G3 X302.91 Y83.157 I0. J0.275
G1 X304.04 Y88.352
G3 X303.771 Y88.685 I-0.269 J0.058
G18 G2 X303.221 Z13.65 I0. K-0.55 F1000.
G1 Z10.75
G3 X302.671 Z10.2 I-0.55 K0.
G1 X302.65
X287.771 F3600.
G17 G3 X287.451 Y88.366 I0. J-0.319
G1 Y86.161
G3 X287.771 Y85.842 I0.319 J0.
G1 X302.64
G3 X302.915 Y86.117 I0. J0.275
G1 X302.919 Y91.311
G3 X302.644 Y91.586 I-0.275 J0.
G1 X284.628
X284.549 Y91.587
X284.55 Y91.508
Y83.019
X284.549 Y82.94
X284.628 Y82.941
X300.
X302.641
G3 X302.91 Y83.157 I0. J0.275
G1 X304.04 Y88.352
G3 X303.771 Y88.685 I-0.269 J0.058
G18 G2 X303.221 Z9.65 I0. K-0.55 F1000.
G3 X302.671 Z9.1 I-0.55 K0.
G1 X302.65
X287.771 F3600.
G17 G3 X287.451 Y88.366 I0. J-0.319
G1 Y86.161
G3 X287.771 Y85.842 I0.319 J0.
G1 X302.64
G3 X302.915 Y86.117 I0. J0.275
G1 X302.919 Y91.311
G3 X302.644 Y91.586 I-0.275 J0.
G1 X284.628
X284.549 Y91.587
X284.55 Y91.508
Y83.019
X284.549 Y82.94
X284.628 Y82.941
X300.
X302.641
X302.727 Y82.948 F1000.
X305.443 Y83.378
X305.528 Y83.391 Z9.107
X305.611 Y83.404 Z9.127
X305.69 Y83.417 Z9.16
X305.762 Y83.428 Z9.205
X305.827 Y83.439 Z9.261
X305.883 Y83.447 Z9.327
X305.927 Y83.454 Z9.4
X305.96 Y83.46 Z9.48
X305.98 Y83.463 Z9.564
X305.986 Y83.464 Z9.65
G0 Z33.2

(2D CONTOUR4 2)
G0 X128.468 Y94.672
Z33.2
Z23.2
G1 Z22.2 F1200.
Z15.75
X128.475 Y94.674 Z15.664
X128.494 Y94.679 Z15.58
X128.526 Y94.686 Z15.5
X128.57 Y94.696 Z15.427
X128.625 Y94.709 Z15.361
X128.689 Y94.724 Z15.305
X128.761 Y94.74 Z15.26
X128.838 Y94.758 Z15.227
X128.92 Y94.777 Z15.207
X129.004 Y94.797 Z15.2
X129.54 Y94.921 F1000.
G3 X129.951 Y95.581 I-0.124 J0.536
G2 X129.75 Y97.334 I7.549 J1.753 F3600.
G1 Y102.097
G2 X130.788 Y105.972 I7.75 J0.
G1 X133.93 Y111.411
G2 X140.641 Y115.286 I6.712 J-3.875
G1 X159.359
G2 X166.07 Y111.411 I0. J-7.75
G1 X169.211 Y105.972
G2 X170.25 Y102.097 I-6.711 J-3.875
G1 Y97.334
G2 X168.035 Y91.91 I-7.75 J0.
G3 X176.965 Y83.162 I4.465 J-4.374
Y91.91 I-4.465 J4.374
G2 X174.75 Y97.334 I5.535 J5.424
G1 Y102.097
G2 X175.788 Y105.972 I7.75 J0.
G1 X178.93 Y111.411
G2 X185.641 Y115.286 I6.712 J-3.875
G1 X204.359
G2 X211.07 Y111.411 I0. J-7.75
G1 X214.211 Y105.972
G2 X215.25 Y102.097 I-6.711 J-3.875
G1 Y97.334
G2 X213.035 Y91.91 I-7.75 J0.
G3 X221.965 Y83.162 I4.465 J-4.374
Y91.91 I-4.465 J4.374
G2 X219.75 Y97.334 I5.535 J5.424
G1 Y102.097
G2 X220.788 Y105.972 I7.75 J0.
G1 X223.93 Y111.411
G2 X230.641 Y115.286 I6.712 J-3.875
G1 X249.359
G2 X256.07 Y111.411 I0. J-7.75
G1 X259.211 Y105.972
G2 X260.25 Y102.097 I-6.711 J-3.875
G1 Y97.334
G2 X258.035 Y91.91 I-7.75 J0.
G3 X266.965 Y83.162 I4.465 J-4.374
Y91.91 I-4.465 J4.374
G2 X264.75 Y97.334 I5.535 J5.424
G1 Y102.097
G2 X265.789 Y105.972 I7.75 J0.
G1 X268.93 Y111.411
G2 X275.641 Y115.286 I6.712 J-3.875
G1 X300.
G2 X302.75 Y112.536 I0. J-2.75
G1 Y62.945
G2 X300. Y60.195 I-2.75 J0.
G1 X0.
G2 X-2.75 Y62.945 I0. J2.75
G1 Y112.536
G2 X0. Y115.286 I2.75 J0.
G1 X24.359
G2 X31.071 Y111.411 I0. J-7.75
G1 X34.212 Y105.972
G2 X35.25 Y102.097 I-6.712 J-3.875
G1 Y97.334
G2 X33.036 Y91.91 I-7.75 J0.
G3 X41.964 Y83.162 I4.464 J-4.374
Y91.91 I-4.464 J4.374
G2 X39.75 Y97.334 I5.536 J5.424
G1 Y102.097
G2 X40.788 Y105.972 I7.75 J0.
G1 X43.929 Y111.411
G2 X50.641 Y115.286 I6.712 J-3.875
G1 X69.359
G2 X76.071 Y111.411 I0. J-7.75
G1 X79.212 Y105.972
G2 X80.25 Y102.097 I-6.712 J-3.875
G1 Y97.334
G2 X78.036 Y91.91 I-7.75 J0.
G3 X86.964 Y83.162 I4.464 J-4.374
Y91.91 I-4.464 J4.374
G2 X84.75 Y97.334 I5.536 J5.424
G1 Y102.097
G2 X85.788 Y105.972 I7.75 J0.
G1 X88.929 Y111.411
G2 X95.641 Y115.286 I6.712 J-3.875
G1 X114.359
G2 X121.07 Y111.411 I0. J-7.75
G1 X124.211 Y105.972
G2 X125.25 Y102.097 I-6.711 J-3.875
G1 Y97.334
G2 X123.035 Y91.91 I-7.75 J0.
G3 X131.965 Y83.162 I4.465 J-4.374
Y91.91 I-4.465 J4.374
G2 X129.951 Y95.581 I5.535 J5.424
G3 X129.291 Y95.993 I-0.536 J-0.124 F1000.
G1 X128.755 Y95.868
X128.671 Y95.849 Z15.207
X128.589 Y95.83 Z15.227
X128.512 Y95.812 Z15.26
X128.44 Y95.795 Z15.305
X128.376 Y95.78 Z15.361
X128.322 Y95.768 Z15.427
X128.278 Y95.757 Z15.5
X128.245 Y95.75 Z15.58
X128.226 Y95.745 Z15.664
X128.219 Y95.744 Z15.75
G0 Z23.2
X128.1 Y96.784
G1 Z19.2 F1200.
Z12.75
G18 G2 X128.65 Z12.2 I0.55 K0.
G1 X129.2 F1000.
G17 G3 X129.75 Y97.334 I0. J0.55
G1 Y102.097 F3600.
G2 X130.788 Y105.972 I7.75 J0.
G1 X133.93 Y111.411
G2 X140.641 Y115.286 I6.712 J-3.875
G1 X159.359
G2 X166.07 Y111.411 I0. J-7.75
G1 X169.211 Y105.972
G2 X170.25 Y102.097 I-6.711 J-3.875
G1 Y97.334
G2 X168.035 Y91.91 I-7.75 J0.
G3 X176.965 Y83.162 I4.465 J-4.374
Y91.91 I-4.465 J4.374
G2 X174.75 Y97.334 I5.535 J5.424
G1 Y102.097
G2 X175.788 Y105.972 I7.75 J0.
G1 X178.93 Y111.411
G2 X185.641 Y115.286 I6.712 J-3.875
G1 X204.359
G2 X211.07 Y111.411 I0. J-7.75
G1 X214.211 Y105.972
G2 X215.25 Y102.097 I-6.711 J-3.875
G1 Y97.334
G2 X213.035 Y91.91 I-7.75 J0.
G3 X221.965 Y83.162 I4.465 J-4.374
Y91.91 I-4.465 J4.374
G2 X219.75 Y97.334 I5.535 J5.424
G1 Y102.097
G2 X220.788 Y105.972 I7.75 J0.
G1 X223.93 Y111.411
G2 X230.641 Y115.286 I6.712 J-3.875
G1 X249.359
G2 X256.07 Y111.411 I0. J-7.75
G1 X259.211 Y105.972
G2 X260.25 Y102.097 I-6.711 J-3.875
G1 Y97.334
G2 X258.035 Y91.91 I-7.75 J0.
G3 X266.965 Y83.162 I4.465 J-4.374
Y91.91 I-4.465 J4.374
G2 X264.75 Y97.334 I5.535 J5.424
G1 Y102.097
G2 X265.789 Y105.972 I7.75 J0.
G1 X268.93 Y111.411
G2 X275.641 Y115.286 I6.712 J-3.875
G1 X300.
G2 X302.75 Y112.536 I0. J-2.75
G1 Y62.945
G2 X300. Y60.195 I-2.75 J0.
G1 X0.
G2 X-2.75 Y62.945 I0. J2.75
G1 Y112.536
G2 X0. Y115.286 I2.75 J0.
G1 X24.359
G2 X31.071 Y111.411 I0. J-7.75
G1 X34.212 Y105.972
G2 X35.25 Y102.097 I-6.712 J-3.875
G1 Y97.334
G2 X33.036 Y91.91 I-7.75 J0.
G3 X41.964 Y83.162 I4.464 J-4.374
Y91.91 I-4.464 J4.374
G2 X39.75 Y97.334 I5.536 J5.424
G1 Y102.097
G2 X40.788 Y105.972 I7.75 J0.
G1 X43.929 Y111.411
G2 X50.641 Y115.286 I6.712 J-3.875
G1 X69.359
G2 X76.071 Y111.411 I0. J-7.75
G1 X79.212 Y105.972
G2 X80.25 Y102.097 I-6.712 J-3.875
G1 Y97.334
G2 X78.036 Y91.91 I-7.75 J0.
G3 X86.964 Y83.162 I4.464 J-4.374
Y91.91 I-4.464 J4.374
G2 X84.75 Y97.334 I5.536 J5.424
G1 Y102.097
G2 X85.788 Y105.972 I7.75 J0.
G1 X88.929 Y111.411
G2 X95.641 Y115.286 I6.712 J-3.875
G1 X114.359
G2 X121.07 Y111.411 I0. J-7.75
G1 X124.211 Y105.972
G2 X125.25 Y102.097 I-6.711 J-3.875
G1 Y97.334
G2 X123.035 Y91.91 I-7.75 J0.
G3 X131.965 Y83.162 I4.465 J-4.374
Y91.91 I-4.465 J4.374
G2 X129.75 Y97.334 I5.535 J5.424
G3 X129.2 Y97.884 I-0.55 J0. F1000.
G1 X128.65
X128.564 Z12.207
X128.48 Z12.227
X128.4 Z12.26
X128.327 Z12.305
X128.261 Z12.361
X128.205 Z12.427
X128.16 Z12.5
X128.127 Z12.58
X128.107 Z12.664
X128.1 Z12.75
G0 Z23.2
Y96.784
G1 Z16.2 F1200.
Z9.75
G18 G2 X128.65 Z9.2 I0.55 K0.
G1 X129.2 F1000.
G17 G3 X129.75 Y97.334 I0. J0.55
G1 Y102.097 F3600.
G2 X130.788 Y105.972 I7.75 J0.
G1 X133.93 Y111.411
G2 X140.641 Y115.286 I6.712 J-3.875
G1 X159.359
G2 X166.07 Y111.411 I0. J-7.75
G1 X169.211 Y105.972
G2 X170.25 Y102.097 I-6.711 J-3.875
G1 Y97.334
G2 X168.035 Y91.91 I-7.75 J0.
G3 X176.965 Y83.162 I4.465 J-4.374
Y91.91 I-4.465 J4.374
G2 X174.75 Y97.334 I5.535 J5.424
G1 Y102.097
G2 X175.788 Y105.972 I7.75 J0.
G1 X178.93 Y111.411
G2 X185.641 Y115.286 I6.712 J-3.875
G1 X204.359
G2 X211.07 Y111.411 I0. J-7.75
G1 X214.211 Y105.972
G2 X215.25 Y102.097 I-6.711 J-3.875
G1 Y97.334
G2 X213.035 Y91.91 I-7.75 J0.
G3 X221.965 Y83.162 I4.465 J-4.374
Y91.91 I-4.465 J4.374
G2 X219.75 Y97.334 I5.535 J5.424
G1 Y102.097
G2 X220.788 Y105.972 I7.75 J0.
G1 X223.93 Y111.411
G2 X230.641 Y115.286 I6.712 J-3.875
G1 X249.359
G2 X256.07 Y111.411 I0. J-7.75
G1 X259.211 Y105.972
G2 X260.25 Y102.097 I-6.711 J-3.875
G1 Y97.334
G2 X258.035 Y91.91 I-7.75 J0.
G3 X266.965 Y83.162 I4.465 J-4.374
Y91.91 I-4.465 J4.374
G2 X264.75 Y97.334 I5.535 J5.424
G1 Y102.097
G2 X265.789 Y105.972 I7.75 J0.
G1 X268.93 Y111.411
G2 X275.641 Y115.286 I6.712 J-3.875
G1 X300.
G2 X302.75 Y112.536 I0. J-2.75
G1 Y62.945
G2 X300. Y60.195 I-2.75 J0.
G1 X0.
G2 X-2.75 Y62.945 I0. J2.75
G1 Y112.536
G2 X0. Y115.286 I2.75 J0.
G1 X24.359
G2 X31.071 Y111.411 I0. J-7.75
G1 X34.212 Y105.972
G2 X35.25 Y102.097 I-6.712 J-3.875
G1 Y97.334
G2 X33.036 Y91.91 I-7.75 J0.
G3 X41.964 Y83.162 I4.464 J-4.374
Y91.91 I-4.464 J4.374
G2 X39.75 Y97.334 I5.536 J5.424
G1 Y102.097
G2 X40.788 Y105.972 I7.75 J0.
G1 X43.929 Y111.411
G2 X50.641 Y115.286 I6.712 J-3.875
G1 X69.359
G2 X76.071 Y111.411 I0. J-7.75
G1 X79.212 Y105.972
G2 X80.25 Y102.097 I-6.712 J-3.875
G1 Y97.334
G2 X78.036 Y91.91 I-7.75 J0.
G3 X86.964 Y83.162 I4.464 J-4.374
Y91.91 I-4.464 J4.374
G2 X84.75 Y97.334 I5.536 J5.424
G1 Y102.097
G2 X85.788 Y105.972 I7.75 J0.
G1 X88.929 Y111.411
G2 X95.641 Y115.286 I6.712 J-3.875
G1 X114.359
G2 X121.07 Y111.411 I0. J-7.75
G1 X124.211 Y105.972
G2 X125.25 Y102.097 I-6.711 J-3.875
G1 Y97.334
G2 X123.035 Y91.91 I-7.75 J0.
G3 X131.965 Y83.162 I4.465 J-4.374
Y91.91 I-4.465 J4.374
G2 X129.75 Y97.334 I5.535 J5.424
G3 X129.2 Y97.884 I-0.55 J0. F1000.
G1 X128.65
X128.564 Z9.207
X128.48 Z9.227
X128.4 Z9.26
X128.327 Z9.305
X128.261 Z9.361
X128.205 Z9.427
X128.16 Z9.5
X128.127 Z9.58
X128.107 Z9.664
X128.1 Z9.75
G0 Z23.2
Y96.784
G1 Z13.2 F1200.
Z6.75
G18 G2 X128.65 Z6.2 I0.55 K0.
G1 X129.2 F1000.
G17 G3 X129.75 Y97.334 I0. J0.55
G1 Y102.097 F3600.
G2 X130.788 Y105.972 I7.75 J0.
G1 X133.93 Y111.411
G2 X140.641 Y115.286 I6.712 J-3.875
G1 X159.359
G2 X166.07 Y111.411 I0. J-7.75
G1 X169.211 Y105.972
G2 X170.25 Y102.097 I-6.711 J-3.875
G1 Y97.334
G2 X168.035 Y91.91 I-7.75 J0.
G3 X176.965 Y83.162 I4.465 J-4.374
Y91.91 I-4.465 J4.374
G2 X174.75 Y97.334 I5.535 J5.424
G1 Y102.097
G2 X175.788 Y105.972 I7.75 J0.
G1 X178.93 Y111.411
G2 X185.641 Y115.286 I6.712 J-3.875
G1 X204.359
G2 X211.07 Y111.411 I0. J-7.75
G1 X214.211 Y105.972
G2 X215.25 Y102.097 I-6.711 J-3.875
G1 Y97.334
G2 X213.035 Y91.91 I-7.75 J0.
G3 X221.965 Y83.162 I4.465 J-4.374
Y91.91 I-4.465 J4.374
G2 X219.75 Y97.334 I5.535 J5.424
G1 Y102.097
G2 X220.788 Y105.972 I7.75 J0.
G1 X223.93 Y111.411
G2 X230.641 Y115.286 I6.712 J-3.875
G1 X249.359
G2 X256.07 Y111.411 I0. J-7.75
G1 X259.211 Y105.972
G2 X260.25 Y102.097 I-6.711 J-3.875
G1 Y97.334
G2 X258.035 Y91.91 I-7.75 J0.
G3 X266.965 Y83.162 I4.465 J-4.374
Y91.91 I-4.465 J4.374
G2 X264.75 Y97.334 I5.535 J5.424
G1 Y102.097
G2 X265.789 Y105.972 I7.75 J0.
G1 X268.93 Y111.411
G2 X275.641 Y115.286 I6.712 J-3.875
G1 X300.
G2 X302.75 Y112.536 I0. J-2.75
G1 Y62.945
G2 X300. Y60.195 I-2.75 J0.
G1 X0.
G2 X-2.75 Y62.945 I0. J2.75
G1 Y112.536
G2 X0. Y115.286 I2.75 J0.
G1 X24.359
G2 X31.071 Y111.411 I0. J-7.75
G1 X34.212 Y105.972
G2 X35.25 Y102.097 I-6.712 J-3.875
G1 Y97.334
G2 X33.036 Y91.91 I-7.75 J0.
G3 X41.964 Y83.162 I4.464 J-4.374
Y91.91 I-4.464 J4.374
G2 X39.75 Y97.334 I5.536 J5.424
G1 Y102.097
G2 X40.788 Y105.972 I7.75 J0.
G1 X43.929 Y111.411
G2 X50.641 Y115.286 I6.712 J-3.875
G1 X69.359
G2 X76.071 Y111.411 I0. J-7.75
G1 X79.212 Y105.972
G2 X80.25 Y102.097 I-6.712 J-3.875
G1 Y97.334
G2 X78.036 Y91.91 I-7.75 J0.
G3 X86.964 Y83.162 I4.464 J-4.374
Y91.91 I-4.464 J4.374
G2 X84.75 Y97.334 I5.536 J5.424
G1 Y102.097
G2 X85.788 Y105.972 I7.75 J0.
G1 X88.929 Y111.411
G2 X95.641 Y115.286 I6.712 J-3.875
G1 X114.359
G2 X121.07 Y111.411 I0. J-7.75
G1 X124.211 Y105.972
G2 X125.25 Y102.097 I-6.711 J-3.875
G1 Y97.334
G2 X123.035 Y91.91 I-7.75 J0.
G3 X131.965 Y83.162 I4.465 J-4.374
Y91.91 I-4.465 J4.374
G2 X129.75 Y97.334 I5.535 J5.424
G3 X129.2 Y97.884 I-0.55 J0. F1000.
G1 X128.65
X128.564 Z6.207
X128.48 Z6.227
X128.4 Z6.26
X128.327 Z6.305
X128.261 Z6.361
X128.205 Z6.427
X128.16 Z6.5
X128.127 Z6.58
X128.107 Z6.664
X128.1 Z6.75
G0 Z23.2
Y96.784
G1 Z10.2 F1200.
Z3.75
G18 G2 X128.65 Z3.2 I0.55 K0.
G1 X129.2 F1000.
G17 G3 X129.75 Y97.334 I0. J0.55
G1 Y102.097 F3600.
G2 X130.788 Y105.972 I7.75 J0.
G1 X133.93 Y111.411
G2 X140.641 Y115.286 I6.712 J-3.875
G1 X159.359
G2 X166.07 Y111.411 I0. J-7.75
G1 X169.211 Y105.972
G2 X170.25 Y102.097 I-6.711 J-3.875
G1 Y97.334
G2 X168.035 Y91.91 I-7.75 J0.
G3 X176.965 Y83.162 I4.465 J-4.374
Y91.91 I-4.465 J4.374
G2 X174.75 Y97.334 I5.535 J5.424
G1 Y102.097
G2 X175.788 Y105.972 I7.75 J0.
G1 X178.93 Y111.411
G2 X185.641 Y115.286 I6.712 J-3.875
G1 X204.359
G2 X211.07 Y111.411 I0. J-7.75
G1 X214.211 Y105.972
G2 X215.25 Y102.097 I-6.711 J-3.875
G1 Y97.334
G2 X213.035 Y91.91 I-7.75 J0.
G3 X221.965 Y83.162 I4.465 J-4.374
Y91.91 I-4.465 J4.374
G2 X219.75 Y97.334 I5.535 J5.424
G1 Y102.097
G2 X220.788 Y105.972 I7.75 J0.
G1 X223.93 Y111.411
G2 X230.641 Y115.286 I6.712 J-3.875
G1 X249.359
G2 X256.07 Y111.411 I0. J-7.75
G1 X259.211 Y105.972
G2 X260.25 Y102.097 I-6.711 J-3.875
G1 Y97.334
G2 X258.035 Y91.91 I-7.75 J0.
G3 X266.965 Y83.162 I4.465 J-4.374
Y91.91 I-4.465 J4.374
G2 X264.75 Y97.334 I5.535 J5.424
G1 Y102.097
G2 X265.789 Y105.972 I7.75 J0.
G1 X268.93 Y111.411
G2 X275.641 Y115.286 I6.712 J-3.875
G1 X300.
G2 X302.75 Y112.536 I0. J-2.75
G1 Y62.945
G2 X300. Y60.195 I-2.75 J0.
G1 X0.
G2 X-2.75 Y62.945 I0. J2.75
G1 Y112.536
G2 X0. Y115.286 I2.75 J0.
G1 X24.359
G2 X31.071 Y111.411 I0. J-7.75
G1 X34.212 Y105.972
G2 X35.25 Y102.097 I-6.712 J-3.875
G1 Y97.334
G2 X33.036 Y91.91 I-7.75 J0.
G3 X41.964 Y83.162 I4.464 J-4.374
Y91.91 I-4.464 J4.374
G2 X39.75 Y97.334 I5.536 J5.424
G1 Y102.097
G2 X40.788 Y105.972 I7.75 J0.
G1 X43.929 Y111.411
G2 X50.641 Y115.286 I6.712 J-3.875
G1 X69.359
G2 X76.071 Y111.411 I0. J-7.75
G1 X79.212 Y105.972
G2 X80.25 Y102.097 I-6.712 J-3.875
G1 Y97.334
G2 X78.036 Y91.91 I-7.75 J0.
G3 X86.964 Y83.162 I4.464 J-4.374
Y91.91 I-4.464 J4.374
G2 X84.75 Y97.334 I5.536 J5.424
G1 Y102.097
G2 X85.788 Y105.972 I7.75 J0.
G1 X88.929 Y111.411
G2 X95.641 Y115.286 I6.712 J-3.875
G1 X114.359
G2 X121.07 Y111.411 I0. J-7.75
G1 X124.211 Y105.972
G2 X125.25 Y102.097 I-6.711 J-3.875
G1 Y97.334
G2 X123.035 Y91.91 I-7.75 J0.
G3 X131.965 Y83.162 I4.465 J-4.374
Y91.91 I-4.465 J4.374
G2 X129.75 Y97.334 I5.535 J5.424
G3 X129.2 Y97.884 I-0.55 J0. F1000.
G1 X128.65
X128.564 Z3.207
X128.48 Z3.227
X128.4 Z3.26
X128.327 Z3.305
X128.261 Z3.361
X128.205 Z3.427
X128.16 Z3.5
X128.127 Z3.58
X128.107 Z3.664
X128.1 Z3.75
G0 Z23.2
Y96.784
G1 Z7.2 F1200.
Z2.15
G18 G2 X128.65 Z1.6 I0.55 K0.
G1 X129.2 F1000.
G17 G3 X129.75 Y97.334 I0. J0.55
G1 Y102.097 F3600.
G2 X130.788 Y105.972 I7.75 J0.
G1 X133.93 Y111.411
G2 X140.641 Y115.286 I6.712 J-3.875
G1 X159.359
G2 X166.07 Y111.411 I0. J-7.75
G1 X169.211 Y105.972
G2 X170.25 Y102.097 I-6.711 J-3.875
G1 Y97.334
G2 X168.035 Y91.91 I-7.75 J0.
G3 X176.965 Y83.162 I4.465 J-4.374
Y91.91 I-4.465 J4.374
G2 X174.75 Y97.334 I5.535 J5.424
G1 Y102.097
G2 X175.788 Y105.972 I7.75 J0.
G1 X178.93 Y111.411
G2 X185.641 Y115.286 I6.712 J-3.875
G1 X204.359
G2 X211.07 Y111.411 I0. J-7.75
G1 X214.211 Y105.972
G2 X215.25 Y102.097 I-6.711 J-3.875
G1 Y97.334
G2 X213.035 Y91.91 I-7.75 J0.
G3 X221.965 Y83.162 I4.465 J-4.374
Y91.91 I-4.465 J4.374
G2 X219.75 Y97.334 I5.535 J5.424
G1 Y102.097
G2 X220.788 Y105.972 I7.75 J0.
G1 X223.93 Y111.411
G2 X230.641 Y115.286 I6.712 J-3.875
G1 X249.359
G2 X256.07 Y111.411 I0. J-7.75
G1 X259.211 Y105.972
G2 X260.25 Y102.097 I-6.711 J-3.875
G1 Y97.334
G2 X258.035 Y91.91 I-7.75 J0.
G3 X266.965 Y83.162 I4.465 J-4.374
Y91.91 I-4.465 J4.374
G2 X264.75 Y97.334 I5.535 J5.424
G1 Y102.097
G2 X265.789 Y105.972 I7.75 J0.
G1 X268.93 Y111.411
G2 X275.641 Y115.286 I6.712 J-3.875
G1 X300.
G2 X302.75 Y112.536 I0. J-2.75
G1 Y62.945
G2 X300. Y60.195 I-2.75 J0.
G1 X0.
G2 X-2.75 Y62.945 I0. J2.75
G1 Y112.536
G2 X0. Y115.286 I2.75 J0.
G1 X24.359
G2 X31.071 Y111.411 I0. J-7.75
G1 X34.212 Y105.972
G2 X35.25 Y102.097 I-6.712 J-3.875
G1 Y97.334
G2 X33.036 Y91.91 I-7.75 J0.
G3 X41.964 Y83.162 I4.464 J-4.374
Y91.91 I-4.464 J4.374
G2 X39.75 Y97.334 I5.536 J5.424
G1 Y102.097
G2 X40.788 Y105.972 I7.75 J0.
G1 X43.929 Y111.411
G2 X50.641 Y115.286 I6.712 J-3.875
G1 X69.359
G2 X76.071 Y111.411 I0. J-7.75
G1 X79.212 Y105.972
G2 X80.25 Y102.097 I-6.712 J-3.875
G1 Y97.334
G2 X78.036 Y91.91 I-7.75 J0.
G3 X86.964 Y83.162 I4.464 J-4.374
Y91.91 I-4.464 J4.374
G2 X84.75 Y97.334 I5.536 J5.424
G1 Y102.097
G2 X85.788 Y105.972 I7.75 J0.
G1 X88.929 Y111.411
G2 X95.641 Y115.286 I6.712 J-3.875
G1 X114.359
G2 X121.07 Y111.411 I0. J-7.75
G1 X124.211 Y105.972
G2 X125.25 Y102.097 I-6.711 J-3.875
G1 Y97.334
G2 X123.035 Y91.91 I-7.75 J0.
G3 X131.965 Y83.162 I4.465 J-4.374
Y91.91 I-4.465 J4.374
G2 X129.75 Y97.334 I5.535 J5.424
G3 X129.2 Y97.884 I-0.55 J0. F1000.
G1 X128.65
X128.564 Z1.607
X128.48 Z1.627
X128.4 Z1.66
X128.327 Z1.705
X128.261 Z1.761
X128.205 Z1.827
X128.16 Z1.9
X128.127 Z1.98
X128.107 Z2.064
X128.1 Z2.15
G0 Z23.2
Y96.784
G1 Z5.6 F1200.
Z0.55
G18 G2 X128.65 Z0. I0.55 K0.
G1 X129.2 F1000.
G17 G3 X129.75 Y97.334 I0. J0.55
G1 Y102.097 F3600.
G2 X130.788 Y105.972 I7.75 J0.
G1 X133.93 Y111.411
G2 X140.641 Y115.286 I6.712 J-3.875
G1 X159.359
G2 X166.07 Y111.411 I0. J-7.75
G1 X169.211 Y105.972
G2 X170.25 Y102.097 I-6.711 J-3.875
G1 Y97.334
G2 X168.035 Y91.91 I-7.75 J0.
G3 X176.965 Y83.162 I4.465 J-4.374
Y91.91 I-4.465 J4.374
G2 X174.75 Y97.334 I5.535 J5.424
G1 Y102.097
G2 X175.788 Y105.972 I7.75 J0.
G1 X178.93 Y111.411
G2 X185.641 Y115.286 I6.712 J-3.875
G1 X204.359
G2 X211.07 Y111.411 I0. J-7.75
G1 X214.211 Y105.972
G2 X215.25 Y102.097 I-6.711 J-3.875
G1 Y97.334
G2 X213.035 Y91.91 I-7.75 J0.
G3 X221.965 Y83.162 I4.465 J-4.374
Y91.91 I-4.465 J4.374
G2 X219.75 Y97.334 I5.535 J5.424
G1 Y102.097
G2 X220.788 Y105.972 I7.75 J0.
G1 X223.93 Y111.411
G2 X230.641 Y115.286 I6.712 J-3.875
G1 X249.359
G2 X256.07 Y111.411 I0. J-7.75
G1 X259.211 Y105.972
G2 X260.25 Y102.097 I-6.711 J-3.875
G1 Y97.334
G2 X258.035 Y91.91 I-7.75 J0.
G3 X266.965 Y83.162 I4.465 J-4.374
Y91.91 I-4.465 J4.374
G2 X264.75 Y97.334 I5.535 J5.424
G1 Y102.097
G2 X265.789 Y105.972 I7.75 J0.
G1 X268.93 Y111.411
G2 X275.641 Y115.286 I6.712 J-3.875
G1 X300.
G2 X302.75 Y112.536 I0. J-2.75
G1 Y62.945
G2 X300. Y60.195 I-2.75 J0.
G1 X0.
G2 X-2.75 Y62.945 I0. J2.75
G1 Y112.536
G2 X0. Y115.286 I2.75 J0.
G1 X24.359
G2 X31.071 Y111.411 I0. J-7.75
G1 X34.212 Y105.972
G2 X35.25 Y102.097 I-6.712 J-3.875
G1 Y97.334
G2 X33.036 Y91.91 I-7.75 J0.
G3 X41.964 Y83.162 I4.464 J-4.374
Y91.91 I-4.464 J4.374
G2 X39.75 Y97.334 I5.536 J5.424
G1 Y102.097
G2 X40.788 Y105.972 I7.75 J0.
G1 X43.929 Y111.411
G2 X50.641 Y115.286 I6.712 J-3.875
G1 X69.359
G2 X76.071 Y111.411 I0. J-7.75
G1 X79.212 Y105.972
G2 X80.25 Y102.097 I-6.712 J-3.875
G1 Y97.334
G2 X78.036 Y91.91 I-7.75 J0.
G3 X86.964 Y83.162 I4.464 J-4.374
Y91.91 I-4.464 J4.374
G2 X84.75 Y97.334 I5.536 J5.424
G1 Y102.097
G2 X85.788 Y105.972 I7.75 J0.
G1 X88.929 Y111.411
G2 X95.641 Y115.286 I6.712 J-3.875
G1 X114.359
G2 X121.07 Y111.411 I0. J-7.75
G1 X124.211 Y105.972
G2 X125.25 Y102.097 I-6.711 J-3.875
G1 Y97.334
G2 X123.035 Y91.91 I-7.75 J0.
G3 X131.965 Y83.162 I4.465 J-4.374
Y91.91 I-4.465 J4.374
G2 X129.75 Y97.334 I5.535 J5.424
G3 X129.2 Y97.884 I-0.55 J0. F1000.
G1 X128.65
X128.564 Z0.007
X128.48 Z0.027
X128.4 Z0.06
X128.327 Z0.105
X128.261 Z0.161
X128.205 Z0.227
X128.16 Z0.3
X128.127 Z0.38
X128.107 Z0.464
X128.1 Z0.55
G0 Z23.2
X141.208 Y51.321
G1 Z22.2 F1200.
Z15.75
X141.205 Y51.315 Z15.664
X141.199 Y51.296 Z15.58
X141.187 Y51.265 Z15.5
X141.172 Y51.222 Z15.427
X141.153 Y51.17 Z15.361
X141.13 Y51.108 Z15.305
X141.105 Y51.039 Z15.26
X141.078 Y50.964 Z15.227
X141.049 Y50.885 Z15.207
X141.02 Y50.804 Z15.2
X140.832 Y50.287 F1000.
G3 X141.162 Y49.583 I0.517 J-0.188
G1 X208.927 Y24.977 F3600.
G2 X217.325 Y12.992 I-4.352 J-11.984
G1 Y0.
G2 X214.575 Y-2.75 I-2.75 J0.
G1 X123.688
G2 X120.942 Y-0.144 I0. J2.75
G1 X120.137 Y15.206
X120.134 Y15.286
X120.055 Y15.281
X113.792 Y14.953
G2 X110.902 Y17.555 I-0.144 J2.746
G1 X110.162 Y31.681
G2 X112.764 Y34.571 I2.746 J0.144
G1 X119.027 Y34.899
X119.106 Y34.902
X119.101 Y34.982
X118.322 Y49.856
G2 X121.068 Y52.75 I2.746 J0.144
G1 X123.158
G2 X141.162 Y49.583 I0. J-52.75
G3 X141.866 Y49.912 I0.188 J0.517 F1000.
G1 X142.054 Y50.429
X142.083 Y50.51 Z15.207
X142.112 Y50.589 Z15.227
X142.139 Y50.664 Z15.26
X142.164 Y50.733 Z15.305
X142.187 Y50.794 Z15.361
X142.206 Y50.847 Z15.427
X142.221 Y50.889 Z15.5
X142.233 Y50.92 Z15.58
X142.239 Y50.939 Z15.664
X142.242 Y50.946 Z15.75
G0 Z23.2
X141.208 Y51.321
G1 Z19.2 F1200.
Z12.75
X141.205 Y51.315 Z12.664
X141.199 Y51.296 Z12.58
X141.187 Y51.265 Z12.5
X141.172 Y51.222 Z12.427
X141.153 Y51.17 Z12.361
X141.13 Y51.108 Z12.305
X141.105 Y51.039 Z12.26
X141.078 Y50.964 Z12.227
X141.049 Y50.885 Z12.207
X141.02 Y50.804 Z12.2
X140.832 Y50.287 F1000.
G3 X141.162 Y49.583 I0.517 J-0.188
G1 X208.927 Y24.977 F3600.
G2 X217.325 Y12.992 I-4.352 J-11.984
G1 Y0.
G2 X214.575 Y-2.75 I-2.75 J0.
G1 X123.688
G2 X120.942 Y-0.144 I0. J2.75
G1 X120.137 Y15.206
X120.134 Y15.286
X120.055 Y15.281
X113.792 Y14.953
G2 X110.902 Y17.555 I-0.144 J2.746
G1 X110.162 Y31.681
G2 X112.764 Y34.571 I2.746 J0.144
G1 X119.027 Y34.899
X119.106 Y34.902
X119.101 Y34.982
X118.322 Y49.856
G2 X121.068 Y52.75 I2.746 J0.144
G1 X123.158
G2 X141.162 Y49.583 I0. J-52.75
G3 X141.866 Y49.912 I0.188 J0.517 F1000.
G1 X142.054 Y50.429
X142.083 Y50.51 Z12.207
X142.112 Y50.589 Z12.227
X142.139 Y50.664 Z12.26
X142.164 Y50.733 Z12.305
X142.187 Y50.794 Z12.361
X142.206 Y50.847 Z12.427
X142.221 Y50.889 Z12.5
X142.233 Y50.92 Z12.58
X142.239 Y50.939 Z12.664
X142.242 Y50.946 Z12.75
G0 Z23.2
X141.208 Y51.321
G1 Z16.2 F1200.
Z9.75
X141.205 Y51.315 Z9.664
X141.199 Y51.296 Z9.58
X141.187 Y51.265 Z9.5
X141.172 Y51.222 Z9.427
X141.153 Y51.17 Z9.361
X141.13 Y51.108 Z9.305
X141.105 Y51.039 Z9.26
X141.078 Y50.964 Z9.227
X141.049 Y50.885 Z9.207
X141.02 Y50.804 Z9.2
X140.832 Y50.287 F1000.
G3 X141.162 Y49.583 I0.517 J-0.188
G1 X208.927 Y24.977 F3600.
G2 X217.325 Y12.992 I-4.352 J-11.984
G1 Y0.
G2 X214.575 Y-2.75 I-2.75 J0.
G1 X123.688
G2 X120.942 Y-0.144 I0. J2.75
G1 X120.137 Y15.206
X120.134 Y15.286
X120.055 Y15.281
X113.792 Y14.953
G2 X110.902 Y17.555 I-0.144 J2.746
G1 X110.162 Y31.681
G2 X112.764 Y34.571 I2.746 J0.144
G1 X119.027 Y34.899
X119.106 Y34.902
X119.101 Y34.982
X118.322 Y49.856
G2 X121.068 Y52.75 I2.746 J0.144
G1 X123.158
G2 X141.162 Y49.583 I0. J-52.75
G3 X141.866 Y49.912 I0.188 J0.517 F1000.
G1 X142.054 Y50.429
X142.083 Y50.51 Z9.207
X142.112 Y50.589 Z9.227
X142.139 Y50.664 Z9.26
X142.164 Y50.733 Z9.305
X142.187 Y50.794 Z9.361
X142.206 Y50.847 Z9.427
X142.221 Y50.889 Z9.5
X142.233 Y50.92 Z9.58
X142.239 Y50.939 Z9.664
X142.242 Y50.946 Z9.75
G0 Z23.2
X141.208 Y51.321
G1 Z13.2 F1200.
Z6.75
X141.205 Y51.315 Z6.664
X141.199 Y51.296 Z6.58
X141.187 Y51.265 Z6.5
X141.172 Y51.222 Z6.427
X141.153 Y51.17 Z6.361
X141.13 Y51.108 Z6.305
X141.105 Y51.039 Z6.26
X141.078 Y50.964 Z6.227
X141.049 Y50.885 Z6.207
X141.02 Y50.804 Z6.2
X140.832 Y50.287 F1000.
G3 X141.162 Y49.583 I0.517 J-0.188
G1 X208.927 Y24.977 F3600.
G2 X217.325 Y12.992 I-4.352 J-11.984
G1 Y0.
G2 X214.575 Y-2.75 I-2.75 J0.
G1 X123.688
G2 X120.942 Y-0.144 I0. J2.75
G1 X120.137 Y15.206
X120.134 Y15.286
X120.055 Y15.281
X113.792 Y14.953
G2 X110.902 Y17.555 I-0.144 J2.746
G1 X110.162 Y31.681
G2 X112.764 Y34.571 I2.746 J0.144
G1 X119.027 Y34.899
X119.106 Y34.902
X119.101 Y34.982
X118.322 Y49.856
G2 X121.068 Y52.75 I2.746 J0.144
G1 X123.158
G2 X141.162 Y49.583 I0. J-52.75
G3 X141.866 Y49.912 I0.188 J0.517 F1000.
G1 X142.054 Y50.429
X142.083 Y50.51 Z6.207
X142.112 Y50.589 Z6.227
X142.139 Y50.664 Z6.26
X142.164 Y50.733 Z6.305
X142.187 Y50.794 Z6.361
X142.206 Y50.847 Z6.427
X142.221 Y50.889 Z6.5
X142.233 Y50.92 Z6.58
X142.239 Y50.939 Z6.664
X142.242 Y50.946 Z6.75
G0 Z23.2
X141.208 Y51.321
G1 Z10.2 F1200.
Z3.75
X141.205 Y51.315 Z3.664
X141.199 Y51.296 Z3.58
X141.187 Y51.265 Z3.5
X141.172 Y51.222 Z3.427
X141.153 Y51.17 Z3.361
X141.13 Y51.108 Z3.305
X141.105 Y51.039 Z3.26
X141.078 Y50.964 Z3.227
X141.049 Y50.885 Z3.207
X141.02 Y50.804 Z3.2
X140.832 Y50.287 F1000.
G3 X141.162 Y49.583 I0.517 J-0.188
G1 X208.927 Y24.977 F3600.
G2 X217.325 Y12.992 I-4.352 J-11.984
G1 Y0.
G2 X214.575 Y-2.75 I-2.75 J0.
G1 X123.688
G2 X120.942 Y-0.144 I0. J2.75
G1 X120.137 Y15.206
X120.134 Y15.286
X120.055 Y15.281
X113.792 Y14.953
G2 X110.902 Y17.555 I-0.144 J2.746
G1 X110.162 Y31.681
G2 X112.764 Y34.571 I2.746 J0.144
G1 X119.027 Y34.899
X119.106 Y34.902
X119.101 Y34.982
X118.322 Y49.856
G2 X121.068 Y52.75 I2.746 J0.144
G1 X123.158
G2 X141.162 Y49.583 I0. J-52.75
G3 X141.866 Y49.912 I0.188 J0.517 F1000.
G1 X142.054 Y50.429
X142.083 Y50.51 Z3.207
X142.112 Y50.589 Z3.227
X142.139 Y50.664 Z3.26
X142.164 Y50.733 Z3.305
X142.187 Y50.794 Z3.361
X142.206 Y50.847 Z3.427
X142.221 Y50.889 Z3.5
X142.233 Y50.92 Z3.58
X142.239 Y50.939 Z3.664
X142.242 Y50.946 Z3.75
G0 Z23.2
X141.208 Y51.321
G1 Z7.2 F1200.
Z2.15
X141.205 Y51.315 Z2.064
X141.199 Y51.296 Z1.98
X141.187 Y51.265 Z1.9
X141.172 Y51.222 Z1.827
X141.153 Y51.17 Z1.761
X141.13 Y51.108 Z1.705
X141.105 Y51.039 Z1.66
X141.078 Y50.964 Z1.627
X141.049 Y50.885 Z1.607
X141.02 Y50.804 Z1.6
X140.832 Y50.287 F1000.
G3 X141.162 Y49.583 I0.517 J-0.188
G1 X168.427 Y39.682 F3600.
Z2.
X178.766 Y35.928
Z1.6 F1200.
X208.927 Y24.977 F3600.
G2 X217.307 Y13.676 I-4.352 J-11.984
G1 Z2.
G2 X217.325 Y12.992 I-12.732 J-0.683
G1 Y2.676
Z1.6 F1200.
Y0. F3600.
G2 X214.575 Y-2.75 I-2.75 J0.
G1 X171.142
Z2.
X160.142
Z1.6 F1200.
X123.688 F3600.
G2 X120.942 Y-0.144 I0. J2.75
G1 X120.137 Y15.206
X120.134 Y15.286
X120.055 Y15.281
X113.792 Y14.953
G2 X110.902 Y17.555 I-0.144 J2.746
G1 X110.804 Y19.424
Z2.
X110.228 Y30.409
Z1.6 F1200.
X110.162 Y31.681 F3600.
G2 X112.764 Y34.571 I2.746 J0.144
G1 X119.027 Y34.899
X119.106 Y34.902
X119.101 Y34.982
X118.322 Y49.856
G2 X121.068 Y52.75 I2.746 J0.144
G1 X123.158
G2 X141.162 Y49.583 I0. J-52.75
G3 X141.866 Y49.912 I0.188 J0.517 F1000.
G1 X142.054 Y50.429
X142.083 Y50.51 Z1.607
X142.112 Y50.589 Z1.627
X142.139 Y50.664 Z1.66
X142.164 Y50.733 Z1.705
X142.187 Y50.794 Z1.761
X142.206 Y50.847 Z1.827
X142.221 Y50.889 Z1.9
X142.233 Y50.92 Z1.98
X142.239 Y50.939 Z2.064
X142.242 Y50.946 Z2.15
G0 Z23.2
X141.208 Y51.321
G1 Z5.6 F1200.
Z0.55
X141.205 Y51.315 Z0.464
X141.199 Y51.296 Z0.38
X141.187 Y51.265 Z0.3
X141.172 Y51.222 Z0.227
X141.153 Y51.17 Z0.161
X141.13 Y51.108 Z0.105
X141.105 Y51.039 Z0.06
X141.078 Y50.964 Z0.027
X141.049 Y50.885 Z0.007
X141.02 Y50.804 Z0.
X140.832 Y50.287 F1000.
G3 X141.162 Y49.583 I0.517 J-0.188
G1 X168.427 Y39.682 F3600.
Z2.
X178.766 Y35.928
Z0. F1200.
X208.927 Y24.977 F3600.
G2 X217.307 Y13.676 I-4.352 J-11.984
G1 Z2.
G2 X217.325 Y12.992 I-12.732 J-0.683
G1 Y2.676
Z0. F1200.
Y0. F3600.
G2 X214.575 Y-2.75 I-2.75 J0.
G1 X171.142
Z2.
X160.142
Z0. F1200.
X123.688 F3600.
G2 X120.942 Y-0.144 I0. J2.75
G1 X120.137 Y15.206
X120.134 Y15.286
X120.055 Y15.281
X113.792 Y14.953
G2 X110.902 Y17.555 I-0.144 J2.746
G1 X110.804 Y19.424
Z2.
X110.228 Y30.409
Z0. F1200.
X110.162 Y31.681 F3600.
G2 X112.764 Y34.571 I2.746 J0.144
G1 X119.027 Y34.899
X119.106 Y34.902
X119.101 Y34.982
X118.322 Y49.856
G2 X121.068 Y52.75 I2.746 J0.144
G1 X123.158
G2 X141.162 Y49.583 I0. J-52.75
G3 X141.866 Y49.912 I0.188 J0.517 F1000.
G1 X142.054 Y50.429
X142.083 Y50.51 Z0.007
X142.112 Y50.589 Z0.027
X142.139 Y50.664 Z0.06
X142.164 Y50.733 Z0.105
X142.187 Y50.794 Z0.161
X142.206 Y50.847 Z0.227
X142.221 Y50.889 Z0.3
X142.233 Y50.92 Z0.38
X142.239 Y50.939 Z0.464
X142.242 Y50.946 Z0.55
G0 Z23.2
X105.831 Y52.167
G1 Z22.2 F1200.
Z15.75
X105.825 Y52.166 Z15.664
X105.805 Y52.161 Z15.58
X105.773 Y52.154 Z15.5
X105.729 Y52.144 Z15.427
X105.674 Y52.131 Z15.361
X105.61 Y52.116 Z15.305
X105.539 Y52.1 Z15.26
X105.461 Y52.082 Z15.227
X105.379 Y52.063 Z15.207
X105.295 Y52.043 Z15.2
X104.76 Y51.92 F1000.
G3 X104.347 Y51.26 I0.124 J-0.536
G2 X104.418 Y50.641 I-2.679 J-0.619 F3600.
G1 Y37.649
G2 X96.02 Y25.664 I-12.75 J0.
G1 X28.255 Y1.058
G2 X10.251 Y-2.109 I-18.004 J49.582
G1 X8.16
G2 X5.414 Y0.785 I0. J2.75
G1 X6.193 Y15.659
X6.199 Y15.739
X6.119 Y15.742
X-0.144 Y16.07
G2 X-2.746 Y18.96 I0.144 J2.746
G1 X-2.006 Y33.086
G2 X0.884 Y35.688 I2.746 J-0.144
G1 X7.147 Y35.36
X7.227 Y35.355
X7.23 Y35.434
X8.034 Y50.785
G2 X10.78 Y53.391 I2.746 J-0.144
G1 X101.668
G2 X104.347 Y51.26 I0. J-2.75
G3 X105.007 Y50.848 I0.536 J0.124 F1000.
G1 X105.543 Y50.972
X105.627 Y50.991 Z15.207
X105.709 Y51.01 Z15.227
X105.786 Y51.028 Z15.26
X105.858 Y51.044 Z15.305
X105.922 Y51.059 Z15.361
X105.977 Y51.072 Z15.427
X106.02 Y51.082 Z15.5
X106.053 Y51.089 Z15.58
X106.072 Y51.094 Z15.664
X106.079 Y51.095 Z15.75
G0 Z23.2
X105.831 Y52.167
G1 Z19.2 F1200.
Z12.75
X105.825 Y52.166 Z12.664
X105.805 Y52.161 Z12.58
X105.773 Y52.154 Z12.5
X105.729 Y52.144 Z12.427
X105.674 Y52.131 Z12.361
X105.61 Y52.116 Z12.305
X105.539 Y52.1 Z12.26
X105.461 Y52.082 Z12.227
X105.379 Y52.063 Z12.207
X105.295 Y52.043 Z12.2
X104.76 Y51.92 F1000.
G3 X104.347 Y51.26 I0.124 J-0.536
G2 X104.418 Y50.641 I-2.679 J-0.619 F3600.
G1 Y37.649
G2 X96.02 Y25.664 I-12.75 J0.
G1 X28.255 Y1.058
G2 X10.251 Y-2.109 I-18.004 J49.582
G1 X8.16
G2 X5.414 Y0.785 I0. J2.75
G1 X6.193 Y15.659
X6.199 Y15.739
X6.119 Y15.742
X-0.144 Y16.07
G2 X-2.746 Y18.96 I0.144 J2.746
G1 X-2.006 Y33.086
G2 X0.884 Y35.688 I2.746 J-0.144
G1 X7.147 Y35.36
X7.227 Y35.355
X7.23 Y35.434
X8.034 Y50.785
G2 X10.78 Y53.391 I2.746 J-0.144
G1 X101.668
G2 X104.347 Y51.26 I0. J-2.75
G3 X105.007 Y50.848 I0.536 J0.124 F1000.
G1 X105.543 Y50.972
X105.627 Y50.991 Z12.207
X105.709 Y51.01 Z12.227
X105.786 Y51.028 Z12.26
X105.858 Y51.044 Z12.305
X105.922 Y51.059 Z12.361
X105.977 Y51.072 Z12.427
X106.02 Y51.082 Z12.5
X106.053 Y51.089 Z12.58
X106.072 Y51.094 Z12.664
X106.079 Y51.095 Z12.75
G0 Z23.2
X105.831 Y52.167
G1 Z16.2 F1200.
Z9.75
X105.825 Y52.166 Z9.664
X105.805 Y52.161 Z9.58
X105.773 Y52.154 Z9.5
X105.729 Y52.144 Z9.427
X105.674 Y52.131 Z9.361
X105.61 Y52.116 Z9.305
X105.539 Y52.1 Z9.26
X105.461 Y52.082 Z9.227
X105.379 Y52.063 Z9.207
X105.295 Y52.043 Z9.2
X104.76 Y51.92 F1000.
G3 X104.347 Y51.26 I0.124 J-0.536
G2 X104.418 Y50.641 I-2.679 J-0.619 F3600.
G1 Y37.649
G2 X96.02 Y25.664 I-12.75 J0.
G1 X28.255 Y1.058
G2 X10.251 Y-2.109 I-18.004 J49.582
G1 X8.16
G2 X5.414 Y0.785 I0. J2.75
G1 X6.193 Y15.659
X6.199 Y15.739
X6.119 Y15.742
X-0.144 Y16.07
G2 X-2.746 Y18.96 I0.144 J2.746
G1 X-2.006 Y33.086
G2 X0.884 Y35.688 I2.746 J-0.144
G1 X7.147 Y35.36
X7.227 Y35.355
X7.23 Y35.434
X8.034 Y50.785
G2 X10.78 Y53.391 I2.746 J-0.144
G1 X101.668
G2 X104.347 Y51.26 I0. J-2.75
G3 X105.007 Y50.848 I0.536 J0.124 F1000.
G1 X105.543 Y50.972
X105.627 Y50.991 Z9.207
X105.709 Y51.01 Z9.227
X105.786 Y51.028 Z9.26
X105.858 Y51.044 Z9.305
X105.922 Y51.059 Z9.361
X105.977 Y51.072 Z9.427
X106.02 Y51.082 Z9.5
X106.053 Y51.089 Z9.58
X106.072 Y51.094 Z9.664
X106.079 Y51.095 Z9.75
G0 Z23.2
X105.831 Y52.167
G1 Z13.2 F1200.
Z6.75
X105.825 Y52.166 Z6.664
X105.805 Y52.161 Z6.58
X105.773 Y52.154 Z6.5
X105.729 Y52.144 Z6.427
X105.674 Y52.131 Z6.361
X105.61 Y52.116 Z6.305
X105.539 Y52.1 Z6.26
X105.461 Y52.082 Z6.227
X105.379 Y52.063 Z6.207
X105.295 Y52.043 Z6.2
X104.76 Y51.92 F1000.
G3 X104.347 Y51.26 I0.124 J-0.536
G2 X104.418 Y50.641 I-2.679 J-0.619 F3600.
G1 Y37.649
G2 X96.02 Y25.664 I-12.75 J0.
G1 X28.255 Y1.058
G2 X10.251 Y-2.109 I-18.004 J49.582
G1 X8.16
G2 X5.414 Y0.785 I0. J2.75
G1 X6.193 Y15.659
X6.199 Y15.739
X6.119 Y15.742
X-0.144 Y16.07
G2 X-2.746 Y18.96 I0.144 J2.746
G1 X-2.006 Y33.086
G2 X0.884 Y35.688 I2.746 J-0.144
G1 X7.147 Y35.36
X7.227 Y35.355
X7.23 Y35.434
X8.034 Y50.785
G2 X10.78 Y53.391 I2.746 J-0.144
G1 X101.668
G2 X104.347 Y51.26 I0. J-2.75
G3 X105.007 Y50.848 I0.536 J0.124 F1000.
G1 X105.543 Y50.972
X105.627 Y50.991 Z6.207
X105.709 Y51.01 Z6.227
X105.786 Y51.028 Z6.26
X105.858 Y51.044 Z6.305
X105.922 Y51.059 Z6.361
X105.977 Y51.072 Z6.427
X106.02 Y51.082 Z6.5
X106.053 Y51.089 Z6.58
X106.072 Y51.094 Z6.664
X106.079 Y51.095 Z6.75
G0 Z23.2
X105.831 Y52.167
G1 Z10.2 F1200.
Z3.75
X105.825 Y52.166 Z3.664
X105.805 Y52.161 Z3.58
X105.773 Y52.154 Z3.5
X105.729 Y52.144 Z3.427
X105.674 Y52.131 Z3.361
X105.61 Y52.116 Z3.305
X105.539 Y52.1 Z3.26
X105.461 Y52.082 Z3.227
X105.379 Y52.063 Z3.207
X105.295 Y52.043 Z3.2
X104.76 Y51.92 F1000.
G3 X104.347 Y51.26 I0.124 J-0.536
G2 X104.418 Y50.641 I-2.679 J-0.619 F3600.
G1 Y37.649
G2 X96.02 Y25.664 I-12.75 J0.
G1 X28.255 Y1.058
G2 X10.251 Y-2.109 I-18.004 J49.582
G1 X8.16
G2 X5.414 Y0.785 I0. J2.75
G1 X6.193 Y15.659
X6.199 Y15.739
X6.119 Y15.742
X-0.144 Y16.07
G2 X-2.746 Y18.96 I0.144 J2.746
G1 X-2.006 Y33.086
G2 X0.884 Y35.688 I2.746 J-0.144
G1 X7.147 Y35.36
X7.227 Y35.355
X7.23 Y35.434
X8.034 Y50.785
G2 X10.78 Y53.391 I2.746 J-0.144
G1 X101.668
G2 X104.347 Y51.26 I0. J-2.75
G3 X105.007 Y50.848 I0.536 J0.124 F1000.
G1 X105.543 Y50.972
X105.627 Y50.991 Z3.207
X105.709 Y51.01 Z3.227
X105.786 Y51.028 Z3.26
X105.858 Y51.044 Z3.305
X105.922 Y51.059 Z3.361
X105.977 Y51.072 Z3.427
X106.02 Y51.082 Z3.5
X106.053 Y51.089 Z3.58
X106.072 Y51.094 Z3.664
X106.079 Y51.095 Z3.75
G0 Z23.2
X105.831 Y52.167
G1 Z7.2 F1200.
Z2.15
X105.825 Y52.166 Z2.064
X105.805 Y52.161 Z1.98
X105.773 Y52.154 Z1.9
X105.729 Y52.144 Z1.827
X105.674 Y52.131 Z1.761
X105.61 Y52.116 Z1.705
X105.539 Y52.1 Z1.66
X105.461 Y52.082 Z1.627
X105.379 Y52.063 Z1.607
X105.295 Y52.043 Z1.6
X104.76 Y51.92 F1000.
G3 X104.347 Y51.26 I0.124 J-0.536
G2 X104.418 Y50.641 I-2.679 J-0.619 F3600.
G1 Y49.468
Z2.
Y38.468
Z1.6 F1200.
Y37.649 F3600.
G2 X96.02 Y25.664 I-12.75 J0.
G1 X60.025 Y12.595
Z2.
X49.686 Y8.84
Z1.6 F1200.
X28.255 Y1.058 F3600.
G2 X10.251 Y-2.109 I-18.004 J49.582
G1 X8.16
G2 X5.414 Y0.785 I0. J2.75
G1 X6.193 Y15.659
X6.199 Y15.739
X6.119 Y15.742
X-0.144 Y16.07
G2 X-2.746 Y18.96 I0.144 J2.746
G1 X-2.699 Y19.863
Z2.
X-2.123 Y30.848
Z1.6 F1200.
X-2.006 Y33.086 F3600.
G2 X0.884 Y35.688 I2.746 J-0.144
G1 X7.147 Y35.36
X7.227 Y35.355
X7.23 Y35.434
X8.034 Y50.785
G2 X10.78 Y53.391 I2.746 J-0.144
G1 X48.095
Z2.
X59.095
Z1.6 F1200.
X101.668 F3600.
G2 X104.347 Y51.26 I0. J-2.75
G3 X105.007 Y50.848 I0.536 J0.124 F1000.
G1 X105.543 Y50.972
X105.627 Y50.991 Z1.607
X105.709 Y51.01 Z1.627
X105.786 Y51.028 Z1.66
X105.858 Y51.044 Z1.705
X105.922 Y51.059 Z1.761
X105.977 Y51.072 Z1.827
X106.02 Y51.082 Z1.9
X106.053 Y51.089 Z1.98
X106.072 Y51.094 Z2.064
X106.079 Y51.095 Z2.15
G0 Z23.2
X105.831 Y52.167
G1 Z5.6 F1200.
Z0.55
X105.825 Y52.166 Z0.464
X105.805 Y52.161 Z0.38
X105.773 Y52.154 Z0.3
X105.729 Y52.144 Z0.227
X105.674 Y52.131 Z0.161
X105.61 Y52.116 Z0.105
X105.539 Y52.1 Z0.06
X105.461 Y52.082 Z0.027
X105.379 Y52.063 Z0.007
X105.295 Y52.043 Z0.
X104.76 Y51.92 F1000.
G3 X104.347 Y51.26 I0.124 J-0.536
G2 X104.418 Y50.641 I-2.679 J-0.619 F3600.
G1 Y49.468
Z2.
Y38.468
Z0. F1200.
Y37.649 F3600.
G2 X96.02 Y25.664 I-12.75 J0.
G1 X60.025 Y12.595
Z2.
X49.686 Y8.84
Z0. F1200.
X28.255 Y1.058 F3600.
G2 X10.251 Y-2.109 I-18.004 J49.582
G1 X8.16
G2 X5.414 Y0.785 I0. J2.75
G1 X6.193 Y15.659
X6.199 Y15.739
X6.119 Y15.742
X-0.144 Y16.07
G2 X-2.746 Y18.96 I0.144 J2.746
G1 X-2.699 Y19.863
Z2.
X-2.123 Y30.848
Z0. F1200.
X-2.006 Y33.086 F3600.
G2 X0.884 Y35.688 I2.746 J-0.144
G1 X7.147 Y35.36
X7.227 Y35.355
X7.23 Y35.434
X8.034 Y50.785
G2 X10.78 Y53.391 I2.746 J-0.144
G1 X48.095
Z2.
X59.095
Z0. F1200.
X101.668 F3600.
G2 X104.347 Y51.26 I0. J-2.75
G3 X105.007 Y50.848 I0.536 J0.124 F1000.
G1 X105.543 Y50.972
X105.627 Y50.991 Z0.007
X105.709 Y51.01 Z0.027
X105.786 Y51.028 Z0.06
X105.858 Y51.044 Z0.105
X105.922 Y51.059 Z0.161
X105.977 Y51.072 Z0.227
X106.02 Y51.082 Z0.3
X106.053 Y51.089 Z0.38
X106.072 Y51.094 Z0.464
X106.079 Y51.095 Z0.55
G0 Z33.2
G28 G91 Z0.
G90

(2D POCKET2 4)
M5
M9
M1
T142 M6
S12000 M3
G54
M8
G0 X14.933 Y82.4
Z33.2
Z23.2
G1 Z14.314 F1000.
X14.936 Y82.395 Z14.279
X14.943 Y82.38 Z14.247
X14.954 Y82.358 Z14.222
X14.969 Y82.33 Z14.206
X14.985 Y82.298 Z14.2
G3 X15.323 Y82.091 I0.339 J0.173
G1 X15.372 F3600.
G2 X16.715 Y81.534 I0. J-1.9
G1 X16.748 Y81.513
X16.786 Y81.505
X16.824 Y81.513
X16.856 Y81.534
X16.878 Y81.567
X16.886 Y81.605
X16.878 Y81.643
X16.856 Y81.676
G2 X16.3 Y83.019 I1.344 J1.344
G1 Y83.067
X16.292 Y83.101
X16.271 Y83.128
X16.241 Y83.143
X16.206
X15.836 Y83.064
X13.695 Y83.032
X13.644 Y83.025
X12.968 Y82.825
G3 X12.978 Y82.458 I0.054 J-0.182
G1 X13.05 Y82.441 Z14.193 F1000.
X13.119 Y82.424 Z14.171
X13.183 Y82.409 Z14.136
X13.239 Y82.396 Z14.089
X13.285 Y82.385 Z14.031
X13.319 Y82.376 Z13.965
X13.34 Y82.371 Z13.894
X13.347 Y82.37 Z13.82
Z10.58
X13.354 Y82.368 Z10.506
X13.375 Y82.363 Z10.435
X13.409 Y82.355 Z10.369
X13.455 Y82.344 Z10.311
X13.511 Y82.33 Z10.264
X13.575 Y82.315 Z10.229
X13.644 Y82.298 Z10.207
X13.717 Y82.281 Z10.2
G3 X15.323 Y82.091 I1.607 J6.693
G1 X15.372 F3600.
G2 X16.715 Y81.534 I0. J-1.9
G1 X16.748 Y81.513
X16.786 Y81.505
X16.824 Y81.513
X16.856 Y81.534
X16.878 Y81.567
X16.886 Y81.605
X16.878 Y81.643
X16.856 Y81.676
G2 X16.3 Y83.019 I1.344 J1.344
G1 Y83.067
X16.292 Y83.101
X16.271 Y83.128
X16.241 Y83.143
X16.206
X15.836 Y83.064
X13.695 Y83.032
X13.644 Y83.025
X12.968 Y82.825
G3 X12.978 Y82.458 I0.054 J-0.182
G1 X13.05 Y82.441 Z10.193 F1000.
X13.119 Y82.424 Z10.171
X13.183 Y82.409 Z10.136
X13.239 Y82.396 Z10.089
X13.285 Y82.385 Z10.031
X13.319 Y82.376 Z9.965
X13.34 Y82.371 Z9.894
X13.347 Y82.37 Z9.82
Z9.48
X13.354 Y82.368 Z9.406
X13.375 Y82.363 Z9.335
X13.409 Y82.355 Z9.269
X13.455 Y82.344 Z9.211
X13.511 Y82.33 Z9.164
X13.575 Y82.315 Z9.129
X13.644 Y82.298 Z9.107
X13.717 Y82.281 Z9.1
G3 X15.323 Y82.091 I1.607 J6.693
G1 X15.372 F3600.
G2 X16.715 Y81.534 I0. J-1.9
G1 X16.748 Y81.513
X16.786 Y81.505
X16.824 Y81.513
X16.856 Y81.534
X16.878 Y81.567
X16.886 Y81.605
X16.878 Y81.643
X16.856 Y81.676
G2 X16.3 Y83.019 I1.344 J1.344
G1 Y83.067
X16.295 Y83.127 F1000.
X16.112 Y84.285
X16.1 Y84.358 Z9.107
X16.089 Y84.429 Z9.129
X16.079 Y84.494 Z9.164
X16.07 Y84.551 Z9.211
X16.062 Y84.597 Z9.269
X16.057 Y84.632 Z9.335
X16.054 Y84.653 Z9.406
X16.052 Y84.66 Z9.48
G0 Z23.2
X15.991 Y91.069
G1 Z14.314 F1000.
X15.996 Y91.072 Z14.279
X16.01 Y91.079 Z14.247
X16.033 Y91.091 Z14.222
X16.061 Y91.105 Z14.206
X16.093 Y91.121 Z14.2
G3 X16.3 Y91.46 I-0.173 J0.339
G1 Y91.508 F3600.
G2 X16.856 Y92.851 I1.9 J0.
G1 X16.878 Y92.884
X16.886 Y92.922
X16.878 Y92.96
X16.856 Y92.993
X16.824 Y93.014
X16.786 Y93.022
X16.748 Y93.014
X16.715 Y92.993
G2 X15.372 Y92.436 I-1.344 J1.344
G1 X15.323
X15.29 Y92.429
X15.263 Y92.408
X15.248 Y92.377
Y92.343
X15.327 Y91.973
X15.358 Y89.831
X15.366 Y89.78
X15.565 Y89.104
G3 X15.932 Y89.114 I0.182 J0.054
G1 X15.95 Y89.186 Z14.193 F1000.
X15.966 Y89.255 Z14.171
X15.982 Y89.319 Z14.136
X15.995 Y89.375 Z14.089
X16.006 Y89.421 Z14.031
X16.014 Y89.455 Z13.965
X16.019 Y89.476 Z13.894
X16.021 Y89.483 Z13.82
Z10.58
X16.023 Y89.49 Z10.506
X16.028 Y89.512 Z10.435
X16.036 Y89.546 Z10.369
X16.047 Y89.592 Z10.311
X16.061 Y89.648 Z10.264
X16.076 Y89.711 Z10.229
X16.093 Y89.781 Z10.207
X16.11 Y89.853 Z10.2
G3 X16.3 Y91.46 I-6.693 J1.607
G1 Y91.508 F3600.
G2 X16.856 Y92.851 I1.9 J0.
G1 X16.878 Y92.884
X16.886 Y92.922
X16.878 Y92.96
X16.856 Y92.993
X16.824 Y93.014
X16.786 Y93.022
X16.748 Y93.014
X16.715 Y92.993
G2 X15.372 Y92.436 I-1.344 J1.344
G1 X15.323
X15.29 Y92.429
X15.263 Y92.408
X15.248 Y92.377
Y92.343
X15.327 Y91.973
X15.358 Y89.831
X15.366 Y89.78
X15.565 Y89.104
G3 X15.932 Y89.114 I0.182 J0.054
G1 X15.95 Y89.186 Z10.193 F1000.
X15.966 Y89.255 Z10.171
X15.982 Y89.319 Z10.136
X15.995 Y89.375 Z10.089
X16.006 Y89.421 Z10.031
X16.014 Y89.455 Z9.965
X16.019 Y89.476 Z9.894
X16.021 Y89.483 Z9.82
Z9.48
X16.023 Y89.49 Z9.406
X16.028 Y89.512 Z9.335
X16.036 Y89.546 Z9.269
X16.047 Y89.592 Z9.211
X16.061 Y89.648 Z9.164
X16.076 Y89.711 Z9.129
X16.093 Y89.781 Z9.107
X16.11 Y89.853 Z9.1
G3 X16.3 Y91.46 I-6.693 J1.607
G1 Y91.508 F3600.
G2 X16.856 Y92.851 I1.9 J0.
G1 X16.878 Y92.884
X16.886 Y92.922
X16.878 Y92.96
X16.856 Y92.993
X16.824 Y93.014
X16.786 Y93.022
X16.748 Y93.014
X16.715 Y92.993
G2 X15.372 Y92.436 I-1.344 J1.344
G1 X15.323
X15.264 Y92.432 F1000.
X14.106 Y92.248
X14.032 Y92.237 Z9.107
X13.962 Y92.225 Z9.129
X13.897 Y92.215 Z9.164
X13.84 Y92.206 Z9.211
X13.794 Y92.199 Z9.269
X13.759 Y92.193 Z9.335
X13.738 Y92.19 Z9.406
X13.73 Y92.189 Z9.48
G0 Z33.2
X285.067 Y92.127
Z23.2
G1 Z14.314 F1000.
X285.064 Y92.132 Z14.279
X285.057 Y92.147 Z14.247
X285.046 Y92.169 Z14.222
X285.031 Y92.197 Z14.206
X285.015 Y92.229 Z14.2
G3 X284.677 Y92.436 I-0.339 J-0.173
G1 X284.628 F3600.
G2 X283.285 Y92.993 I0. J1.9
G1 X283.252 Y93.014
X283.214 Y93.022
X283.176 Y93.014
X283.143 Y92.993
X283.122 Y92.96
X283.114 Y92.922
X283.122 Y92.884
X283.143 Y92.852
G2 X283.7 Y91.508 I-1.343 J-1.344
G1 Y91.46
X283.708 Y91.426
X283.729 Y91.399
X283.759 Y91.384
X283.794
X284.164 Y91.463
X286.305 Y91.495
X286.356 Y91.502
X287.032 Y91.702
G3 X287.022 Y92.069 I-0.054 J0.182
G1 X286.95 Y92.086 Z14.193 F1000.
X286.881 Y92.103 Z14.171
X286.817 Y92.118 Z14.136
X286.761 Y92.131 Z14.089
X286.715 Y92.142 Z14.031
X286.681 Y92.151 Z13.965
X286.66 Y92.156 Z13.894
X286.653 Y92.157 Z13.82
Z10.58
X286.646 Y92.159 Z10.506
X286.625 Y92.164 Z10.435
X286.591 Y92.172 Z10.369
X286.545 Y92.183 Z10.311
X286.489 Y92.197 Z10.264
X286.425 Y92.212 Z10.229
X286.355 Y92.229 Z10.207
X286.283 Y92.246 Z10.2
G3 X284.677 Y92.436 I-1.607 J-6.693
G1 X284.628 F3600.
G2 X283.285 Y92.993 I0. J1.9
G1 X283.252 Y93.014
X283.214 Y93.022
X283.176 Y93.014
X283.143 Y92.993
X283.122 Y92.96
X283.114 Y92.922
X283.122 Y92.884
X283.143 Y92.852
G2 X283.7 Y91.508 I-1.343 J-1.344
G1 Y91.46
X283.708 Y91.426
X283.729 Y91.399
X283.759 Y91.384
X283.794
X284.164 Y91.463
X286.305 Y91.495
X286.356 Y91.502
X287.032 Y91.702
G3 X287.022 Y92.069 I-0.054 J0.182
G1 X286.95 Y92.086 Z10.193 F1000.
X286.881 Y92.103 Z10.171
X286.817 Y92.118 Z10.136
X286.761 Y92.131 Z10.089
X286.715 Y92.142 Z10.031
X286.681 Y92.151 Z9.965
X286.66 Y92.156 Z9.894
X286.653 Y92.157 Z9.82
Z9.48
X286.646 Y92.159 Z9.406
X286.625 Y92.164 Z9.335
X286.591 Y92.172 Z9.269
X286.545 Y92.183 Z9.211
X286.489 Y92.197 Z9.164
X286.425 Y92.212 Z9.129
X286.355 Y92.229 Z9.107
X286.283 Y92.246 Z9.1
G3 X284.677 Y92.436 I-1.607 J-6.693
G1 X284.628 F3600.
G2 X283.285 Y92.993 I0. J1.9
G1 X283.252 Y93.014
X283.214 Y93.022
X283.176 Y93.014
X283.143 Y92.993
X283.122 Y92.96
X283.114 Y92.922
X283.122 Y92.884
X283.143 Y92.852
G2 X283.7 Y91.508 I-1.343 J-1.344
G1 Y91.46
X283.705 Y91.4 F1000.
X283.888 Y90.242
X283.9 Y90.169 Z9.107
X283.911 Y90.098 Z9.129
X283.921 Y90.033 Z9.164
X283.93 Y89.977 Z9.211
X283.938 Y89.93 Z9.269
X283.943 Y89.895 Z9.335
X283.946 Y89.874 Z9.406
X283.948 Y89.867 Z9.48
G0 Z23.2
X284.009 Y83.458
G1 Z14.314 F1000.
X284.004 Y83.455 Z14.279
X283.99 Y83.448 Z14.247
X283.967 Y83.436 Z14.222
X283.939 Y83.422 Z14.206
X283.907 Y83.406 Z14.2
G3 X283.7 Y83.067 I0.173 J-0.339
G1 Y83.019 F3600.
G2 X283.143 Y81.676 I-1.9 J0.
G1 X283.122 Y81.643
X283.114 Y81.605
X283.122 Y81.567
X283.143 Y81.534
X283.176 Y81.513
X283.214 Y81.505
X283.252 Y81.513
X283.285 Y81.534
G2 X284.628 Y82.091 I1.343 J-1.344
G1 X284.677
X284.71 Y82.098
X284.737 Y82.12
X284.752 Y82.15
Y82.184
X284.673 Y82.554
X284.642 Y84.696
X284.634 Y84.747
X284.435 Y85.423
G3 X284.068 Y85.413 I-0.182 J-0.054
G1 X284.05 Y85.341 Z14.193 F1000.
X284.034 Y85.272 Z14.171
X284.018 Y85.208 Z14.136
X284.005 Y85.152 Z14.089
X283.994 Y85.106 Z14.031
X283.986 Y85.072 Z13.965
X283.981 Y85.051 Z13.894
X283.979 Y85.044 Z13.82
Z10.58
X283.977 Y85.037 Z10.506
X283.972 Y85.016 Z10.435
X283.964 Y84.981 Z10.369
X283.953 Y84.936 Z10.311
X283.939 Y84.88 Z10.264
X283.924 Y84.816 Z10.229
X283.907 Y84.746 Z10.207
X283.89 Y84.674 Z10.2
G3 X283.7 Y83.067 I6.693 J-1.607
G1 Y83.019 F3600.
G2 X283.143 Y81.676 I-1.9 J0.
G1 X283.122 Y81.643
X283.114 Y81.605
X283.122 Y81.567
X283.143 Y81.534
X283.176 Y81.513
X283.214 Y81.505
X283.252 Y81.513
X283.285 Y81.534
G2 X284.628 Y82.091 I1.343 J-1.344
G1 X284.677
X284.71 Y82.098
X284.737 Y82.12
X284.752 Y82.15
Y82.184
X284.673 Y82.554
X284.642 Y84.696
X284.634 Y84.747
X284.435 Y85.423
G3 X284.068 Y85.413 I-0.182 J-0.054
G1 X284.05 Y85.341 Z10.193 F1000.
X284.034 Y85.272 Z10.171
X284.018 Y85.208 Z10.136
X284.005 Y85.152 Z10.089
X283.994 Y85.106 Z10.031
X283.986 Y85.072 Z9.965
X283.981 Y85.051 Z9.894
X283.979 Y85.044 Z9.82
Z9.48
X283.977 Y85.037 Z9.406
X283.972 Y85.016 Z9.335
X283.964 Y84.981 Z9.269
X283.953 Y84.936 Z9.211
X283.939 Y84.88 Z9.164
X283.924 Y84.816 Z9.129
X283.907 Y84.746 Z9.107
X283.89 Y84.674 Z9.1
G3 X283.7 Y83.067 I6.693 J-1.607
G1 Y83.019 F3600.
G2 X283.143 Y81.676 I-1.9 J0.
G1 X283.122 Y81.643
X283.114 Y81.605
X283.122 Y81.567
X283.143 Y81.534
X283.176 Y81.513
X283.214 Y81.505
X283.252 Y81.513
X283.285 Y81.534
G2 X284.628 Y82.091 I1.343 J-1.344
G1 X284.677
X284.736 Y82.095 F1000.
X285.894 Y82.279
X285.967 Y82.291 Z9.107
X286.038 Y82.302 Z9.129
X286.103 Y82.312 Z9.164
X286.16 Y82.321 Z9.211
X286.206 Y82.328 Z9.269
X286.241 Y82.334 Z9.335
X286.262 Y82.337 Z9.406
X286.27 Y82.338 Z9.48
G0 Z33.2

(2D CONTOUR4 4)
G0 X118.662 Y35.174
Z33.2
Z23.2
G1 Z22.2 F1200.
Z15.58
Y35.167 Z15.506
X118.663 Y35.145 Z15.435
X118.665 Y35.11 Z15.369
X118.667 Y35.063 Z15.311
X118.669 Y35.006 Z15.264
X118.672 Y34.94 Z15.229
X118.675 Y34.869 Z15.207
X118.678 Y34.795 Z15.2
X118.694 Y34.415 F1000.
G3 X119.09 Y34.051 I0.38 J0.016
G2 X120.442 Y33.565 I0.081 J-1.898 F3600.
G1 X120.476 Y33.545
X120.514 Y33.54
X120.552 Y33.549
X120.583 Y33.573
X120.603 Y33.606
X120.609 Y33.645
X120.599 Y33.682
X120.576 Y33.714
G2 X119.951 Y35.007 I1.271 J1.412
G3 X119.548 Y35.363 I-0.379 J-0.024 F1000.
G1 X119.168 Y35.339
X119.095 Y35.335 Z15.207
X119.023 Y35.33 Z15.229
X118.958 Y35.326 Z15.264
X118.9 Y35.323 Z15.311
X118.853 Y35.32 Z15.369
X118.818 Y35.317 Z15.435
X118.797 Y35.316 Z15.506
X118.789 Z15.58
G0 Z23.2
X118.662 Y35.174
G1 Z19.2 F1200.
Z12.58
Y35.167 Z12.506
X118.663 Y35.145 Z12.435
X118.665 Y35.11 Z12.369
X118.667 Y35.063 Z12.311
X118.669 Y35.006 Z12.264
X118.672 Y34.94 Z12.229
X118.675 Y34.869 Z12.207
X118.678 Y34.795 Z12.2
X118.694 Y34.415 F1000.
G3 X119.09 Y34.051 I0.38 J0.016
G2 X120.442 Y33.565 I0.081 J-1.898 F3600.
G1 X120.476 Y33.545
X120.514 Y33.54
X120.552 Y33.549
X120.583 Y33.573
X120.603 Y33.606
X120.609 Y33.645
X120.599 Y33.682
X120.576 Y33.714
G2 X119.951 Y35.007 I1.271 J1.412
G3 X119.548 Y35.363 I-0.379 J-0.024 F1000.
G1 X119.168 Y35.339
X119.095 Y35.335 Z12.207
X119.023 Y35.33 Z12.229
X118.958 Y35.326 Z12.264
X118.9 Y35.323 Z12.311
X118.853 Y35.32 Z12.369
X118.818 Y35.317 Z12.435
X118.797 Y35.316 Z12.506
X118.789 Z12.58
G0 Z23.2
X118.662 Y35.174
G1 Z16.2 F1200.
Z9.58
Y35.167 Z9.506
X118.663 Y35.145 Z9.435
X118.665 Y35.11 Z9.369
X118.667 Y35.063 Z9.311
X118.669 Y35.006 Z9.264
X118.672 Y34.94 Z9.229
X118.675 Y34.869 Z9.207
X118.678 Y34.795 Z9.2
X118.694 Y34.415 F1000.
G3 X119.09 Y34.051 I0.38 J0.016
G2 X120.442 Y33.565 I0.081 J-1.898 F3600.
G1 X120.476 Y33.545
X120.514 Y33.54
X120.552 Y33.549
X120.583 Y33.573
X120.603 Y33.606
X120.609 Y33.645
X120.599 Y33.682
X120.576 Y33.714
G2 X119.951 Y35.007 I1.271 J1.412
G3 X119.548 Y35.363 I-0.379 J-0.024 F1000.
G1 X119.168 Y35.339
X119.095 Y35.335 Z9.207
X119.023 Y35.33 Z9.229
X118.958 Y35.326 Z9.264
X118.9 Y35.323 Z9.311
X118.853 Y35.32 Z9.369
X118.818 Y35.317 Z9.435
X118.797 Y35.316 Z9.506
X118.789 Z9.58
G0 Z23.2
X118.662 Y35.174
G1 Z13.2 F1200.
Z6.58
Y35.167 Z6.506
X118.663 Y35.145 Z6.435
X118.665 Y35.11 Z6.369
X118.667 Y35.063 Z6.311
X118.669 Y35.006 Z6.264
X118.672 Y34.94 Z6.229
X118.675 Y34.869 Z6.207
X118.678 Y34.795 Z6.2
X118.694 Y34.415 F1000.
G3 X119.09 Y34.051 I0.38 J0.016
G2 X120.442 Y33.565 I0.081 J-1.898 F3600.
G1 X120.476 Y33.545
X120.514 Y33.54
X120.552 Y33.549
X120.583 Y33.573
X120.603 Y33.606
X120.609 Y33.645
X120.599 Y33.682
X120.576 Y33.714
G2 X119.951 Y35.007 I1.271 J1.412
G3 X119.548 Y35.363 I-0.379 J-0.024 F1000.
G1 X119.168 Y35.339
X119.095 Y35.335 Z6.207
X119.023 Y35.33 Z6.229
X118.958 Y35.326 Z6.264
X118.9 Y35.323 Z6.311
X118.853 Y35.32 Z6.369
X118.818 Y35.317 Z6.435
X118.797 Y35.316 Z6.506
X118.789 Z6.58
G0 Z23.2
X118.662 Y35.174
G1 Z10.2 F1200.
Z3.58
Y35.167 Z3.506
X118.663 Y35.145 Z3.435
X118.665 Y35.11 Z3.369
X118.667 Y35.063 Z3.311
X118.669 Y35.006 Z3.264
X118.672 Y34.94 Z3.229
X118.675 Y34.869 Z3.207
X118.678 Y34.795 Z3.2
X118.694 Y34.415 F1000.
G3 X119.09 Y34.051 I0.38 J0.016
G2 X120.442 Y33.565 I0.081 J-1.898 F3600.
G1 X120.476 Y33.545
X120.514 Y33.54
X120.552 Y33.549
X120.583 Y33.573
X120.603 Y33.606
X120.609 Y33.645
X120.599 Y33.682
X120.576 Y33.714
G2 X119.951 Y35.007 I1.271 J1.412
G3 X119.548 Y35.363 I-0.379 J-0.024 F1000.
G1 X119.168 Y35.339
X119.095 Y35.335 Z3.207
X119.023 Y35.33 Z3.229
X118.958 Y35.326 Z3.264
X118.9 Y35.323 Z3.311
X118.853 Y35.32 Z3.369
X118.818 Y35.317 Z3.435
X118.797 Y35.316 Z3.506
X118.789 Z3.58
G0 Z23.2
X118.662 Y35.174
G1 Z7.2 F1200.
Z1.98
Y35.167 Z1.906
X118.663 Y35.145 Z1.835
X118.665 Y35.11 Z1.769
X118.667 Y35.063 Z1.711
X118.669 Y35.006 Z1.664
X118.672 Y34.94 Z1.629
X118.675 Y34.869 Z1.607
X118.678 Y34.795 Z1.6
X118.694 Y34.415 F1000.
G3 X119.09 Y34.051 I0.38 J0.016
G2 X120.442 Y33.565 I0.081 J-1.898 F3600.
G1 X120.476 Y33.545
X120.514 Y33.54
X120.552 Y33.549
X120.583 Y33.573
X120.603 Y33.606
X120.609 Y33.645
X120.599 Y33.682
X120.576 Y33.714
G2 X119.951 Y35.007 I1.271 J1.412
G3 X119.548 Y35.363 I-0.379 J-0.024 F1000.
G1 X119.168 Y35.339
X119.095 Y35.335 Z1.607
X119.023 Y35.33 Z1.629
X118.958 Y35.326 Z1.664
X118.9 Y35.323 Z1.711
X118.853 Y35.32 Z1.769
X118.818 Y35.317 Z1.835
X118.797 Y35.316 Z1.906
X118.789 Z1.98
G0 Z23.2
X118.662 Y35.174
G1 Z5.6 F1200.
Z0.38
Y35.167 Z0.306
X118.663 Y35.145 Z0.235
X118.665 Y35.11 Z0.169
X118.667 Y35.063 Z0.111
X118.669 Y35.006 Z0.064
X118.672 Y34.94 Z0.029
X118.675 Y34.869 Z0.007
X118.678 Y34.795 Z0.
X118.694 Y34.415 F1000.
G3 X119.09 Y34.051 I0.38 J0.016
G2 X120.442 Y33.565 I0.081 J-1.898 F3600.
G1 X120.476 Y33.545
X120.514 Y33.54
X120.552 Y33.549
X120.583 Y33.573
X120.603 Y33.606
X120.609 Y33.645
X120.599 Y33.682
X120.576 Y33.714
G2 X119.951 Y35.007 I1.271 J1.412
G3 X119.548 Y35.363 I-0.379 J-0.024 F1000.
G1 X119.168 Y35.339
X119.095 Y35.335 Z0.007
X119.023 Y35.33 Z0.029
X118.958 Y35.326 Z0.064
X118.9 Y35.323 Z0.111
X118.853 Y35.32 Z0.169
X118.818 Y35.317 Z0.235
X118.797 Y35.316 Z0.306
X118.789 Z0.38
G0 Z23.2
X119.862 Y14.842
G1 Z22.2 F1200.
Z15.58
X119.869 Z15.506
X119.891 Y14.843 Z15.435
X119.926 Y14.845 Z15.369
X119.973 Y14.847 Z15.311
X120.031 Y14.849 Z15.264
X120.096 Y14.852 Z15.229
X120.167 Y14.855 Z15.207
X120.242 Y14.858 Z15.2
X120.621 Y14.874 F1000.
G3 X120.985 Y15.27 I-0.016 J0.38
G2 X121.471 Y16.622 I1.898 J0.081 F3600.
G1 X121.491 Y16.655
X121.497 Y16.694
X121.487 Y16.732
X121.464 Y16.763
X121.43 Y16.783
X121.392 Y16.788
X121.354 Y16.779
X121.323 Y16.756
G2 X120.029 Y16.131 I-1.412 J1.271
G3 X119.673 Y15.728 I0.024 J-0.379 F1000.
G1 X119.697 Y15.349
X119.701 Y15.275 Z15.207
X119.706 Y15.203 Z15.229
X119.71 Y15.138 Z15.264
X119.713 Y15.08 Z15.311
X119.716 Y15.033 Z15.369
X119.719 Y14.998 Z15.435
X119.72 Y14.977 Z15.506
Y14.969 Z15.58
G0 Z23.2
X119.862 Y14.842
G1 Z19.2 F1200.
Z12.58
X119.869 Z12.506
X119.891 Y14.843 Z12.435
X119.926 Y14.845 Z12.369
X119.973 Y14.847 Z12.311
X120.031 Y14.849 Z12.264
X120.096 Y14.852 Z12.229
X120.167 Y14.855 Z12.207
X120.242 Y14.858 Z12.2
X120.621 Y14.874 F1000.
G3 X120.985 Y15.27 I-0.016 J0.38
G2 X121.471 Y16.622 I1.898 J0.081 F3600.
G1 X121.491 Y16.655
X121.497 Y16.694
X121.487 Y16.732
X121.464 Y16.763
X121.43 Y16.783
X121.392 Y16.788
X121.354 Y16.779
X121.323 Y16.756
G2 X120.029 Y16.131 I-1.412 J1.271
G3 X119.673 Y15.728 I0.024 J-0.379 F1000.
G1 X119.697 Y15.349
X119.701 Y15.275 Z12.207
X119.706 Y15.203 Z12.229
X119.71 Y15.138 Z12.264
X119.713 Y15.08 Z12.311
X119.716 Y15.033 Z12.369
X119.719 Y14.998 Z12.435
X119.72 Y14.977 Z12.506
Y14.969 Z12.58
G0 Z23.2
X119.862 Y14.842
G1 Z16.2 F1200.
Z9.58
X119.869 Z9.506
X119.891 Y14.843 Z9.435
X119.926 Y14.845 Z9.369
X119.973 Y14.847 Z9.311
X120.031 Y14.849 Z9.264
X120.096 Y14.852 Z9.229
X120.167 Y14.855 Z9.207
X120.242 Y14.858 Z9.2
X120.621 Y14.874 F1000.
G3 X120.985 Y15.27 I-0.016 J0.38
G2 X121.471 Y16.622 I1.898 J0.081 F3600.
G1 X121.491 Y16.655
X121.497 Y16.694
X121.487 Y16.732
X121.464 Y16.763
X121.43 Y16.783
X121.392 Y16.788
X121.354 Y16.779
X121.323 Y16.756
G2 X120.029 Y16.131 I-1.412 J1.271
G3 X119.673 Y15.728 I0.024 J-0.379 F1000.
G1 X119.697 Y15.349
X119.701 Y15.275 Z9.207
X119.706 Y15.203 Z9.229
X119.71 Y15.138 Z9.264
X119.713 Y15.08 Z9.311
X119.716 Y15.033 Z9.369
X119.719 Y14.998 Z9.435
X119.72 Y14.977 Z9.506
Y14.969 Z9.58
G0 Z23.2
X119.862 Y14.842
G1 Z13.2 F1200.
Z6.58
X119.869 Z6.506
X119.891 Y14.843 Z6.435
X119.926 Y14.845 Z6.369
X119.973 Y14.847 Z6.311
X120.031 Y14.849 Z6.264
X120.096 Y14.852 Z6.229
X120.167 Y14.855 Z6.207
X120.242 Y14.858 Z6.2
X120.621 Y14.874 F1000.
G3 X120.985 Y15.27 I-0.016 J0.38
G2 X121.471 Y16.622 I1.898 J0.081 F3600.
G1 X121.491 Y16.655
X121.497 Y16.694
X121.487 Y16.732
X121.464 Y16.763
X121.43 Y16.783
X121.392 Y16.788
X121.354 Y16.779
X121.323 Y16.756
G2 X120.029 Y16.131 I-1.412 J1.271
G3 X119.673 Y15.728 I0.024 J-0.379 F1000.
G1 X119.697 Y15.349
X119.701 Y15.275 Z6.207
X119.706 Y15.203 Z6.229
X119.71 Y15.138 Z6.264
X119.713 Y15.08 Z6.311
X119.716 Y15.033 Z6.369
X119.719 Y14.998 Z6.435
X119.72 Y14.977 Z6.506
Y14.969 Z6.58
G0 Z23.2
X119.862 Y14.842
G1 Z10.2 F1200.
Z3.58
X119.869 Z3.506
X119.891 Y14.843 Z3.435
X119.926 Y14.845 Z3.369
X119.973 Y14.847 Z3.311
X120.031 Y14.849 Z3.264
X120.096 Y14.852 Z3.229
X120.167 Y14.855 Z3.207
X120.242 Y14.858 Z3.2
X120.621 Y14.874 F1000.
G3 X120.985 Y15.27 I-0.016 J0.38
G2 X121.471 Y16.622 I1.898 J0.081 F3600.
G1 X121.491 Y16.655
X121.497 Y16.694
X121.487 Y16.732
X121.464 Y16.763
X121.43 Y16.783
X121.392 Y16.788
X121.354 Y16.779
X121.323 Y16.756
G2 X120.029 Y16.131 I-1.412 J1.271
G3 X119.673 Y15.728 I0.024 J-0.379 F1000.
G1 X119.697 Y15.349
X119.701 Y15.275 Z3.207
X119.706 Y15.203 Z3.229
X119.71 Y15.138 Z3.264
X119.713 Y15.08 Z3.311
X119.716 Y15.033 Z3.369
X119.719 Y14.998 Z3.435
X119.72 Y14.977 Z3.506
Y14.969 Z3.58
G0 Z23.2
X119.862 Y14.842
G1 Z7.2 F1200.
Z1.98
X119.869 Z1.906
X119.891 Y14.843 Z1.835
X119.926 Y14.845 Z1.769
X119.973 Y14.847 Z1.711
X120.031 Y14.849 Z1.664
X120.096 Y14.852 Z1.629
X120.167 Y14.855 Z1.607
X120.242 Y14.858 Z1.6
X120.621 Y14.874 F1000.
G3 X120.985 Y15.27 I-0.016 J0.38
G2 X121.471 Y16.622 I1.898 J0.081 F3600.
G1 X121.491 Y16.655
X121.497 Y16.694
X121.487 Y16.732
X121.464 Y16.763
X121.43 Y16.783
X121.392 Y16.788
X121.354 Y16.779
X121.323 Y16.756
G2 X120.029 Y16.131 I-1.412 J1.271
G3 X119.673 Y15.728 I0.024 J-0.379 F1000.
G1 X119.697 Y15.349
X119.701 Y15.275 Z1.607
X119.706 Y15.203 Z1.629
X119.71 Y15.138 Z1.664
X119.713 Y15.08 Z1.711
X119.716 Y15.033 Z1.769
X119.719 Y14.998 Z1.835
X119.72 Y14.977 Z1.906
Y14.969 Z1.98
G0 Z23.2
X119.862 Y14.842
G1 Z5.6 F1200.
Z0.38
X119.869 Z0.306
X119.891 Y14.843 Z0.235
X119.926 Y14.845 Z0.169
X119.973 Y14.847 Z0.111
X120.031 Y14.849 Z0.064
X120.096 Y14.852 Z0.029
X120.167 Y14.855 Z0.007
X120.242 Y14.858 Z0.
X120.621 Y14.874 F1000.
G3 X120.985 Y15.27 I-0.016 J0.38
G2 X121.471 Y16.622 I1.898 J0.081 F3600.
G1 X121.491 Y16.655
X121.497 Y16.694
X121.487 Y16.732
X121.464 Y16.763
X121.43 Y16.783
X121.392 Y16.788
X121.354 Y16.779
X121.323 Y16.756
G2 X120.029 Y16.131 I-1.412 J1.271
G3 X119.673 Y15.728 I0.024 J-0.379 F1000.
G1 X119.697 Y15.349
X119.701 Y15.275 Z0.007
X119.706 Y15.203 Z0.029
X119.71 Y15.138 Z0.064
X119.713 Y15.08 Z0.111
X119.716 Y15.033 Z0.169
X119.719 Y14.998 Z0.235
X119.72 Y14.977 Z0.306
Y14.969 Z0.38
G0 Z23.2
X5.882 Y15.325
G1 Z22.2 F1200.
Z15.58
X5.889 Z15.506
X5.911 Y15.323 Z15.435
X5.946 Y15.321 Z15.369
X5.993 Y15.318 Z15.311
X6.05 Y15.315 Z15.264
X6.116 Y15.311 Z15.229
X6.187 Y15.306 Z15.207
X6.261 Y15.302 Z15.2
X6.64 Y15.278 F1000.
G3 X7.043 Y15.634 I0.024 J0.379
G2 X7.668 Y16.927 I1.896 J-0.118 F3600.
G1 X7.692 Y16.958
X7.701 Y16.996
X7.696 Y17.035
X7.676 Y17.068
X7.644 Y17.092
X7.607 Y17.101
X7.568 Y17.096
X7.534 Y17.076
G2 X6.182 Y16.59 I-1.271 J1.412
G3 X5.787 Y16.226 I-0.016 J-0.38 F1000.
G1 X5.771 Y15.846
X5.767 Y15.772 Z15.207
X5.764 Y15.701 Z15.229
X5.762 Y15.635 Z15.264
X5.759 Y15.578 Z15.311
X5.757 Y15.531 Z15.369
X5.756 Y15.496 Z15.435
X5.755 Y15.474 Z15.506
Y15.467 Z15.58
G0 Z23.2
X5.882 Y15.325
G1 Z19.2 F1200.
Z12.58
X5.889 Z12.506
X5.911 Y15.323 Z12.435
X5.946 Y15.321 Z12.369
X5.993 Y15.318 Z12.311
X6.05 Y15.315 Z12.264
X6.116 Y15.311 Z12.229
X6.187 Y15.306 Z12.207
X6.261 Y15.302 Z12.2
X6.64 Y15.278 F1000.
G3 X7.043 Y15.634 I0.024 J0.379
G2 X7.668 Y16.927 I1.896 J-0.118 F3600.
G1 X7.692 Y16.958
X7.701 Y16.996
X7.696 Y17.035
X7.676 Y17.068
X7.644 Y17.092
X7.607 Y17.101
X7.568 Y17.096
X7.534 Y17.076
G2 X6.182 Y16.59 I-1.271 J1.412
G3 X5.787 Y16.226 I-0.016 J-0.38 F1000.
G1 X5.771 Y15.846
X5.767 Y15.772 Z12.207
X5.764 Y15.701 Z12.229
X5.762 Y15.635 Z12.264
X5.759 Y15.578 Z12.311
X5.757 Y15.531 Z12.369
X5.756 Y15.496 Z12.435
X5.755 Y15.474 Z12.506
Y15.467 Z12.58
G0 Z23.2
X5.882 Y15.325
G1 Z16.2 F1200.
Z9.58
X5.889 Z9.506
X5.911 Y15.323 Z9.435
X5.946 Y15.321 Z9.369
X5.993 Y15.318 Z9.311
X6.05 Y15.315 Z9.264
X6.116 Y15.311 Z9.229
X6.187 Y15.306 Z9.207
X6.261 Y15.302 Z9.2
X6.64 Y15.278 F1000.
G3 X7.043 Y15.634 I0.024 J0.379
G2 X7.668 Y16.927 I1.896 J-0.118 F3600.
G1 X7.692 Y16.958
X7.701 Y16.996
X7.696 Y17.035
X7.676 Y17.068
X7.644 Y17.092
X7.607 Y17.101
X7.568 Y17.096
X7.534 Y17.076
G2 X6.182 Y16.59 I-1.271 J1.412
G3 X5.787 Y16.226 I-0.016 J-0.38 F1000.
G1 X5.771 Y15.846
X5.767 Y15.772 Z9.207
X5.764 Y15.701 Z9.229
X5.762 Y15.635 Z9.264
X5.759 Y15.578 Z9.311
X5.757 Y15.531 Z9.369
X5.756 Y15.496 Z9.435
X5.755 Y15.474 Z9.506
Y15.467 Z9.58
G0 Z23.2
X5.882 Y15.325
G1 Z13.2 F1200.
Z6.58
X5.889 Z6.506
X5.911 Y15.323 Z6.435
X5.946 Y15.321 Z6.369
X5.993 Y15.318 Z6.311
X6.05 Y15.315 Z6.264
X6.116 Y15.311 Z6.229
X6.187 Y15.306 Z6.207
X6.261 Y15.302 Z6.2
X6.64 Y15.278 F1000.
G3 X7.043 Y15.634 I0.024 J0.379
G2 X7.668 Y16.927 I1.896 J-0.118 F3600.
G1 X7.692 Y16.958
X7.701 Y16.996
X7.696 Y17.035
X7.676 Y17.068
X7.644 Y17.092
X7.607 Y17.101
X7.568 Y17.096
X7.534 Y17.076
G2 X6.182 Y16.59 I-1.271 J1.412
G3 X5.787 Y16.226 I-0.016 J-0.38 F1000.
G1 X5.771 Y15.846
X5.767 Y15.772 Z6.207
X5.764 Y15.701 Z6.229
X5.762 Y15.635 Z6.264
X5.759 Y15.578 Z6.311
X5.757 Y15.531 Z6.369
X5.756 Y15.496 Z6.435
X5.755 Y15.474 Z6.506
Y15.467 Z6.58
G0 Z23.2
X5.882 Y15.325
G1 Z10.2 F1200.
Z3.58
X5.889 Z3.506
X5.911 Y15.323 Z3.435
X5.946 Y15.321 Z3.369
X5.993 Y15.318 Z3.311
X6.05 Y15.315 Z3.264
X6.116 Y15.311 Z3.229
X6.187 Y15.306 Z3.207
X6.261 Y15.302 Z3.2
X6.64 Y15.278 F1000.
G3 X7.043 Y15.634 I0.024 J0.379
G2 X7.668 Y16.927 I1.896 J-0.118 F3600.
G1 X7.692 Y16.958
X7.701 Y16.996
X7.696 Y17.035
X7.676 Y17.068
X7.644 Y17.092
X7.607 Y17.101
X7.568 Y17.096
X7.534 Y17.076
G2 X6.182 Y16.59 I-1.271 J1.412
G3 X5.787 Y16.226 I-0.016 J-0.38 F1000.
G1 X5.771 Y15.846
X5.767 Y15.772 Z3.207
X5.764 Y15.701 Z3.229
X5.762 Y15.635 Z3.264
X5.759 Y15.578 Z3.311
X5.757 Y15.531 Z3.369
X5.756 Y15.496 Z3.435
X5.755 Y15.474 Z3.506
Y15.467 Z3.58
G0 Z23.2
X5.882 Y15.325
G1 Z7.2 F1200.
Z1.98
X5.889 Z1.906
X5.911 Y15.323 Z1.835
X5.946 Y15.321 Z1.769
X5.993 Y15.318 Z1.711
X6.05 Y15.315 Z1.664
X6.116 Y15.311 Z1.629
X6.187 Y15.306 Z1.607
X6.261 Y15.302 Z1.6
X6.64 Y15.278 F1000.
G3 X7.043 Y15.634 I0.024 J0.379
G2 X7.668 Y16.927 I1.896 J-0.118 F3600.
G1 X7.692 Y16.958
X7.701 Y16.996
X7.696 Y17.035
X7.676 Y17.068
X7.644 Y17.092
X7.607 Y17.101
X7.568 Y17.096
X7.534 Y17.076
G2 X6.182 Y16.59 I-1.271 J1.412
G3 X5.787 Y16.226 I-0.016 J-0.38 F1000.
G1 X5.771 Y15.846
X5.767 Y15.772 Z1.607
X5.764 Y15.701 Z1.629
X5.762 Y15.635 Z1.664
X5.759 Y15.578 Z1.711
X5.757 Y15.531 Z1.769
X5.756 Y15.496 Z1.835
X5.755 Y15.474 Z1.906
Y15.467 Z1.98
G0 Z23.2
X5.882 Y15.325
G1 Z5.6 F1200.
Z0.38
X5.889 Z0.306
X5.911 Y15.323 Z0.235
X5.946 Y15.321 Z0.169
X5.993 Y15.318 Z0.111
X6.05 Y15.315 Z0.064
X6.116 Y15.311 Z0.029
X6.187 Y15.306 Z0.007
X6.261 Y15.302 Z0.
X6.64 Y15.278 F1000.
G3 X7.043 Y15.634 I0.024 J0.379
G2 X7.668 Y16.927 I1.896 J-0.118 F3600.
G1 X7.692 Y16.958
X7.701 Y16.996
X7.696 Y17.035
X7.676 Y17.068
X7.644 Y17.092
X7.607 Y17.101
X7.568 Y17.096
X7.534 Y17.076
G2 X6.182 Y16.59 I-1.271 J1.412
G3 X5.787 Y16.226 I-0.016 J-0.38 F1000.
G1 X5.771 Y15.846
X5.767 Y15.772 Z0.007
X5.764 Y15.701 Z0.029
X5.762 Y15.635 Z0.064
X5.759 Y15.578 Z0.111
X5.757 Y15.531 Z0.169
X5.756 Y15.496 Z0.235
X5.755 Y15.474 Z0.306
Y15.467 Z0.38
G0 Z23.2
X6.813 Y35.672
G1 Z22.2 F1200.
Z15.58
Y35.664 Z15.506
X6.812 Y35.643 Z15.435
X6.809 Y35.608 Z15.369
X6.806 Y35.561 Z15.311
X6.803 Y35.503 Z15.264
X6.799 Y35.438 Z15.229
X6.794 Y35.366 Z15.207
X6.79 Y35.292 Z15.2
X6.766 Y34.913 F1000.
G3 X7.122 Y34.51 I0.379 J-0.024
G2 X8.415 Y33.885 I-0.118 J-1.896 F3600.
G1 X8.447 Y33.862
X8.484 Y33.852
X8.523 Y33.858
X8.557 Y33.878
X8.58 Y33.909
X8.589 Y33.947
X8.584 Y33.986
X8.564 Y34.019
G2 X8.078 Y35.371 I1.412 J1.271
G3 X7.714 Y35.767 I-0.38 J0.016 F1000.
G1 X7.334 Y35.783
X7.26 Y35.786 Z15.207
X7.189 Y35.789 Z15.229
X7.124 Y35.792 Z15.264
X7.066 Y35.794 Z15.311
X7.019 Y35.796 Z15.369
X6.984 Y35.798 Z15.435
X6.962 Y35.799 Z15.506
X6.955 Z15.58
G0 Z23.2
X6.813 Y35.672
G1 Z19.2 F1200.
Z12.58
Y35.664 Z12.506
X6.812 Y35.643 Z12.435
X6.809 Y35.608 Z12.369
X6.806 Y35.561 Z12.311
X6.803 Y35.503 Z12.264
X6.799 Y35.438 Z12.229
X6.794 Y35.366 Z12.207
X6.79 Y35.292 Z12.2
X6.766 Y34.913 F1000.
G3 X7.122 Y34.51 I0.379 J-0.024
G2 X8.415 Y33.885 I-0.118 J-1.896 F3600.
G1 X8.447 Y33.862
X8.484 Y33.852
X8.523 Y33.858
X8.557 Y33.878
X8.58 Y33.909
X8.589 Y33.947
X8.584 Y33.986
X8.564 Y34.019
G2 X8.078 Y35.371 I1.412 J1.271
G3 X7.714 Y35.767 I-0.38 J0.016 F1000.
G1 X7.334 Y35.783
X7.26 Y35.786 Z12.207
X7.189 Y35.789 Z12.229
X7.124 Y35.792 Z12.264
X7.066 Y35.794 Z12.311
X7.019 Y35.796 Z12.369
X6.984 Y35.798 Z12.435
X6.962 Y35.799 Z12.506
X6.955 Z12.58
G0 Z23.2
X6.813 Y35.672
G1 Z16.2 F1200.
Z9.58
Y35.664 Z9.506
X6.812 Y35.643 Z9.435
X6.809 Y35.608 Z9.369
X6.806 Y35.561 Z9.311
X6.803 Y35.503 Z9.264
X6.799 Y35.438 Z9.229
X6.794 Y35.366 Z9.207
X6.79 Y35.292 Z9.2
X6.766 Y34.913 F1000.
G3 X7.122 Y34.51 I0.379 J-0.024
G2 X8.415 Y33.885 I-0.118 J-1.896 F3600.
G1 X8.447 Y33.862
X8.484 Y33.852
X8.523 Y33.858
X8.557 Y33.878
X8.58 Y33.909
X8.589 Y33.947
X8.584 Y33.986
X8.564 Y34.019
G2 X8.078 Y35.371 I1.412 J1.271
G3 X7.714 Y35.767 I-0.38 J0.016 F1000.
G1 X7.334 Y35.783
X7.26 Y35.786 Z9.207
X7.189 Y35.789 Z9.229
X7.124 Y35.792 Z9.264
X7.066 Y35.794 Z9.311
X7.019 Y35.796 Z9.369
X6.984 Y35.798 Z9.435
X6.962 Y35.799 Z9.506
X6.955 Z9.58
G0 Z23.2
X6.813 Y35.672
G1 Z13.2 F1200.
Z6.58
Y35.664 Z6.506
X6.812 Y35.643 Z6.435
X6.809 Y35.608 Z6.369
X6.806 Y35.561 Z6.311
X6.803 Y35.503 Z6.264
X6.799 Y35.438 Z6.229
X6.794 Y35.366 Z6.207
X6.79 Y35.292 Z6.2
X6.766 Y34.913 F1000.
G3 X7.122 Y34.51 I0.379 J-0.024
G2 X8.415 Y33.885 I-0.118 J-1.896 F3600.
G1 X8.447 Y33.862
X8.484 Y33.852
X8.523 Y33.858
X8.557 Y33.878
X8.58 Y33.909
X8.589 Y33.947
X8.584 Y33.986
X8.564 Y34.019
G2 X8.078 Y35.371 I1.412 J1.271
G3 X7.714 Y35.767 I-0.38 J0.016 F1000.
G1 X7.334 Y35.783
X7.26 Y35.786 Z6.207
X7.189 Y35.789 Z6.229
X7.124 Y35.792 Z6.264
X7.066 Y35.794 Z6.311
X7.019 Y35.796 Z6.369
X6.984 Y35.798 Z6.435
X6.962 Y35.799 Z6.506
X6.955 Z6.58
G0 Z23.2
X6.813 Y35.672
G1 Z10.2 F1200.
Z3.58
Y35.664 Z3.506
X6.812 Y35.643 Z3.435
X6.809 Y35.608 Z3.369
X6.806 Y35.561 Z3.311
X6.803 Y35.503 Z3.264
X6.799 Y35.438 Z3.229
X6.794 Y35.366 Z3.207
X6.79 Y35.292 Z3.2
X6.766 Y34.913 F1000.
G3 X7.122 Y34.51 I0.379 J-0.024
G2 X8.415 Y33.885 I-0.118 J-1.896 F3600.
G1 X8.447 Y33.862
X8.484 Y33.852
X8.523 Y33.858
X8.557 Y33.878
X8.58 Y33.909
X8.589 Y33.947
X8.584 Y33.986
X8.564 Y34.019
G2 X8.078 Y35.371 I1.412 J1.271
G3 X7.714 Y35.767 I-0.38 J0.016 F1000.
G1 X7.334 Y35.783
X7.26 Y35.786 Z3.207
X7.189 Y35.789 Z3.229
X7.124 Y35.792 Z3.264
X7.066 Y35.794 Z3.311
X7.019 Y35.796 Z3.369
X6.984 Y35.798 Z3.435
X6.962 Y35.799 Z3.506
X6.955 Z3.58
G0 Z23.2
X6.813 Y35.672
G1 Z7.2 F1200.
Z1.98
Y35.664 Z1.906
X6.812 Y35.643 Z1.835
X6.809 Y35.608 Z1.769
X6.806 Y35.561 Z1.711
X6.803 Y35.503 Z1.664
X6.799 Y35.438 Z1.629
X6.794 Y35.366 Z1.607
X6.79 Y35.292 Z1.6
X6.766 Y34.913 F1000.
G3 X7.122 Y34.51 I0.379 J-0.024
G2 X8.415 Y33.885 I-0.118 J-1.896 F3600.
G1 X8.447 Y33.862
X8.484 Y33.852
X8.523 Y33.858
X8.557 Y33.878
X8.58 Y33.909
X8.589 Y33.947
X8.584 Y33.986
X8.564 Y34.019
G2 X8.078 Y35.371 I1.412 J1.271
G3 X7.714 Y35.767 I-0.38 J0.016 F1000.
G1 X7.334 Y35.783
X7.26 Y35.786 Z1.607
X7.189 Y35.789 Z1.629
X7.124 Y35.792 Z1.664
X7.066 Y35.794 Z1.711
X7.019 Y35.796 Z1.769
X6.984 Y35.798 Z1.835
X6.962 Y35.799 Z1.906
X6.955 Z1.98
G0 Z23.2
X6.813 Y35.672
G1 Z5.6 F1200.
Z0.38
Y35.664 Z0.306
X6.812 Y35.643 Z0.235
X6.809 Y35.608 Z0.169
X6.806 Y35.561 Z0.111
X6.803 Y35.503 Z0.064
X6.799 Y35.438 Z0.029
X6.794 Y35.366 Z0.007
X6.79 Y35.292 Z0.
X6.766 Y34.913 F1000.
G3 X7.122 Y34.51 I0.379 J-0.024
G2 X8.415 Y33.885 I-0.118 J-1.896 F3600.
G1 X8.447 Y33.862
X8.484 Y33.852
X8.523 Y33.858
X8.557 Y33.878
X8.58 Y33.909
X8.589 Y33.947
X8.584 Y33.986
X8.564 Y34.019
G2 X8.078 Y35.371 I1.412 J1.271
G3 X7.714 Y35.767 I-0.38 J0.016 F1000.
G1 X7.334 Y35.783
X7.26 Y35.786 Z0.007
X7.189 Y35.789 Z0.029
X7.124 Y35.792 Z0.064
X7.066 Y35.794 Z0.111
X7.019 Y35.796 Z0.169
X6.984 Y35.798 Z0.235
X6.962 Y35.799 Z0.306
X6.955 Z0.38
G0 Z33.2

M9
G28 G91 Z0.
G90
G28 G91 X0. Y0.
G90
M30
