(2018-01-26 EARMUFFS)
(2018-01-26 EARMUFFS)
(T24  D=4. CR=0. TAPER=118DEG - ZMIN=-2.702 - DRILL)
(T162  D=5.5 CR=0. - ZMIN=0. - FLAT END MILL)
G90 G94 G91.1 G40 G49 G17
G21
G28 G91 Z0.
G90

G00 X0 Y0 F70
G01 Z-1 F50
G01 X0 Y20 F50
G01 X25 Y20
G01 X25 Y0
G01 X0 Y0
G00 Z0 F70

M9
G28 G91 Z0.
G90
G28 G91 X0. Y0.
G90
M30
%