(1001 SCREWDRIVER HOLDER)
(2018-01-26 SCREWDRIVER HOLDER)
(T24  D=4. CR=0. TAPER=118DEG - ZMIN=-2.702 - DRILL)
(T162  D=5.5 CR=0. - ZMIN=0. - FLAT END MILL)
G90 G94 G91.1 G40 G49 G17
G21
G28 G91 Z0.
G90

(DRILL3 3)
M5
M9
T24 M6
S8000 M3
G54
M8
G0 X9.1 Y140.234
Z33.2
Z23.2
G98 G83 X9.1 Y140.234 Z-0.702 R23.2 Q4. F800.
Y172.103
G80
X50. Y156.203 Z23.2
G83 X50. Y156.203 Z-2.702 R23.2 Q4. F800.
X100.
X150.
X200.
X250.
G80
X290.9 Y172.103 Z23.2
G83 X290.9 Y172.103 Z-0.702 R23.2 Q4. F800.
Y140.234
G80
Z33.2
G28 G91 Z0.
G90

(2D POCKET2 2)
M5
M9
M1
T162 M6
S12000 M3
G54
M8
G0 X307.649 Y157.352
Z33.2
Z23.2
G1 Z14.75 F1000.
G18 G3 X307.099 Z14.2 I-0.55 K0.
G1 X302.64
X287.771 F3600.
G17 G3 X287.451 Y157.032 I0. J-0.319
G1 Y154.828
G3 X287.771 Y154.508 I0.319 J0.
G1 X302.64
G3 X302.915 Y154.783 I0. J0.275
G1 X302.921 Y159.978
G3 X302.646 Y160.253 I-0.275 J0.
G1 X284.55
Y151.607
X300.
X302.641
G3 X302.91 Y151.824 I0. J0.275
G1 X304.03 Y157.019
G3 X303.762 Y157.352 I-0.269 J0.058
G18 G2 X303.212 Z13.65 I0. K-0.55 F1000.
G1 Z10.75
G3 X302.662 Z10.2 I-0.55 K0.
G1 X302.64
X287.771 F3600.
G17 G3 X287.451 Y157.032 I0. J-0.319
G1 Y154.828
G3 X287.771 Y154.508 I0.319 J0.
G1 X302.64
G3 X302.915 Y154.783 I0. J0.275
G1 X302.921 Y159.978
G3 X302.646 Y160.253 I-0.275 J0.
G1 X284.55
Y151.607
X300.
X302.641
G3 X302.91 Y151.824 I0. J0.275
G1 X304.03 Y157.019
G3 X303.762 Y157.352 I-0.269 J0.058
G18 G2 X303.212 Z9.65 I0. K-0.55 F1000.
G3 X302.662 Z9.1 I-0.55 K0.
G1 X302.64
X287.771 F3600.
G17 G3 X287.451 Y157.032 I0. J-0.319
G1 Y154.828
G3 X287.771 Y154.508 I0.319 J0.
G1 X302.64
G3 X302.915 Y154.783 I0. J0.275
G1 X302.921 Y159.978
G3 X302.646 Y160.253 I-0.275 J0.
G1 X284.55
Y151.607
X300.
X302.641
X302.727 Y151.614 F1000.
X305.443 Y152.044
X305.528 Y152.057 Z9.107
X305.611 Y152.071 Z9.127
X305.69 Y152.083 Z9.16
X305.762 Y152.095 Z9.205
X305.827 Y152.105 Z9.261
X305.883 Y152.114 Z9.327
X305.927 Y152.121 Z9.4
X305.96 Y152.126 Z9.48
X305.98 Y152.129 Z9.564
X305.986 Y152.13 Z9.65
G0 Z23.2
X-7.659 Y154.508
G1 Z14.75 F1000.
G18 G2 X-7.109 Z14.2 I0.55 K0.
G1 X-2.64
X12.229 F3600.
G17 G3 X12.549 Y154.828 I0. J0.319
G1 Y157.032
G3 X12.229 Y157.352 I-0.319 J0.
G1 X-2.64
G3 X-2.915 Y157.077 I0. J-0.275
G1 X-2.921 Y151.882
G3 X-2.646 Y151.607 I0.275 J0.
G1 X15.45
Y160.253
X0.
X-2.641
G3 X-2.91 Y160.036 I0. J-0.275
G1 X-4.03 Y154.841
G3 X-3.762 Y154.508 I0.269 J-0.058
G18 G3 X-3.212 Z13.65 I0. K-0.55 F1000.
G1 Z10.75
G2 X-2.662 Z10.2 I0.55 K0.
G1 X-2.64
X12.229 F3600.
G17 G3 X12.549 Y154.828 I0. J0.319
G1 Y157.032
G3 X12.229 Y157.352 I-0.319 J0.
G1 X-2.64
G3 X-2.915 Y157.077 I0. J-0.275
G1 X-2.921 Y151.882
G3 X-2.646 Y151.607 I0.275 J0.
G1 X15.45
Y160.253
X0.
X-2.641
G3 X-2.91 Y160.036 I0. J-0.275
G1 X-4.03 Y154.841
G3 X-3.762 Y154.508 I0.269 J-0.058
G18 G3 X-3.212 Z9.65 I0. K-0.55 F1000.
G2 X-2.662 Z9.1 I0.55 K0.
G1 X-2.64
X12.229 F3600.
G17 G3 X12.549 Y154.828 I0. J0.319
G1 Y157.032
G3 X12.229 Y157.352 I-0.319 J0.
G1 X-2.64
G3 X-2.915 Y157.077 I0. J-0.275
G1 X-2.921 Y151.882
G3 X-2.646 Y151.607 I0.275 J0.
G1 X15.45
Y160.253
X0.
X-2.641
X-2.727 Y160.246 F1000.
X-5.443 Y159.816
X-5.528 Y159.803 Z9.107
X-5.611 Y159.789 Z9.127
X-5.69 Y159.777 Z9.16
X-5.762 Y159.765 Z9.205
X-5.827 Y159.755 Z9.261
X-5.883 Y159.746 Z9.327
X-5.927 Y159.739 Z9.4
X-5.96 Y159.734 Z9.48
X-5.98 Y159.731 Z9.564
X-5.986 Y159.73 Z9.65
G0 Z33.2

(2D CONTOUR4 2)
G0 X0.55 Y127.211
Z33.2
Z23.2
G1 Z22.2 F1200.
Z15.75
G19 G3 Y127.761 Z15.2 J0.55 K0.
G1 Y128.311 F1000.
G17 G3 X0. Y128.861 I-0.55 J0.
G2 X-2.75 Y131.611 I0. J2.75 F3600.
G1 Y181.203
G2 X0. Y183.953 I2.75 J0.
G1 X300.
G2 X302.75 Y181.203 I0. J-2.75
G1 Y131.611
G2 X300. Y128.861 I-2.75 J0.
G1 X101.668
X0.
G3 X-0.55 Y128.311 I0. J-0.55 F1000.
G1 Y127.761
G19 G2 Y127.211 Z15.75 J0. K0.55
G0 Z23.2
X0.55
G1 Z19.2 F1200.
Z12.75
G3 Y127.761 Z12.2 J0.55 K0.
G1 Y128.311 F1000.
G17 G3 X0. Y128.861 I-0.55 J0.
G2 X-2.75 Y131.611 I0. J2.75 F3600.
G1 Y181.203
G2 X0. Y183.953 I2.75 J0.
G1 X300.
G2 X302.75 Y181.203 I0. J-2.75
G1 Y131.611
G2 X300. Y128.861 I-2.75 J0.
G1 X101.668
X0.
G3 X-0.55 Y128.311 I0. J-0.55 F1000.
G1 Y127.761
G19 G2 Y127.211 Z12.75 J0. K0.55
G0 Z23.2
X0.55
G1 Z16.2 F1200.
Z9.75
G3 Y127.761 Z9.2 J0.55 K0.
G1 Y128.311 F1000.
G17 G3 X0. Y128.861 I-0.55 J0.
G2 X-2.75 Y131.611 I0. J2.75 F3600.
G1 Y181.203
G2 X0. Y183.953 I2.75 J0.
G1 X300.
G2 X302.75 Y181.203 I0. J-2.75
G1 Y131.611
G2 X300. Y128.861 I-2.75 J0.
G1 X101.668
X0.
G3 X-0.55 Y128.311 I0. J-0.55 F1000.
G1 Y127.761
G19 G2 Y127.211 Z9.75 J0. K0.55
G0 Z23.2
X0.55
G1 Z13.2 F1200.
Z6.75
G3 Y127.761 Z6.2 J0.55 K0.
G1 Y128.311 F1000.
G17 G3 X0. Y128.861 I-0.55 J0.
G2 X-2.75 Y131.611 I0. J2.75 F3600.
G1 Y181.203
G2 X0. Y183.953 I2.75 J0.
G1 X300.
G2 X302.75 Y181.203 I0. J-2.75
G1 Y131.611
G2 X300. Y128.861 I-2.75 J0.
G1 X101.668
X0.
G3 X-0.55 Y128.311 I0. J-0.55 F1000.
G1 Y127.761
G19 G2 Y127.211 Z6.75 J0. K0.55
G0 Z23.2
X0.55
G1 Z10.2 F1200.
Z3.75
G3 Y127.761 Z3.2 J0.55 K0.
G1 Y128.311 F1000.
G17 G3 X0. Y128.861 I-0.55 J0.
G2 X-2.75 Y131.611 I0. J2.75 F3600.
G1 Y181.203
G2 X0. Y183.953 I2.75 J0.
G1 X300.
G2 X302.75 Y181.203 I0. J-2.75
G1 Y131.611
G2 X300. Y128.861 I-2.75 J0.
G1 X101.668
X0.
G3 X-0.55 Y128.311 I0. J-0.55 F1000.
G1 Y127.761
G19 G2 Y127.211 Z3.75 J0. K0.55
G0 Z23.2
X0.55
G1 Z7.2 F1200.
Z2.15
G3 Y127.761 Z1.6 J0.55 K0.
G1 Y128.311 F1000.
G17 G3 X0. Y128.861 I-0.55 J0.
G2 X-2.75 Y131.611 I0. J2.75 F3600.
G1 Y181.203
G2 X0. Y183.953 I2.75 J0.
G1 X300.
G2 X302.75 Y181.203 I0. J-2.75
G1 Y131.611
G2 X300. Y128.861 I-2.75 J0.
G1 X101.668
X0.
G3 X-0.55 Y128.311 I0. J-0.55 F1000.
G1 Y127.761
G19 G2 Y127.211 Z2.15 J0. K0.55
G0 Z23.2
X0.55
G1 Z5.6 F1200.
Z0.55
G3 Y127.761 Z0. J0.55 K0.
G1 Y128.311 F1000.
G17 G3 X0. Y128.861 I-0.55 J0.
G2 X-2.75 Y131.611 I0. J2.75 F3600.
G1 Y181.203
G2 X0. Y183.953 I2.75 J0.
G1 X300.
G2 X302.75 Y181.203 I0. J-2.75
G1 Y131.611
G2 X300. Y128.861 I-2.75 J0.
G1 X101.668
X0.
G3 X-0.55 Y128.311 I0. J-0.55 F1000.
G1 Y127.761
G19 G2 Y127.211 Z0.55 J0. K0.55
G0 Z23.2
X3.773 Y68.66
G1 Z22.2 F1200.
Z15.75
X3.78 Z15.664
X3.8 Y68.661 Z15.58
X3.833 Z15.5
X3.878 Y68.662 Z15.427
X3.934 Y68.663 Z15.361
X4. Y68.665 Z15.305
X4.074 Y68.667 Z15.26
X4.153 Y68.668 Z15.227
X4.237 Y68.67 Z15.207
X4.323 Y68.672 Z15.2
X4.873 Y68.684 F1000.
G17 G3 X5.411 Y69.246 I-0.012 J0.55
G1 X5.414 Y69.451 F3600.
X6.197 Y84.404
X-0.144 Y84.736
G2 X-2.746 Y87.626 I0.144 J2.746
G1 X-2.006 Y101.752
G2 X0.884 Y104.354 I2.746 J-0.144
G1 X7.226 Y104.022
X8.034 Y119.451
G2 X10.78 Y122.057 I2.746 J-0.144
G1 X101.668
G2 X104.418 Y119.307 I0. J-2.75
G1 Y106.315
G2 X96.02 Y94.331 I-12.75 J0.
G1 X28.255 Y69.725
G2 X10.251 Y66.557 I-18.004 J49.582
G1 X8.16
G2 X5.411 Y69.246 I0. J2.75
G3 X4.849 Y69.784 I-0.55 J-0.012 F1000.
G1 X4.299 Y69.772
X4.213 Y69.77 Z15.207
X4.129 Y69.768 Z15.227
X4.049 Y69.766 Z15.26
X3.976 Y69.765 Z15.305
X3.91 Y69.763 Z15.361
X3.854 Y69.762 Z15.427
X3.809 Y69.761 Z15.5
X3.776 Y69.76 Z15.58
X3.756 Z15.664
X3.749 Z15.75
G0 Z23.2
X3.773 Y68.66
G1 Z19.2 F1200.
Z12.75
X3.78 Z12.664
X3.8 Y68.661 Z12.58
X3.833 Z12.5
X3.878 Y68.662 Z12.427
X3.934 Y68.663 Z12.361
X4. Y68.665 Z12.305
X4.074 Y68.667 Z12.26
X4.153 Y68.668 Z12.227
X4.237 Y68.67 Z12.207
X4.323 Y68.672 Z12.2
X4.873 Y68.684 F1000.
G3 X5.411 Y69.246 I-0.012 J0.55
G1 X5.414 Y69.451 F3600.
X6.197 Y84.404
X-0.144 Y84.736
G2 X-2.746 Y87.626 I0.144 J2.746
G1 X-2.006 Y101.752
G2 X0.884 Y104.354 I2.746 J-0.144
G1 X7.226 Y104.022
X8.034 Y119.451
G2 X10.78 Y122.057 I2.746 J-0.144
G1 X101.668
G2 X104.418 Y119.307 I0. J-2.75
G1 Y106.315
G2 X96.02 Y94.331 I-12.75 J0.
G1 X28.255 Y69.725
G2 X10.251 Y66.557 I-18.004 J49.582
G1 X8.16
G2 X5.411 Y69.246 I0. J2.75
G3 X4.849 Y69.784 I-0.55 J-0.012 F1000.
G1 X4.299 Y69.772
X4.213 Y69.77 Z12.207
X4.129 Y69.768 Z12.227
X4.049 Y69.766 Z12.26
X3.976 Y69.765 Z12.305
X3.91 Y69.763 Z12.361
X3.854 Y69.762 Z12.427
X3.809 Y69.761 Z12.5
X3.776 Y69.76 Z12.58
X3.756 Z12.664
X3.749 Z12.75
G0 Z23.2
X3.773 Y68.66
G1 Z16.2 F1200.
Z9.75
X3.78 Z9.664
X3.8 Y68.661 Z9.58
X3.833 Z9.5
X3.878 Y68.662 Z9.427
X3.934 Y68.663 Z9.361
X4. Y68.665 Z9.305
X4.074 Y68.667 Z9.26
X4.153 Y68.668 Z9.227
X4.237 Y68.67 Z9.207
X4.323 Y68.672 Z9.2
X4.873 Y68.684 F1000.
G3 X5.411 Y69.246 I-0.012 J0.55
G1 X5.414 Y69.451 F3600.
X6.197 Y84.404
X-0.144 Y84.736
G2 X-2.746 Y87.626 I0.144 J2.746
G1 X-2.006 Y101.752
G2 X0.884 Y104.354 I2.746 J-0.144
G1 X7.226 Y104.022
X8.034 Y119.451
G2 X10.78 Y122.057 I2.746 J-0.144
G1 X101.668
G2 X104.418 Y119.307 I0. J-2.75
G1 Y106.315
G2 X96.02 Y94.331 I-12.75 J0.
G1 X28.255 Y69.725
G2 X10.251 Y66.557 I-18.004 J49.582
G1 X8.16
G2 X5.411 Y69.246 I0. J2.75
G3 X4.849 Y69.784 I-0.55 J-0.012 F1000.
G1 X4.299 Y69.772
X4.213 Y69.77 Z9.207
X4.129 Y69.768 Z9.227
X4.049 Y69.766 Z9.26
X3.976 Y69.765 Z9.305
X3.91 Y69.763 Z9.361
X3.854 Y69.762 Z9.427
X3.809 Y69.761 Z9.5
X3.776 Y69.76 Z9.58
X3.756 Z9.664
X3.749 Z9.75
G0 Z23.2
X3.773 Y68.66
G1 Z13.2 F1200.
Z6.75
X3.78 Z6.664
X3.8 Y68.661 Z6.58
X3.833 Z6.5
X3.878 Y68.662 Z6.427
X3.934 Y68.663 Z6.361
X4. Y68.665 Z6.305
X4.074 Y68.667 Z6.26
X4.153 Y68.668 Z6.227
X4.237 Y68.67 Z6.207
X4.323 Y68.672 Z6.2
X4.873 Y68.684 F1000.
G3 X5.411 Y69.246 I-0.012 J0.55
G1 X5.414 Y69.451 F3600.
X6.197 Y84.404
X-0.144 Y84.736
G2 X-2.746 Y87.626 I0.144 J2.746
G1 X-2.006 Y101.752
G2 X0.884 Y104.354 I2.746 J-0.144
G1 X7.226 Y104.022
X8.034 Y119.451
G2 X10.78 Y122.057 I2.746 J-0.144
G1 X101.668
G2 X104.418 Y119.307 I0. J-2.75
G1 Y106.315
G2 X96.02 Y94.331 I-12.75 J0.
G1 X28.255 Y69.725
G2 X10.251 Y66.557 I-18.004 J49.582
G1 X8.16
G2 X5.411 Y69.246 I0. J2.75
G3 X4.849 Y69.784 I-0.55 J-0.012 F1000.
G1 X4.299 Y69.772
X4.213 Y69.77 Z6.207
X4.129 Y69.768 Z6.227
X4.049 Y69.766 Z6.26
X3.976 Y69.765 Z6.305
X3.91 Y69.763 Z6.361
X3.854 Y69.762 Z6.427
X3.809 Y69.761 Z6.5
X3.776 Y69.76 Z6.58
X3.756 Z6.664
X3.749 Z6.75
G0 Z23.2
X3.773 Y68.66
G1 Z10.2 F1200.
Z3.75
X3.78 Z3.664
X3.8 Y68.661 Z3.58
X3.833 Z3.5
X3.878 Y68.662 Z3.427
X3.934 Y68.663 Z3.361
X4. Y68.665 Z3.305
X4.074 Y68.667 Z3.26
X4.153 Y68.668 Z3.227
X4.237 Y68.67 Z3.207
X4.323 Y68.672 Z3.2
X4.873 Y68.684 F1000.
G3 X5.411 Y69.246 I-0.012 J0.55
G1 X5.414 Y69.451 F3600.
X6.197 Y84.404
X-0.144 Y84.736
G2 X-2.746 Y87.626 I0.144 J2.746
G1 X-2.006 Y101.752
G2 X0.884 Y104.354 I2.746 J-0.144
G1 X7.226 Y104.022
X8.034 Y119.451
G2 X10.78 Y122.057 I2.746 J-0.144
G1 X101.668
G2 X104.418 Y119.307 I0. J-2.75
G1 Y106.315
G2 X96.02 Y94.331 I-12.75 J0.
G1 X28.255 Y69.725
G2 X10.251 Y66.557 I-18.004 J49.582
G1 X8.16
G2 X5.411 Y69.246 I0. J2.75
G3 X4.849 Y69.784 I-0.55 J-0.012 F1000.
G1 X4.299 Y69.772
X4.213 Y69.77 Z3.207
X4.129 Y69.768 Z3.227
X4.049 Y69.766 Z3.26
X3.976 Y69.765 Z3.305
X3.91 Y69.763 Z3.361
X3.854 Y69.762 Z3.427
X3.809 Y69.761 Z3.5
X3.776 Y69.76 Z3.58
X3.756 Z3.664
X3.749 Z3.75
G0 Z23.2
X3.773 Y68.66
G1 Z7.2 F1200.
Z2.15
X3.78 Z2.064
X3.8 Y68.661 Z1.98
X3.833 Z1.9
X3.878 Y68.662 Z1.827
X3.934 Y68.663 Z1.761
X4. Y68.665 Z1.705
X4.074 Y68.667 Z1.66
X4.153 Y68.668 Z1.627
X4.237 Y68.67 Z1.607
X4.323 Y68.672 Z1.6
X4.873 Y68.684 F1000.
G3 X5.411 Y69.246 I-0.012 J0.55
G1 X5.414 Y69.451 F3600.
X6.197 Y84.404
X-0.144 Y84.736
G2 X-2.746 Y87.626 I0.144 J2.746
G1 X-2.699 Y88.529
Z2.
X-2.123 Y99.514
Z1.6 F1200.
X-2.006 Y101.752 F3600.
G2 X0.884 Y104.354 I2.746 J-0.144
G1 X7.226 Y104.022
X8.034 Y119.451
G2 X10.78 Y122.057 I2.746 J-0.144
G1 X48.095
Z2.
X59.095
Z1.6 F1200.
X101.668 F3600.
G2 X104.418 Y119.307 I0. J-2.75
G1 Y118.134
Z2.
Y107.134
Z1.6 F1200.
Y106.315 F3600.
G2 X96.02 Y94.331 I-12.75 J0.
G1 X60.025 Y81.261
Z2.
X49.686 Y77.506
Z1.6 F1200.
X28.255 Y69.725 F3600.
G2 X10.251 Y66.557 I-18.004 J49.582
G1 X8.16
G2 X5.411 Y69.246 I0. J2.75
G3 X4.849 Y69.784 I-0.55 J-0.012 F1000.
G1 X4.299 Y69.772
X4.213 Y69.77 Z1.607
X4.129 Y69.768 Z1.627
X4.049 Y69.766 Z1.66
X3.976 Y69.765 Z1.705
X3.91 Y69.763 Z1.761
X3.854 Y69.762 Z1.827
X3.809 Y69.761 Z1.9
X3.776 Y69.76 Z1.98
X3.756 Z2.064
X3.749 Z2.15
G0 Z23.2
X3.773 Y68.66
G1 Z5.6 F1200.
Z0.55
X3.78 Z0.464
X3.8 Y68.661 Z0.38
X3.833 Z0.3
X3.878 Y68.662 Z0.227
X3.934 Y68.663 Z0.161
X4. Y68.665 Z0.105
X4.074 Y68.667 Z0.06
X4.153 Y68.668 Z0.027
X4.237 Y68.67 Z0.007
X4.323 Y68.672 Z0.
X4.873 Y68.684 F1000.
G3 X5.411 Y69.246 I-0.012 J0.55
G1 X5.414 Y69.451 F3600.
X6.197 Y84.404
X-0.144 Y84.736
G2 X-2.746 Y87.626 I0.144 J2.746
G1 X-2.699 Y88.529
Z2.
X-2.123 Y99.514
Z0. F1200.
X-2.006 Y101.752 F3600.
G2 X0.884 Y104.354 I2.746 J-0.144
G1 X7.226 Y104.022
X8.034 Y119.451
G2 X10.78 Y122.057 I2.746 J-0.144
G1 X48.095
Z2.
X59.095
Z0. F1200.
X101.668 F3600.
G2 X104.418 Y119.307 I0. J-2.75
G1 Y118.134
Z2.
Y107.134
Z0. F1200.
Y106.315 F3600.
G2 X96.02 Y94.331 I-12.75 J0.
G1 X60.025 Y81.261
Z2.
X49.686 Y77.506
Z0. F1200.
X28.255 Y69.725 F3600.
G2 X10.251 Y66.557 I-18.004 J49.582
G1 X8.16
G2 X5.411 Y69.246 I0. J2.75
G3 X4.849 Y69.784 I-0.55 J-0.012 F1000.
G1 X4.299 Y69.772
X4.213 Y69.77 Z0.007
X4.129 Y69.768 Z0.027
X4.049 Y69.766 Z0.06
X3.976 Y69.765 Z0.105
X3.91 Y69.763 Z0.161
X3.854 Y69.762 Z0.227
X3.809 Y69.761 Z0.3
X3.776 Y69.76 Z0.38
X3.756 Z0.464
X3.749 Z0.55
G0 Z23.2
X90.338 Y54.4
G1 Z22.2 F1200.
Z15.75
G19 G2 Y53.85 Z15.2 J-0.55 K0.
G1 Y53.3 F1000.
G17 G3 X90.888 Y52.75 I0.55 J0.
G2 X93.634 Y50.144 I0. J-2.75 F3600.
G1 X94.442 Y34.715
X100.784 Y35.047
G2 X103.674 Y32.445 I0.144 J-2.746
G1 X104.414 Y18.319
G2 X101.812 Y15.429 I-2.746 J-0.144
G1 X95.471 Y15.097
X96.254 Y0.144
G2 X93.508 Y-2.75 I-2.746 J-0.144
G1 X91.417
G2 X73.413 Y0.417 I0. J52.75
G1 X5.648 Y25.023
G2 X-2.75 Y37.008 I4.352 J11.984
G1 Y50.
G2 X0. Y52.75 I2.75 J0.
G1 X90.888
G3 X91.438 Y53.3 I0. J0.55 F1000.
G1 Y53.85
G19 G3 Y54.4 Z15.75 J0. K0.55
G0 Z23.2
X90.338
G1 Z19.2 F1200.
Z12.75
G2 Y53.85 Z12.2 J-0.55 K0.
G1 Y53.3 F1000.
G17 G3 X90.888 Y52.75 I0.55 J0.
G2 X93.634 Y50.144 I0. J-2.75 F3600.
G1 X94.442 Y34.715
X100.784 Y35.047
G2 X103.674 Y32.445 I0.144 J-2.746
G1 X104.414 Y18.319
G2 X101.812 Y15.429 I-2.746 J-0.144
G1 X95.471 Y15.097
X96.254 Y0.144
G2 X93.508 Y-2.75 I-2.746 J-0.144
G1 X91.417
G2 X73.413 Y0.417 I0. J52.75
G1 X5.648 Y25.023
G2 X-2.75 Y37.008 I4.352 J11.984
G1 Y50.
G2 X0. Y52.75 I2.75 J0.
G1 X90.888
G3 X91.438 Y53.3 I0. J0.55 F1000.
G1 Y53.85
G19 G3 Y54.4 Z12.75 J0. K0.55
G0 Z23.2
X90.338
G1 Z16.2 F1200.
Z9.75
G2 Y53.85 Z9.2 J-0.55 K0.
G1 Y53.3 F1000.
G17 G3 X90.888 Y52.75 I0.55 J0.
G2 X93.634 Y50.144 I0. J-2.75 F3600.
G1 X94.442 Y34.715
X100.784 Y35.047
G2 X103.674 Y32.445 I0.144 J-2.746
G1 X104.414 Y18.319
G2 X101.812 Y15.429 I-2.746 J-0.144
G1 X95.471 Y15.097
X96.254 Y0.144
G2 X93.508 Y-2.75 I-2.746 J-0.144
G1 X91.417
G2 X73.413 Y0.417 I0. J52.75
G1 X5.648 Y25.023
G2 X-2.75 Y37.008 I4.352 J11.984
G1 Y50.
G2 X0. Y52.75 I2.75 J0.
G1 X90.888
G3 X91.438 Y53.3 I0. J0.55 F1000.
G1 Y53.85
G19 G3 Y54.4 Z9.75 J0. K0.55
G0 Z23.2
X90.338
G1 Z13.2 F1200.
Z6.75
G2 Y53.85 Z6.2 J-0.55 K0.
G1 Y53.3 F1000.
G17 G3 X90.888 Y52.75 I0.55 J0.
G2 X93.634 Y50.144 I0. J-2.75 F3600.
G1 X94.442 Y34.715
X100.784 Y35.047
G2 X103.674 Y32.445 I0.144 J-2.746
G1 X104.414 Y18.319
G2 X101.812 Y15.429 I-2.746 J-0.144
G1 X95.471 Y15.097
X96.254 Y0.144
G2 X93.508 Y-2.75 I-2.746 J-0.144
G1 X91.417
G2 X73.413 Y0.417 I0. J52.75
G1 X5.648 Y25.023
G2 X-2.75 Y37.008 I4.352 J11.984
G1 Y50.
G2 X0. Y52.75 I2.75 J0.
G1 X90.888
G3 X91.438 Y53.3 I0. J0.55 F1000.
G1 Y53.85
G19 G3 Y54.4 Z6.75 J0. K0.55
G0 Z23.2
X90.338
G1 Z10.2 F1200.
Z3.75
G2 Y53.85 Z3.2 J-0.55 K0.
G1 Y53.3 F1000.
G17 G3 X90.888 Y52.75 I0.55 J0.
G2 X93.634 Y50.144 I0. J-2.75 F3600.
G1 X94.442 Y34.715
X100.784 Y35.047
G2 X103.674 Y32.445 I0.144 J-2.746
G1 X104.414 Y18.319
G2 X101.812 Y15.429 I-2.746 J-0.144
G1 X95.471 Y15.097
X96.254 Y0.144
G2 X93.508 Y-2.75 I-2.746 J-0.144
G1 X91.417
G2 X73.413 Y0.417 I0. J52.75
G1 X5.648 Y25.023
G2 X-2.75 Y37.008 I4.352 J11.984
G1 Y50.
G2 X0. Y52.75 I2.75 J0.
G1 X90.888
G3 X91.438 Y53.3 I0. J0.55 F1000.
G1 Y53.85
G19 G3 Y54.4 Z3.75 J0. K0.55
G0 Z23.2
X90.338
G1 Z7.2 F1200.
Z2.15
G2 Y53.85 Z1.6 J-0.55 K0.
G1 Y53.3 F1000.
G17 G3 X90.888 Y52.75 I0.55 J0.
G2 X93.634 Y50.144 I0. J-2.75 F3600.
G1 X94.442 Y34.715
X100.784 Y35.047
G2 X103.674 Y32.445 I0.144 J-2.746
G1 X103.772 Y30.576
Z2.
X104.348 Y19.591
Z1.6 F1200.
X104.414 Y18.319 F3600.
G2 X101.812 Y15.429 I-2.746 J-0.144
G1 X95.471 Y15.097
X96.254 Y0.144
G2 X93.508 Y-2.75 I-2.746 J-0.144
G1 X91.417
G2 X73.413 Y0.417 I0. J52.75
G1 X46.149 Y10.317
Z2.
X35.809 Y14.072
Z1.6 F1200.
X5.648 Y25.023 F3600.
G2 X-2.732 Y36.325 I4.352 J11.984
G1 Z2.
G2 X-2.75 Y37.008 I12.732 J0.683
G1 Y47.325
Z1.6 F1200.
Y50. F3600.
G2 X0. Y52.75 I2.75 J0.
G1 X43.434
Z2.
X54.434
Z1.6 F1200.
X90.888 F3600.
G3 X91.438 Y53.3 I0. J0.55 F1000.
G1 Y53.85
G19 G3 Y54.4 Z2.15 J0. K0.55
G0 Z23.2
X90.338
G1 Z5.6 F1200.
Z0.55
G2 Y53.85 Z0. J-0.55 K0.
G1 Y53.3 F1000.
G17 G3 X90.888 Y52.75 I0.55 J0.
G2 X93.634 Y50.144 I0. J-2.75 F3600.
G1 X94.442 Y34.715
X100.784 Y35.047
G2 X103.674 Y32.445 I0.144 J-2.746
G1 X103.772 Y30.576
Z2.
X104.348 Y19.591
Z0. F1200.
X104.414 Y18.319 F3600.
G2 X101.812 Y15.429 I-2.746 J-0.144
G1 X95.471 Y15.097
X96.254 Y0.144
G2 X93.508 Y-2.75 I-2.746 J-0.144
G1 X91.417
G2 X73.413 Y0.417 I0. J52.75
G1 X46.149 Y10.317
Z2.
X35.809 Y14.072
Z0. F1200.
X5.648 Y25.023 F3600.
G2 X-2.732 Y36.325 I4.352 J11.984
G1 Z2.
G2 X-2.75 Y37.008 I12.732 J0.683
G1 Y47.325
Z0. F1200.
Y50. F3600.
G2 X0. Y52.75 I2.75 J0.
G1 X43.434
Z2.
X54.434
Z0. F1200.
X90.888 F3600.
G3 X91.438 Y53.3 I0. J0.55 F1000.
G1 Y53.85
G19 G3 Y54.4 Z0.55 J0. K0.55
G0 Z33.2
G17

M9
G28 G91 Z0.
G90
G28 G91 X0. Y0.
G90
M30
