(1001)
(1)
(T24  D=4. CR=0. TAPER=118DEG - ZMIN=-2.702 - DRILL)
(T43  D=12.5 CR=0. - ZMIN=3. - SLOT MILL)
(T142  D=3.8 CR=0. - ZMIN=0. - FLAT END MILL)
G90 G94 G91.1 G40 G49 G17
G21
G28 G91 Z0.
G90

(DRILL3 3)
M5
M9
T24 M6
S8000 M3
G54
M8
G0 X223.794 Y68.613
Z33.2
Z23.2
G98 G83 X223.794 Y68.613 Z-2.702 R23.2 Q4. F800.
X183.387 Y70.88
X172.886 Y58.46
X144.605 Y58.067
X133.763 Y70.189
X93.435 Y66.799
X94.091 Y19.632
X134.498 Y17.366
X144.999 Y29.785
X173.28 Y30.179
X184.122 Y18.056
X224.45 Y21.446
G80
Z33.2
G28 G91 Z0.
G90

(2D CONTOUR4 2)
M5
M9
M1
T142 M6
S12000 M3
G54
M8
G0 X170.902 Y43.742
Z33.2
Z23.2
G1 Z22.2 F1200.
Z15.58
G18 G2 X171.282 Z15.2 I0.38 K0.
G1 X171.662 F1000.
G17 G3 X172.042 Y44.122 I0. J0.38
X145.842 Y44.123 I-13.1 J0. F3600.
X172.042 Y44.122 I13.1 J0.
X171.662 Y44.502 I-0.38 J0. F1000.
G1 X171.282
G18 G3 X170.902 Z15.58 I0. K0.38
G0 Z23.2
Y43.742
G1 Z19.2 F1200.
Z12.58
G2 X171.282 Z12.2 I0.38 K0.
G1 X171.662 F1000.
G17 G3 X172.042 Y44.122 I0. J0.38
X145.842 Y44.123 I-13.1 J0. F3600.
X172.042 Y44.122 I13.1 J0.
X171.662 Y44.502 I-0.38 J0. F1000.
G1 X171.282
G18 G3 X170.902 Z12.58 I0. K0.38
G0 Z23.2
Y43.742
G1 Z16.2 F1200.
Z9.58
G2 X171.282 Z9.2 I0.38 K0.
G1 X171.662 F1000.
G17 G3 X172.042 Y44.122 I0. J0.38
X145.842 Y44.123 I-13.1 J0. F3600.
X172.042 Y44.122 I13.1 J0.
X171.662 Y44.502 I-0.38 J0. F1000.
G1 X171.282
G18 G3 X170.902 Z9.58 I0. K0.38
G0 Z23.2
Y43.742
G1 Z13.2 F1200.
Z6.58
G2 X171.282 Z6.2 I0.38 K0.
G1 X171.662 F1000.
G17 G3 X172.042 Y44.122 I0. J0.38
X145.842 Y44.123 I-13.1 J0. F3600.
X172.042 Y44.122 I13.1 J0.
X171.662 Y44.502 I-0.38 J0. F1000.
G1 X171.282
G18 G3 X170.902 Z6.58 I0. K0.38
G0 Z23.2
Y43.742
G1 Z10.2 F1200.
Z3.58
G2 X171.282 Z3.2 I0.38 K0.
G1 X171.662 F1000.
G17 G3 X172.042 Y44.122 I0. J0.38
X145.842 Y44.123 I-13.1 J0. F3600.
X172.042 Y44.122 I13.1 J0.
X171.662 Y44.502 I-0.38 J0. F1000.
G1 X171.282
G18 G3 X170.902 Z3.58 I0. K0.38
G0 Z23.2
Y43.742
G1 Z7.2 F1200.
Z1.98
G2 X171.282 Z1.6 I0.38 K0.
G1 X171.662 F1000.
G17 G3 X172.042 Y44.122 I0. J0.38
X145.842 Y44.123 I-13.1 J0. F3600.
X172.042 Y44.122 I13.1 J0.
X171.662 Y44.502 I-0.38 J0. F1000.
G1 X171.282
G18 G3 X170.902 Z1.98 I0. K0.38
G0 Z23.2
Y43.742
G1 Z5.6 F1200.
Z0.38
G2 X171.282 Z0. I0.38 K0.
G1 X171.662 F1000.
G17 G3 X172.042 Y44.122 I0. J0.38
X145.842 Y44.123 I-13.1 J0. F3600.
X172.042 Y44.122 I13.1 J0.
X171.662 Y44.502 I-0.38 J0. F1000.
G1 X171.282
G18 G3 X170.902 Z0.38 I0. K0.38
G0 Z23.2
X203.747 Y32.625
G1 Z22.2 F1200.
Z15.58
X203.739 Z15.506
X203.718 Z15.435
X203.683 Y32.624 Z15.369
X203.635 Z15.311
X203.578 Y32.623 Z15.264
X203.512 Y32.622 Z15.229
X203.441 Y32.621 Z15.207
X203.367 Y32.62 Z15.2
X202.987 Y32.615 F1000.
G17 G3 X202.612 Y32.23 I0.005 J-0.38
G1 X202.786 Y19.73 F3600.
G2 X200.912 Y17.804 I-1.9 J-0.026
G1 X185.542 Y17.59
G2 X184.192 Y18.128 I-0.026 J1.9
G1 X184.159 Y18.149
X184.12 Y18.156
X184.082 Y18.148
X184.05 Y18.126
X184.029 Y18.093
X184.022 Y18.055
X184.03 Y18.016
X184.052 Y17.984
G2 X184.627 Y16.649 I-1.325 J-1.362
G1 X184.841 Y1.279
G2 X182.967 Y-0.647 I-1.9 J-0.026
G1 X136.172 Y-1.299
G2 X134.246 Y0.575 I-0.026 J1.9
G1 X134.032 Y15.945
G2 X134.57 Y17.296 I1.9 J0.026
G1 X134.591 Y17.329
X134.598 Y17.367
X134.59 Y17.405
X134.568 Y17.438
X134.535 Y17.459
X134.497 Y17.466
X134.458 Y17.458
X134.426 Y17.436
G2 X133.09 Y16.86 I-1.362 J1.325
G1 X117.72 Y16.646
G2 X115.794 Y18.52 I-0.026 J1.9
G1 X115.099 Y68.515
G2 X116.973 Y70.441 I1.9 J0.026
G1 X132.343 Y70.655
G2 X133.693 Y70.117 I0.026 J-1.9
G1 X133.726 Y70.096
X133.764 Y70.089
X133.802 Y70.097
X133.834 Y70.119
X133.856 Y70.152
X133.863 Y70.19
X133.855 Y70.228
X133.832 Y70.26
G2 X133.257 Y71.596 I1.325 J1.362
G1 X133.044 Y86.966
G2 X134.918 Y88.893 I1.9 J0.026
G1 X181.713 Y89.544
G2 X183.639 Y87.671 I0.026 J-1.9
G1 X183.853 Y72.3
G2 X183.315 Y70.95 I-1.9 J-0.026
G1 X183.294 Y70.917
X183.287 Y70.879
X183.295 Y70.84
X183.317 Y70.808
X183.35 Y70.787
X183.388 Y70.78
X183.426 Y70.788
X183.458 Y70.81
G2 X184.794 Y71.385 I1.362 J-1.325
G1 X200.165 Y71.599
G2 X202.091 Y69.726 I0.026 J-1.9
G1 X202.612 Y32.23
G3 X202.997 Y31.855 I0.38 J0.005 F1000.
G1 X203.377 Y31.86
X203.451 Y31.861 Z15.207
X203.523 Y31.862 Z15.229
X203.588 Y31.863 Z15.264
X203.646 Y31.864 Z15.311
X203.693 Y31.865 Z15.369
X203.728 Z15.435
X203.75 Z15.506
X203.757 Z15.58
G0 Z23.2
X222.676 Y32.129
G1 Z22.2 F1200.
Z15.58
X222.683 Z15.506
X222.705 Z15.435
X222.74 Y32.13 Z15.369
X222.787 Z15.311
X222.845 Y32.131 Z15.264
X222.91 Y32.132 Z15.229
X222.982 Y32.133 Z15.207
X223.056 Y32.134 Z15.2
X223.436 Y32.139 F1000.
G3 X223.81 Y32.525 I-0.005 J0.38
G1 X223.327 Y67.192 F3600.
G2 X223.865 Y68.544 I1.9 J0.026
G1 X223.886 Y68.576
X223.894 Y68.615
X223.886 Y68.653
X223.864 Y68.685
X223.831 Y68.706
X223.793 Y68.713
X223.754 Y68.705
X223.722 Y68.683
G2 X222.386 Y68.108 I-1.362 J1.324
G1 X207.016 Y67.894
G2 X205.09 Y69.767 I-0.026 J1.9
G1 X204.837 Y87.966
G2 X206.711 Y89.892 I1.9 J0.026
G1 X224.909 Y90.145
X224.935
X275.531
G2 X319.649 Y50.745 I0. J-44.4
X315.827 Y46.406 I-3.875 J-0.439
G1 X309.793 Y46.322
G2 X305.872 Y49.715 I-0.054 J3.9
G3 X245.19 Y41.774 I-30.341 J-3.971
X305.971 Y42.621 I30.341 J3.971
G2 X309.797 Y46.122 I3.88 J-0.398
G1 X315.83 Y46.206
G2 X319.771 Y41.976 I0.055 J-3.9
X276.767 Y1.362 I-44.24 J3.77
G1 X226.19 Y-0.046
X226.163
X207.965 Y-0.299
G2 X206.039 Y1.574 I-0.026 J1.9
G1 X205.786 Y19.772
G2 X207.66 Y21.698 I1.9 J0.026
G1 X223.03 Y21.912
G2 X224.38 Y21.375 I0.026 J-1.9
G1 X224.413 Y21.354
X224.452 Y21.347
X224.49 Y21.355
X224.522 Y21.377
X224.543 Y21.41
X224.55 Y21.448
X224.542 Y21.486
X224.52 Y21.518
G2 X223.945 Y22.854 I1.325 J1.362
G1 X223.81 Y32.525
G3 X223.425 Y32.899 I-0.38 J-0.005 F1000.
G1 X223.045 Y32.894
X222.971 Y32.893 Z15.207
X222.9 Y32.892 Z15.229
X222.834 Y32.891 Z15.264
X222.776 Y32.89 Z15.311
X222.729 Z15.369
X222.694 Y32.889 Z15.435
X222.673 Z15.506
X222.665 Z15.58
G0 Z23.2
X222.676 Y32.129
G1 Z19.2 F1200.
Z12.58
X222.683 Z12.506
X222.705 Z12.435
X222.74 Y32.13 Z12.369
X222.787 Z12.311
X222.845 Y32.131 Z12.264
X222.91 Y32.132 Z12.229
X222.982 Y32.133 Z12.207
X223.056 Y32.134 Z12.2
X223.436 Y32.139 F1000.
G3 X223.81 Y32.525 I-0.005 J0.38
G1 X223.327 Y67.192 F3600.
G2 X223.865 Y68.544 I1.9 J0.026
G1 X223.886 Y68.576
X223.894 Y68.615
X223.886 Y68.653
X223.864 Y68.685
X223.831 Y68.706
X223.793 Y68.713
X223.754 Y68.705
X223.722 Y68.683
G2 X222.386 Y68.108 I-1.362 J1.324
G1 X207.016 Y67.894
G2 X205.09 Y69.767 I-0.026 J1.9
G1 X204.837 Y87.966
G2 X206.711 Y89.892 I1.9 J0.026
G1 X224.909 Y90.145
X224.935
X275.531
G2 X319.649 Y50.745 I0. J-44.4
X315.827 Y46.406 I-3.875 J-0.439
G1 X309.793 Y46.322
G2 X305.872 Y49.715 I-0.054 J3.9
G3 X245.19 Y41.774 I-30.341 J-3.971
X305.971 Y42.621 I30.341 J3.971
G2 X309.797 Y46.122 I3.88 J-0.398
G1 X315.83 Y46.206
G2 X319.771 Y41.976 I0.055 J-3.9
X276.767 Y1.362 I-44.24 J3.77
G1 X226.19 Y-0.046
X226.163
X207.965 Y-0.299
G2 X206.039 Y1.574 I-0.026 J1.9
G1 X205.786 Y19.772
G2 X207.66 Y21.698 I1.9 J0.026
G1 X223.03 Y21.912
G2 X224.38 Y21.375 I0.026 J-1.9
G1 X224.413 Y21.354
X224.452 Y21.347
X224.49 Y21.355
X224.522 Y21.377
X224.543 Y21.41
X224.55 Y21.448
X224.542 Y21.486
X224.52 Y21.518
G2 X223.945 Y22.854 I1.325 J1.362
G1 X223.81 Y32.525
G3 X223.425 Y32.899 I-0.38 J-0.005 F1000.
G1 X223.045 Y32.894
X222.971 Y32.893 Z12.207
X222.9 Y32.892 Z12.229
X222.834 Y32.891 Z12.264
X222.776 Y32.89 Z12.311
X222.729 Z12.369
X222.694 Y32.889 Z12.435
X222.673 Z12.506
X222.665 Z12.58
G0 Z23.2
X110.621 Y65.412
G1 Z22.2 F1200.
Z15.58
Y65.42 Z15.506
Y65.441 Z15.435
X110.62 Y65.476 Z15.369
Y65.524 Z15.311
X110.619 Y65.581 Z15.264
X110.618 Y65.647 Z15.229
X110.617 Y65.718 Z15.207
X110.616 Y65.792 Z15.2
X110.611 Y66.172 F1000.
G3 X110.225 Y66.547 I-0.38 J-0.005
G1 X94.856 Y66.333 F3600.
G2 X93.505 Y66.871 I-0.026 J1.9
G1 X93.472 Y66.892
X93.433 Y66.899
X93.395 Y66.891
X93.363 Y66.869
X93.342 Y66.836
X93.335 Y66.798
X93.343 Y66.759
X93.365 Y66.727
G2 X93.94 Y65.392 I-1.325 J-1.362
G1 X94.557 Y21.053
G2 X94.02 Y19.702 I-1.9 J-0.026
G1 X93.998 Y19.669
X93.991 Y19.631
X93.999 Y19.592
X94.021 Y19.56
X94.054 Y19.539
X94.093 Y19.532
X94.131 Y19.54
X94.163 Y19.562
G2 X95.499 Y20.137 I1.362 J-1.325
G1 X110.869 Y20.351
G2 X112.795 Y18.478 I0.026 J-1.9
G1 X113.048 Y0.28
G2 X111.174 Y-1.647 I-1.9 J-0.026
G1 X92.977 Y-1.9
X92.95
X42.354
G2 X-1.764 Y37.5 I0. J44.4
X2.057 Y41.839 I3.875 J0.439
G1 X8.091 Y41.923
G2 X12.012 Y38.53 I0.054 J-3.9
G3 X72.695 Y46.471 I30.341 J3.971
X11.914 Y45.625 I-30.341 J-3.971
G2 X8.088 Y42.123 I-3.88 J0.398
G1 X2.054 Y42.039
G2 X-1.886 Y46.27 I-0.054 J3.9
X41.118 Y86.883 I44.24 J-3.77
G1 X91.695 Y88.291
X91.721
X109.92 Y88.545
G2 X111.846 Y86.671 I0.026 J-1.9
G1 X112.099 Y68.473
G2 X110.225 Y66.547 I-1.9 J-0.026
G3 X109.851 Y66.162 I0.005 J-0.38 F1000.
G1 X109.856 Y65.782
X109.857 Y65.708 Z15.207
X109.858 Y65.636 Z15.229
X109.859 Y65.571 Z15.264
X109.86 Y65.513 Z15.311
Y65.466 Z15.369
X109.861 Y65.431 Z15.435
Y65.409 Z15.506
Y65.402 Z15.58
G0 Z23.2
X110.621 Y65.412
G1 Z19.2 F1200.
Z12.58
Y65.42 Z12.506
Y65.441 Z12.435
X110.62 Y65.476 Z12.369
Y65.524 Z12.311
X110.619 Y65.581 Z12.264
X110.618 Y65.647 Z12.229
X110.617 Y65.718 Z12.207
X110.616 Y65.792 Z12.2
X110.611 Y66.172 F1000.
G3 X110.225 Y66.547 I-0.38 J-0.005
G1 X94.856 Y66.333 F3600.
G2 X93.505 Y66.871 I-0.026 J1.9
G1 X93.472 Y66.892
X93.433 Y66.899
X93.395 Y66.891
X93.363 Y66.869
X93.342 Y66.836
X93.335 Y66.798
X93.343 Y66.759
X93.365 Y66.727
G2 X93.94 Y65.392 I-1.325 J-1.362
G1 X94.557 Y21.053
G2 X94.02 Y19.702 I-1.9 J-0.026
G1 X93.998 Y19.669
X93.991 Y19.631
X93.999 Y19.592
X94.021 Y19.56
X94.054 Y19.539
X94.093 Y19.532
X94.131 Y19.54
X94.163 Y19.562
G2 X95.499 Y20.137 I1.362 J-1.325
G1 X110.869 Y20.351
G2 X112.795 Y18.478 I0.026 J-1.9
G1 X113.048 Y0.28
G2 X111.174 Y-1.647 I-1.9 J-0.026
G1 X92.977 Y-1.9
X92.95
X42.354
G2 X-1.764 Y37.5 I0. J44.4
X2.057 Y41.839 I3.875 J0.439
G1 X8.091 Y41.923
G2 X12.012 Y38.53 I0.054 J-3.9
G3 X72.695 Y46.471 I30.341 J3.971
X11.914 Y45.625 I-30.341 J-3.971
G2 X8.088 Y42.123 I-3.88 J0.398
G1 X2.054 Y42.039
G2 X-1.886 Y46.27 I-0.054 J3.9
X41.118 Y86.883 I44.24 J-3.77
G1 X91.695 Y88.291
X91.721
X109.92 Y88.545
G2 X111.846 Y86.671 I0.026 J-1.9
G1 X112.099 Y68.473
G2 X110.225 Y66.547 I-1.9 J-0.026
G3 X109.851 Y66.162 I0.005 J-0.38 F1000.
G1 X109.856 Y65.782
X109.857 Y65.708 Z12.207
X109.858 Y65.636 Z12.229
X109.859 Y65.571 Z12.264
X109.86 Y65.513 Z12.311
Y65.466 Z12.369
X109.861 Y65.431 Z12.435
Y65.409 Z12.506
Y65.402 Z12.58
G0 Z23.2
X114.138 Y55.62
G1 Z19.2 F1200.
Z12.58
X114.146 Z12.506
X114.167 Z12.435
X114.202 Y55.621 Z12.369
X114.25 Y55.622 Z12.311
X114.307 Z12.264
X114.373 Y55.623 Z12.229
X114.444 Y55.624 Z12.207
X114.518 Y55.625 Z12.2
X114.898 Y55.631 F1000.
G3 X115.273 Y56.016 I-0.005 J0.38
G1 X115.099 Y68.515 F3600.
G2 X116.973 Y70.441 I1.9 J0.026
G1 X132.343 Y70.655
G2 X133.693 Y70.117 I0.026 J-1.9
G1 X133.726 Y70.096
X133.764 Y70.089
X133.802 Y70.097
X133.834 Y70.119
X133.856 Y70.152
X133.863 Y70.19
X133.855 Y70.228
X133.832 Y70.26
G2 X133.257 Y71.596 I1.325 J1.362
G1 X133.044 Y86.966
G2 X134.918 Y88.893 I1.9 J0.026
G1 X181.713 Y89.544
G2 X183.639 Y87.671 I0.026 J-1.9
G1 X183.853 Y72.3
G2 X183.315 Y70.95 I-1.9 J-0.026
G1 X183.294 Y70.917
X183.287 Y70.879
X183.295 Y70.84
X183.317 Y70.808
X183.35 Y70.787
X183.388 Y70.78
X183.426 Y70.788
X183.458 Y70.81
G2 X184.794 Y71.385 I1.362 J-1.325
G1 X200.165 Y71.599
G2 X202.091 Y69.726 I0.026 J-1.9
G1 X202.786 Y19.73
G2 X200.912 Y17.804 I-1.9 J-0.026
G1 X185.542 Y17.59
G2 X184.192 Y18.128 I-0.026 J1.9
G1 X184.159 Y18.149
X184.12 Y18.156
X184.082 Y18.148
X184.05 Y18.126
X184.029 Y18.093
X184.022 Y18.055
X184.03 Y18.016
X184.052 Y17.984
G2 X184.627 Y16.649 I-1.325 J-1.362
G1 X184.841 Y1.279
G2 X182.967 Y-0.647 I-1.9 J-0.026
G1 X136.172 Y-1.299
G2 X134.246 Y0.575 I-0.026 J1.9
G1 X134.032 Y15.945
G2 X134.57 Y17.296 I1.9 J0.026
G1 X134.591 Y17.329
X134.598 Y17.367
X134.59 Y17.405
X134.568 Y17.438
X134.535 Y17.459
X134.497 Y17.466
X134.458 Y17.458
X134.426 Y17.436
G2 X133.09 Y16.86 I-1.362 J1.325
G1 X117.72 Y16.646
G2 X115.794 Y18.52 I-0.026 J1.9
G1 X115.273 Y56.016
G3 X114.888 Y56.391 I-0.38 J-0.005 F1000.
G1 X114.508 Y56.385
X114.434 Y56.384 Z12.207
X114.362 Y56.383 Z12.229
X114.297 Y56.382 Z12.264
X114.239 Z12.311
X114.192 Y56.381 Z12.369
X114.157 Y56.38 Z12.435
X114.135 Z12.506
X114.128 Z12.58
G0 Z23.2
X114.138 Y55.62
G1 Z16.2 F1200.
Z9.58
X114.146 Z9.506
X114.167 Z9.435
X114.202 Y55.621 Z9.369
X114.25 Y55.622 Z9.311
X114.307 Z9.264
X114.373 Y55.623 Z9.229
X114.444 Y55.624 Z9.207
X114.518 Y55.625 Z9.2
X114.898 Y55.631 F1000.
G3 X115.273 Y56.016 I-0.005 J0.38
G1 X115.099 Y68.515 F3600.
G2 X116.973 Y70.441 I1.9 J0.026
G1 X132.343 Y70.655
G2 X133.693 Y70.117 I0.026 J-1.9
G1 X133.726 Y70.096
X133.764 Y70.089
X133.802 Y70.097
X133.834 Y70.119
X133.856 Y70.152
X133.863 Y70.19
X133.855 Y70.228
X133.832 Y70.26
G2 X133.257 Y71.596 I1.325 J1.362
G1 X133.044 Y86.966
G2 X134.918 Y88.893 I1.9 J0.026
G1 X181.713 Y89.544
G2 X183.639 Y87.671 I0.026 J-1.9
G1 X183.853 Y72.3
G2 X183.315 Y70.95 I-1.9 J-0.026
G1 X183.294 Y70.917
X183.287 Y70.879
X183.295 Y70.84
X183.317 Y70.808
X183.35 Y70.787
X183.388 Y70.78
X183.426 Y70.788
X183.458 Y70.81
G2 X184.794 Y71.385 I1.362 J-1.325
G1 X200.165 Y71.599
G2 X202.091 Y69.726 I0.026 J-1.9
G1 X202.786 Y19.73
G2 X200.912 Y17.804 I-1.9 J-0.026
G1 X185.542 Y17.59
G2 X184.192 Y18.128 I-0.026 J1.9
G1 X184.159 Y18.149
X184.12 Y18.156
X184.082 Y18.148
X184.05 Y18.126
X184.029 Y18.093
X184.022 Y18.055
X184.03 Y18.016
X184.052 Y17.984
G2 X184.627 Y16.649 I-1.325 J-1.362
G1 X184.841 Y1.279
G2 X182.967 Y-0.647 I-1.9 J-0.026
G1 X136.172 Y-1.299
G2 X134.246 Y0.575 I-0.026 J1.9
G1 X134.032 Y15.945
G2 X134.57 Y17.296 I1.9 J0.026
G1 X134.591 Y17.329
X134.598 Y17.367
X134.59 Y17.405
X134.568 Y17.438
X134.535 Y17.459
X134.497 Y17.466
X134.458 Y17.458
X134.426 Y17.436
G2 X133.09 Y16.86 I-1.362 J1.325
G1 X117.72 Y16.646
G2 X115.794 Y18.52 I-0.026 J1.9
G1 X115.273 Y56.016
G3 X114.888 Y56.391 I-0.38 J-0.005 F1000.
G1 X114.508 Y56.385
X114.434 Y56.384 Z9.207
X114.362 Y56.383 Z9.229
X114.297 Y56.382 Z9.264
X114.239 Z9.311
X114.192 Y56.381 Z9.369
X114.157 Y56.38 Z9.435
X114.135 Z9.506
X114.128 Z9.58
G0 Z23.2
X110.621 Y65.412
G1 Z16.2 F1200.
Z9.58
Y65.42 Z9.506
Y65.441 Z9.435
X110.62 Y65.476 Z9.369
Y65.524 Z9.311
X110.619 Y65.581 Z9.264
X110.618 Y65.647 Z9.229
X110.617 Y65.718 Z9.207
X110.616 Y65.792 Z9.2
X110.611 Y66.172 F1000.
G3 X110.225 Y66.547 I-0.38 J-0.005
G1 X94.856 Y66.333 F3600.
G2 X93.505 Y66.871 I-0.026 J1.9
G1 X93.472 Y66.892
X93.433 Y66.899
X93.395 Y66.891
X93.363 Y66.869
X93.342 Y66.836
X93.335 Y66.798
X93.343 Y66.759
X93.365 Y66.727
G2 X93.94 Y65.392 I-1.325 J-1.362
G1 X94.557 Y21.053
G2 X94.02 Y19.702 I-1.9 J-0.026
G1 X93.998 Y19.669
X93.991 Y19.631
X93.999 Y19.592
X94.021 Y19.56
X94.054 Y19.539
X94.093 Y19.532
X94.131 Y19.54
X94.163 Y19.562
G2 X95.499 Y20.137 I1.362 J-1.325
G1 X110.869 Y20.351
G2 X112.795 Y18.478 I0.026 J-1.9
G1 X113.048 Y0.28
G2 X111.174 Y-1.647 I-1.9 J-0.026
G1 X92.977 Y-1.9
X92.95
X42.354
G2 X-1.764 Y37.5 I0. J44.4
X2.057 Y41.839 I3.875 J0.439
G1 X8.091 Y41.923
G2 X12.012 Y38.53 I0.054 J-3.9
G3 X72.695 Y46.471 I30.341 J3.971
X11.914 Y45.625 I-30.341 J-3.971
G2 X8.088 Y42.123 I-3.88 J0.398
G1 X2.054 Y42.039
G2 X-1.886 Y46.27 I-0.054 J3.9
X41.118 Y86.883 I44.24 J-3.77
G1 X91.695 Y88.291
X91.721
X109.92 Y88.545
G2 X111.846 Y86.671 I0.026 J-1.9
G1 X112.099 Y68.473
G2 X110.225 Y66.547 I-1.9 J-0.026
G3 X109.851 Y66.162 I0.005 J-0.38 F1000.
G1 X109.856 Y65.782
X109.857 Y65.708 Z9.207
X109.858 Y65.636 Z9.229
X109.859 Y65.571 Z9.264
X109.86 Y65.513 Z9.311
Y65.466 Z9.369
X109.861 Y65.431 Z9.435
Y65.409 Z9.506
Y65.402 Z9.58
G0 Z23.2
X110.621 Y65.412
G1 Z13.2 F1200.
Z6.58
Y65.42 Z6.506
Y65.441 Z6.435
X110.62 Y65.476 Z6.369
Y65.524 Z6.311
X110.619 Y65.581 Z6.264
X110.618 Y65.647 Z6.229
X110.617 Y65.718 Z6.207
X110.616 Y65.792 Z6.2
X110.611 Y66.172 F1000.
G3 X110.225 Y66.547 I-0.38 J-0.005
G1 X94.856 Y66.333 F3600.
G2 X93.505 Y66.871 I-0.026 J1.9
G1 X93.472 Y66.892
X93.433 Y66.899
X93.395 Y66.891
X93.363 Y66.869
X93.342 Y66.836
X93.335 Y66.798
X93.343 Y66.759
X93.365 Y66.727
G2 X93.94 Y65.392 I-1.325 J-1.362
G1 X94.557 Y21.053
G2 X94.02 Y19.702 I-1.9 J-0.026
G1 X93.998 Y19.669
X93.991 Y19.631
X93.999 Y19.592
X94.021 Y19.56
X94.054 Y19.539
X94.093 Y19.532
X94.131 Y19.54
X94.163 Y19.562
G2 X95.499 Y20.137 I1.362 J-1.325
G1 X110.869 Y20.351
G2 X112.795 Y18.478 I0.026 J-1.9
G1 X113.048 Y0.28
G2 X111.174 Y-1.647 I-1.9 J-0.026
G1 X92.977 Y-1.9
X92.95
X42.354
G2 X-1.764 Y37.5 I0. J44.4
X2.057 Y41.839 I3.875 J0.439
G1 X8.091 Y41.923
G2 X12.012 Y38.53 I0.054 J-3.9
G3 X72.695 Y46.471 I30.341 J3.971
X11.914 Y45.625 I-30.341 J-3.971
G2 X8.088 Y42.123 I-3.88 J0.398
G1 X2.054 Y42.039
G2 X-1.886 Y46.27 I-0.054 J3.9
X41.118 Y86.883 I44.24 J-3.77
G1 X91.695 Y88.291
X91.721
X109.92 Y88.545
G2 X111.846 Y86.671 I0.026 J-1.9
G1 X112.099 Y68.473
G2 X110.225 Y66.547 I-1.9 J-0.026
G3 X109.851 Y66.162 I0.005 J-0.38 F1000.
G1 X109.856 Y65.782
X109.857 Y65.708 Z6.207
X109.858 Y65.636 Z6.229
X109.859 Y65.571 Z6.264
X109.86 Y65.513 Z6.311
Y65.466 Z6.369
X109.861 Y65.431 Z6.435
Y65.409 Z6.506
Y65.402 Z6.58
G0 Z23.2
X222.327 Y57.126
G1 Z16.2 F1200.
Z9.58
X222.335 Y57.127 Z9.506
X222.356 Z9.435
X222.391 Z9.369
X222.439 Y57.128 Z9.311
X222.496 Y57.129 Z9.264
X222.562 Y57.13 Z9.229
X222.633 Y57.131 Z9.207
X222.707 Y57.132 Z9.2
X223.087 Y57.137 F1000.
G3 X223.462 Y57.522 I-0.005 J0.38
G1 X223.327 Y67.192 F3600.
G2 X223.865 Y68.544 I1.9 J0.026
G1 X223.886 Y68.576
X223.894 Y68.615
X223.886 Y68.653
X223.864 Y68.685
X223.831 Y68.706
X223.793 Y68.713
X223.754 Y68.705
X223.722 Y68.683
G2 X222.386 Y68.108 I-1.362 J1.324
G1 X207.016 Y67.894
G2 X205.09 Y69.767 I-0.026 J1.9
G1 X204.837 Y87.966
G2 X206.711 Y89.892 I1.9 J0.026
G1 X224.909 Y90.145
X224.935
X275.531
G2 X319.649 Y50.745 I0. J-44.4
X315.827 Y46.406 I-3.875 J-0.439
G1 X309.793 Y46.322
G2 X305.872 Y49.715 I-0.054 J3.9
G3 X245.19 Y41.774 I-30.341 J-3.971
X305.971 Y42.621 I30.341 J3.971
G2 X309.797 Y46.122 I3.88 J-0.398
G1 X315.83 Y46.206
G2 X319.771 Y41.976 I0.055 J-3.9
X276.767 Y1.362 I-44.24 J3.77
G1 X226.19 Y-0.046
X226.163
X207.965 Y-0.299
G2 X206.039 Y1.574 I-0.026 J1.9
G1 X205.786 Y19.772
G2 X207.66 Y21.698 I1.9 J0.026
G1 X223.03 Y21.912
G2 X224.38 Y21.375 I0.026 J-1.9
G1 X224.413 Y21.354
X224.452 Y21.347
X224.49 Y21.355
X224.522 Y21.377
X224.543 Y21.41
X224.55 Y21.448
X224.542 Y21.486
X224.52 Y21.518
G2 X223.945 Y22.854 I1.325 J1.362
G1 X223.462 Y57.522
G3 X223.077 Y57.897 I-0.38 J-0.005 F1000.
G1 X222.697 Y57.892
X222.623 Y57.891 Z9.207
X222.551 Y57.89 Z9.229
X222.486 Y57.889 Z9.264
X222.428 Y57.888 Z9.311
X222.381 Y57.887 Z9.369
X222.346 Z9.435
X222.324 Y57.886 Z9.506
X222.317 Z9.58
G0 Z23.2
X222.782 Y66.973
G1 Z13.2 F1200.
Z6.58
Y66.981 Z6.506
Y67.002 Z6.435
X222.781 Y67.037 Z6.369
Y67.085 Z6.311
X222.78 Y67.142 Z6.264
X222.779 Y67.208 Z6.229
X222.778 Y67.279 Z6.207
X222.777 Y67.353 Z6.2
X222.772 Y67.733 F1000.
G3 X222.386 Y68.108 I-0.38 J-0.005
G1 X207.016 Y67.894 F3600.
G2 X205.09 Y69.767 I-0.026 J1.9
G1 X204.837 Y87.966
G2 X206.711 Y89.892 I1.9 J0.026
G1 X224.909 Y90.145
X224.935
X275.531
G2 X319.649 Y50.745 I0. J-44.4
X315.827 Y46.406 I-3.875 J-0.439
G1 X309.793 Y46.322
G2 X305.872 Y49.715 I-0.054 J3.9
G3 X245.19 Y41.774 I-30.341 J-3.971
X305.971 Y42.621 I30.341 J3.971
G2 X309.797 Y46.122 I3.88 J-0.398
G1 X315.83 Y46.206
G2 X319.771 Y41.976 I0.055 J-3.9
X276.767 Y1.362 I-44.24 J3.77
G1 X226.19 Y-0.046
X226.163
X207.965 Y-0.299
G2 X206.039 Y1.574 I-0.026 J1.9
G1 X205.786 Y19.772
G2 X207.66 Y21.698 I1.9 J0.026
G1 X223.03 Y21.912
G2 X224.38 Y21.375 I0.026 J-1.9
G1 X224.413 Y21.354
X224.452 Y21.347
X224.49 Y21.355
X224.522 Y21.377
X224.543 Y21.41
X224.55 Y21.448
X224.542 Y21.486
X224.52 Y21.518
G2 X223.945 Y22.854 I1.325 J1.362
G1 X223.327 Y67.192
G2 X223.865 Y68.544 I1.9 J0.026
G1 X223.886 Y68.576
X223.894 Y68.615
X223.886 Y68.653
X223.864 Y68.685
X223.831 Y68.706
X223.793 Y68.713
X223.754 Y68.705
X223.722 Y68.683
G2 X222.386 Y68.108 I-1.362 J1.324
G3 X222.012 Y67.723 I0.005 J-0.38 F1000.
G1 X222.017 Y67.343
X222.018 Y67.269 Z6.207
X222.019 Y67.197 Z6.229
X222.02 Y67.132 Z6.264
X222.021 Y67.074 Z6.311
Y67.027 Z6.369
X222.022 Y66.992 Z6.435
Y66.97 Z6.506
Y66.963 Z6.58
G0 Z23.2
X203.747 Y32.625
G1 Z13.2 F1200.
Z6.58
X203.739 Z6.506
X203.718 Z6.435
X203.683 Y32.624 Z6.369
X203.635 Z6.311
X203.578 Y32.623 Z6.264
X203.512 Y32.622 Z6.229
X203.441 Y32.621 Z6.207
X203.367 Y32.62 Z6.2
X202.987 Y32.615 F1000.
G3 X202.612 Y32.23 I0.005 J-0.38
G1 X202.786 Y19.73 F3600.
G2 X200.912 Y17.804 I-1.9 J-0.026
G1 X185.542 Y17.59
G2 X184.192 Y18.128 I-0.026 J1.9
G1 X184.159 Y18.149
X184.12 Y18.156
X184.082 Y18.148
X184.05 Y18.126
X184.029 Y18.093
X184.022 Y18.055
X184.03 Y18.016
X184.052 Y17.984
G2 X184.627 Y16.649 I-1.325 J-1.362
G1 X184.841 Y1.279
G2 X182.967 Y-0.647 I-1.9 J-0.026
G1 X136.172 Y-1.299
G2 X134.246 Y0.575 I-0.026 J1.9
G1 X134.032 Y15.945
G2 X134.57 Y17.296 I1.9 J0.026
G1 X134.591 Y17.329
X134.598 Y17.367
X134.59 Y17.405
X134.568 Y17.438
X134.535 Y17.459
X134.497 Y17.466
X134.458 Y17.458
X134.426 Y17.436
G2 X133.09 Y16.86 I-1.362 J1.325
G1 X117.72 Y16.646
G2 X115.794 Y18.52 I-0.026 J1.9
G1 X115.099 Y68.515
G2 X116.973 Y70.441 I1.9 J0.026
G1 X132.343 Y70.655
G2 X133.693 Y70.117 I0.026 J-1.9
G1 X133.726 Y70.096
X133.764 Y70.089
X133.802 Y70.097
X133.834 Y70.119
X133.856 Y70.152
X133.863 Y70.19
X133.855 Y70.228
X133.832 Y70.26
G2 X133.257 Y71.596 I1.325 J1.362
G1 X133.044 Y86.966
G2 X134.918 Y88.893 I1.9 J0.026
G1 X181.713 Y89.544
G2 X183.639 Y87.671 I0.026 J-1.9
G1 X183.853 Y72.3
G2 X183.315 Y70.95 I-1.9 J-0.026
G1 X183.294 Y70.917
X183.287 Y70.879
X183.295 Y70.84
X183.317 Y70.808
X183.35 Y70.787
X183.388 Y70.78
X183.426 Y70.788
X183.458 Y70.81
G2 X184.794 Y71.385 I1.362 J-1.325
G1 X200.165 Y71.599
G2 X202.091 Y69.726 I0.026 J-1.9
G1 X202.612 Y32.23
G3 X202.997 Y31.855 I0.38 J0.005 F1000.
G1 X203.377 Y31.86
X203.451 Y31.861 Z6.207
X203.523 Y31.862 Z6.229
X203.588 Y31.863 Z6.264
X203.646 Y31.864 Z6.311
X203.693 Y31.865 Z6.369
X203.728 Z6.435
X203.75 Z6.506
X203.757 Z6.58
G0 Z23.2
X203.747 Y32.625
G1 Z10.2 F1200.
Z3.58
X203.739 Z3.506
X203.718 Z3.435
X203.683 Y32.624 Z3.369
X203.635 Z3.311
X203.578 Y32.623 Z3.264
X203.512 Y32.622 Z3.229
X203.441 Y32.621 Z3.207
X203.367 Y32.62 Z3.2
X202.987 Y32.615 F1000.
G3 X202.612 Y32.23 I0.005 J-0.38
G1 X202.786 Y19.73 F3600.
G2 X200.912 Y17.804 I-1.9 J-0.026
G1 X185.542 Y17.59
G2 X184.192 Y18.128 I-0.026 J1.9
G1 X184.159 Y18.149
X184.12 Y18.156
X184.082 Y18.148
X184.05 Y18.126
X184.029 Y18.093
X184.022 Y18.055
X184.03 Y18.016
X184.052 Y17.984
G2 X184.627 Y16.649 I-1.325 J-1.362
G1 X184.841 Y1.279
G2 X182.967 Y-0.647 I-1.9 J-0.026
G1 X136.172 Y-1.299
G2 X134.246 Y0.575 I-0.026 J1.9
G1 X134.032 Y15.945
G2 X134.57 Y17.296 I1.9 J0.026
G1 X134.591 Y17.329
X134.598 Y17.367
X134.59 Y17.405
X134.568 Y17.438
X134.535 Y17.459
X134.497 Y17.466
X134.458 Y17.458
X134.426 Y17.436
G2 X133.09 Y16.86 I-1.362 J1.325
G1 X117.72 Y16.646
G2 X115.794 Y18.52 I-0.026 J1.9
G1 X115.099 Y68.515
G2 X116.973 Y70.441 I1.9 J0.026
G1 X132.343 Y70.655
G2 X133.693 Y70.117 I0.026 J-1.9
G1 X133.726 Y70.096
X133.764 Y70.089
X133.802 Y70.097
X133.834 Y70.119
X133.856 Y70.152
X133.863 Y70.19
X133.855 Y70.228
X133.832 Y70.26
G2 X133.257 Y71.596 I1.325 J1.362
G1 X133.044 Y86.966
G2 X134.918 Y88.893 I1.9 J0.026
G1 X181.713 Y89.544
G2 X183.639 Y87.671 I0.026 J-1.9
G1 X183.853 Y72.3
G2 X183.315 Y70.95 I-1.9 J-0.026
G1 X183.294 Y70.917
X183.287 Y70.879
X183.295 Y70.84
X183.317 Y70.808
X183.35 Y70.787
X183.388 Y70.78
X183.426 Y70.788
X183.458 Y70.81
G2 X184.794 Y71.385 I1.362 J-1.325
G1 X200.165 Y71.599
G2 X202.091 Y69.726 I0.026 J-1.9
G1 X202.612 Y32.23
G3 X202.997 Y31.855 I0.38 J0.005 F1000.
G1 X203.377 Y31.86
X203.451 Y31.861 Z3.207
X203.523 Y31.862 Z3.229
X203.588 Y31.863 Z3.264
X203.646 Y31.864 Z3.311
X203.693 Y31.865 Z3.369
X203.728 Z3.435
X203.75 Z3.506
X203.757 Z3.58
G0 Z23.2
X222.676 Y32.129
G1 Z10.2 F1200.
Z3.58
X222.683 Z3.506
X222.705 Z3.435
X222.74 Y32.13 Z3.369
X222.787 Z3.311
X222.845 Y32.131 Z3.264
X222.91 Y32.132 Z3.229
X222.982 Y32.133 Z3.207
X223.056 Y32.134 Z3.2
X223.436 Y32.139 F1000.
G3 X223.81 Y32.525 I-0.005 J0.38
G1 X223.327 Y67.192 F3600.
G2 X223.865 Y68.544 I1.9 J0.026
G1 X223.886 Y68.576
X223.894 Y68.615
X223.886 Y68.653
X223.864 Y68.685
X223.831 Y68.706
X223.793 Y68.713
X223.754 Y68.705
X223.722 Y68.683
G2 X222.386 Y68.108 I-1.362 J1.324
G1 X207.016 Y67.894
G2 X205.09 Y69.767 I-0.026 J1.9
G1 X204.837 Y87.966
G2 X206.711 Y89.892 I1.9 J0.026
G1 X224.909 Y90.145
X224.935
X275.531
G2 X319.649 Y50.745 I0. J-44.4
X315.827 Y46.406 I-3.875 J-0.439
G1 X309.793 Y46.322
G2 X305.872 Y49.715 I-0.054 J3.9
G3 X245.19 Y41.774 I-30.341 J-3.971
X305.971 Y42.621 I30.341 J3.971
G2 X309.797 Y46.122 I3.88 J-0.398
G1 X315.83 Y46.206
G2 X319.771 Y41.976 I0.055 J-3.9
X276.767 Y1.362 I-44.24 J3.77
G1 X226.19 Y-0.046
X226.163
X207.965 Y-0.299
G2 X206.039 Y1.574 I-0.026 J1.9
G1 X205.786 Y19.772
G2 X207.66 Y21.698 I1.9 J0.026
G1 X223.03 Y21.912
G2 X224.38 Y21.375 I0.026 J-1.9
G1 X224.413 Y21.354
X224.452 Y21.347
X224.49 Y21.355
X224.522 Y21.377
X224.543 Y21.41
X224.55 Y21.448
X224.542 Y21.486
X224.52 Y21.518
G2 X223.945 Y22.854 I1.325 J1.362
G1 X223.81 Y32.525
G3 X223.425 Y32.899 I-0.38 J-0.005 F1000.
G1 X223.045 Y32.894
X222.971 Y32.893 Z3.207
X222.9 Y32.892 Z3.229
X222.834 Y32.891 Z3.264
X222.776 Y32.89 Z3.311
X222.729 Z3.369
X222.694 Y32.889 Z3.435
X222.673 Z3.506
X222.665 Z3.58
G0 Z23.2
X222.676 Y32.129
G1 Z7.2 F1200.
Z1.98
X222.683 Z1.906
X222.705 Z1.835
X222.74 Y32.13 Z1.769
X222.787 Z1.711
X222.845 Y32.131 Z1.664
X222.91 Y32.132 Z1.629
X222.982 Y32.133 Z1.607
X223.056 Y32.134 Z1.6
X223.436 Y32.139 F1000.
G3 X223.81 Y32.525 I-0.005 J0.38
G1 X223.639 Y44.789 F3600.
Z2.
X223.534 Y52.388
Z1.6 F1200.
X223.327 Y67.192 F3600.
G2 X223.865 Y68.544 I1.9 J0.026
G1 X223.886 Y68.576
X223.894 Y68.615
X223.886 Y68.653
X223.864 Y68.685
X223.831 Y68.706
X223.793 Y68.713
X223.754 Y68.705
X223.722 Y68.683
G2 X222.386 Y68.108 I-1.362 J1.324
G1 X207.016 Y67.894
G2 X205.09 Y69.767 I-0.026 J1.9
G1 X204.837 Y87.966
G2 X206.711 Y89.892 I1.9 J0.026
G1 X224.909 Y90.145
X224.935
X243.769
Z2.
X251.369
Z1.6 F1200.
X275.531 F3600.
G2 X319.649 Y50.745 I0. J-44.4
X315.827 Y46.406 I-3.875 J-0.439
G1 X309.793 Y46.322
G2 X305.872 Y49.715 I-0.054 J3.9
G3 X277.805 Y76.26 I-30.341 J-3.971
G1 Z2.
G3 X270.215 Y75.879 I-2.274 J-30.515
G1 Z1.6 F1200.
G3 X272.08 Y15.34 I5.316 J-30.134 F3600.
G1 Z2.
G3 X279.679 Y15.427 I3.451 J30.405
G1 Z1.6 F1200.
G3 X305.971 Y42.621 I-4.148 J30.317 F3600.
G2 X309.797 Y46.122 I3.88 J-0.398
G1 X315.83 Y46.206
G2 X319.771 Y41.976 I0.055 J-3.9
X276.767 Y1.362 I-44.24 J3.77
G1 X243.87 Y0.447
Z2.
X236.273 Y0.235
Z1.6 F1200.
X226.19 Y-0.046 F3600.
X226.163
X207.965 Y-0.299
G2 X206.039 Y1.574 I-0.026 J1.9
G1 X205.786 Y19.772
G2 X207.66 Y21.698 I1.9 J0.026
G1 X223.03 Y21.912
G2 X224.38 Y21.375 I0.026 J-1.9
G1 X224.413 Y21.354
X224.452 Y21.347
X224.49 Y21.355
X224.522 Y21.377
X224.543 Y21.41
X224.55 Y21.448
X224.542 Y21.486
X224.52 Y21.518
G2 X223.945 Y22.854 I1.325 J1.362
G1 X223.81 Y32.525
G3 X223.425 Y32.899 I-0.38 J-0.005 F1000.
G1 X223.045 Y32.894
X222.971 Y32.893 Z1.607
X222.9 Y32.892 Z1.629
X222.834 Y32.891 Z1.664
X222.776 Y32.89 Z1.711
X222.729 Z1.769
X222.694 Y32.889 Z1.835
X222.673 Z1.906
X222.665 Z1.98
G0 Z23.2
X110.621 Y65.412
G1 Z10.2 F1200.
Z3.58
Y65.42 Z3.506
Y65.441 Z3.435
X110.62 Y65.476 Z3.369
Y65.524 Z3.311
X110.619 Y65.581 Z3.264
X110.618 Y65.647 Z3.229
X110.617 Y65.718 Z3.207
X110.616 Y65.792 Z3.2
X110.611 Y66.172 F1000.
G3 X110.225 Y66.547 I-0.38 J-0.005
G1 X94.856 Y66.333 F3600.
G2 X93.505 Y66.871 I-0.026 J1.9
G1 X93.472 Y66.892
X93.433 Y66.899
X93.395 Y66.891
X93.363 Y66.869
X93.342 Y66.836
X93.335 Y66.798
X93.343 Y66.759
X93.365 Y66.727
G2 X93.94 Y65.392 I-1.325 J-1.362
G1 X94.557 Y21.053
G2 X94.02 Y19.702 I-1.9 J-0.026
G1 X93.998 Y19.669
X93.991 Y19.631
X93.999 Y19.592
X94.021 Y19.56
X94.054 Y19.539
X94.093 Y19.532
X94.131 Y19.54
X94.163 Y19.562
G2 X95.499 Y20.137 I1.362 J-1.325
G1 X110.869 Y20.351
G2 X112.795 Y18.478 I0.026 J-1.9
G1 X113.048 Y0.28
G2 X111.174 Y-1.647 I-1.9 J-0.026
G1 X92.977 Y-1.9
X92.95
X42.354
G2 X-1.764 Y37.5 I0. J44.4
X2.057 Y41.839 I3.875 J0.439
G1 X8.091 Y41.923
G2 X12.012 Y38.53 I0.054 J-3.9
G3 X72.695 Y46.471 I30.341 J3.971
X11.914 Y45.625 I-30.341 J-3.971
G2 X8.088 Y42.123 I-3.88 J0.398
G1 X2.054 Y42.039
G2 X-1.886 Y46.27 I-0.054 J3.9
X41.118 Y86.883 I44.24 J-3.77
G1 X91.695 Y88.291
X91.721
X109.92 Y88.545
G2 X111.846 Y86.671 I0.026 J-1.9
G1 X112.099 Y68.473
G2 X110.225 Y66.547 I-1.9 J-0.026
G3 X109.851 Y66.162 I0.005 J-0.38 F1000.
G1 X109.856 Y65.782
X109.857 Y65.708 Z3.207
X109.858 Y65.636 Z3.229
X109.859 Y65.571 Z3.264
X109.86 Y65.513 Z3.311
Y65.466 Z3.369
X109.861 Y65.431 Z3.435
Y65.409 Z3.506
Y65.402 Z3.58
G0 Z23.2
X110.621 Y65.412
G1 Z7.2 F1200.
Z1.98
Y65.42 Z1.906
Y65.441 Z1.835
X110.62 Y65.476 Z1.769
Y65.524 Z1.711
X110.619 Y65.581 Z1.664
X110.618 Y65.647 Z1.629
X110.617 Y65.718 Z1.607
X110.616 Y65.792 Z1.6
X110.611 Y66.172 F1000.
G3 X110.225 Y66.547 I-0.38 J-0.005
G1 X94.856 Y66.333 F3600.
G2 X93.505 Y66.871 I-0.026 J1.9
G1 X93.472 Y66.892
X93.433 Y66.899
X93.395 Y66.891
X93.363 Y66.869
X93.342 Y66.836
X93.335 Y66.798
X93.343 Y66.759
X93.365 Y66.727
G2 X93.94 Y65.392 I-1.325 J-1.362
G1 X94.215 Y45.645
Z2.
X94.321 Y38.045
Z1.6 F1200.
X94.557 Y21.053 F3600.
G2 X94.02 Y19.702 I-1.9 J-0.026
G1 X93.998 Y19.669
X93.991 Y19.631
X93.999 Y19.592
X94.021 Y19.56
X94.054 Y19.539
X94.093 Y19.532
X94.131 Y19.54
X94.163 Y19.562
G2 X95.499 Y20.137 I1.362 J-1.325
G1 X110.869 Y20.351
G2 X112.795 Y18.478 I0.026 J-1.9
G1 X113.048 Y0.28
G2 X111.174 Y-1.647 I-1.9 J-0.026
G1 X92.977 Y-1.9
X92.95
X80.949
Z2.
X73.349
Z1.6 F1200.
X42.354 F3600.
G2 X-1.764 Y37.5 I0. J44.4
X2.057 Y41.839 I3.875 J0.439
G1 X8.091 Y41.923
G2 X12.012 Y38.53 I0.054 J-3.9
G3 X39.281 Y12.055 I30.341 J3.971
G1 Z2.
G3 X46.879 Y12.237 I3.072 J30.445
G1 Z1.6 F1200.
G3 X47.219 Y72.711 I-4.526 J30.263 F3600.
G1 Z2.
G3 X39.624 Y72.978 I-4.866 J-30.211
G1 Z1.6 F1200.
G3 X11.914 Y45.625 I2.73 J-30.478 F3600.
G2 X8.088 Y42.123 I-3.88 J0.398
G1 X2.054 Y42.039
G2 X-1.886 Y46.27 I-0.054 J3.9
X41.118 Y86.883 I44.24 J-3.77
G1 X71.361 Y87.725
Z2.
X78.958 Y87.936
Z1.6 F1200.
X91.695 Y88.291 F3600.
X91.721
X109.92 Y88.545
G2 X111.846 Y86.671 I0.026 J-1.9
G1 X112.099 Y68.473
G2 X110.225 Y66.547 I-1.9 J-0.026
G3 X109.851 Y66.162 I0.005 J-0.38 F1000.
G1 X109.856 Y65.782
X109.857 Y65.708 Z1.607
X109.858 Y65.636 Z1.629
X109.859 Y65.571 Z1.664
X109.86 Y65.513 Z1.711
Y65.466 Z1.769
X109.861 Y65.431 Z1.835
Y65.409 Z1.906
Y65.402 Z1.98
G0 Z23.2
X114.138 Y55.62
G1 Z7.2 F1200.
Z1.98
X114.146 Z1.906
X114.167 Z1.835
X114.202 Y55.621 Z1.769
X114.25 Y55.622 Z1.711
X114.307 Z1.664
X114.373 Y55.623 Z1.629
X114.444 Y55.624 Z1.607
X114.518 Y55.625 Z1.6
X114.898 Y55.631 F1000.
G3 X115.273 Y56.016 I-0.005 J0.38
G1 X115.099 Y68.515 F3600.
G2 X116.973 Y70.441 I1.9 J0.026
G1 X132.343 Y70.655
G2 X133.693 Y70.117 I0.026 J-1.9
G1 X133.726 Y70.096
X133.764 Y70.089
X133.802 Y70.097
X133.834 Y70.119
X133.856 Y70.152
X133.863 Y70.19
X133.855 Y70.228
X133.832 Y70.26
G2 X133.257 Y71.596 I1.325 J1.362
G1 X133.044 Y86.966
G2 X134.918 Y88.893 I1.9 J0.026
G1 X158.681 Y89.223
Z2.
X166.28 Y89.329
Z1.6 F1200.
X181.713 Y89.544 F3600.
G2 X183.639 Y87.671 I0.026 J-1.9
G1 X183.853 Y72.3
G2 X183.315 Y70.95 I-1.9 J-0.026
G1 X183.294 Y70.917
X183.287 Y70.879
X183.295 Y70.84
X183.317 Y70.808
X183.35 Y70.787
X183.388 Y70.78
X183.426 Y70.788
X183.458 Y70.81
G2 X184.794 Y71.385 I1.362 J-1.325
G1 X200.165 Y71.599
G2 X202.091 Y69.726 I0.026 J-1.9
G1 X202.386 Y48.518
Z2.
X202.491 Y40.919
Z1.6 F1200.
X202.786 Y19.73 F3600.
G2 X200.912 Y17.804 I-1.9 J-0.026
G1 X185.542 Y17.59
G2 X184.192 Y18.128 I-0.026 J1.9
G1 X184.159 Y18.149
X184.12 Y18.156
X184.082 Y18.148
X184.05 Y18.126
X184.029 Y18.093
X184.022 Y18.055
X184.03 Y18.016
X184.052 Y17.984
G2 X184.627 Y16.649 I-1.325 J-1.362
G1 X184.841 Y1.279
G2 X182.967 Y-0.647 I-1.9 J-0.026
G1 X164.215 Y-0.908
Z2.
X156.616 Y-1.014
Z1.6 F1200.
X136.172 Y-1.299 F3600.
G2 X134.246 Y0.575 I-0.026 J1.9
G1 X134.032 Y15.945
G2 X134.57 Y17.296 I1.9 J0.026
G1 X134.591 Y17.329
X134.598 Y17.367
X134.59 Y17.405
X134.568 Y17.438
X134.535 Y17.459
X134.497 Y17.466
X134.458 Y17.458
X134.426 Y17.436
G2 X133.09 Y16.86 I-1.362 J1.325
G1 X117.72 Y16.646
G2 X115.794 Y18.52 I-0.026 J1.9
G1 X115.473 Y41.647
Z2.
X115.367 Y49.246
Z1.6 F1200.
X115.273 Y56.016 F3600.
G3 X114.888 Y56.391 I-0.38 J-0.005 F1000.
G1 X114.508 Y56.385
X114.434 Y56.384 Z1.607
X114.362 Y56.383 Z1.629
X114.297 Y56.382 Z1.664
X114.239 Z1.711
X114.192 Y56.381 Z1.769
X114.157 Y56.38 Z1.835
X114.135 Z1.906
X114.128 Z1.98
G0 Z23.2
X114.138 Y55.62
G1 Z5.6 F1200.
Z0.38
X114.146 Z0.306
X114.167 Z0.235
X114.202 Y55.621 Z0.169
X114.25 Y55.622 Z0.111
X114.307 Z0.064
X114.373 Y55.623 Z0.029
X114.444 Y55.624 Z0.007
X114.518 Y55.625 Z0.
X114.898 Y55.631 F1000.
G3 X115.273 Y56.016 I-0.005 J0.38
G1 X115.099 Y68.515 F3600.
G2 X116.973 Y70.441 I1.9 J0.026
G1 X132.343 Y70.655
G2 X133.693 Y70.117 I0.026 J-1.9
G1 X133.726 Y70.096
X133.764 Y70.089
X133.802 Y70.097
X133.834 Y70.119
X133.856 Y70.152
X133.863 Y70.19
X133.855 Y70.228
X133.832 Y70.26
G2 X133.257 Y71.596 I1.325 J1.362
G1 X133.044 Y86.966
G2 X134.918 Y88.893 I1.9 J0.026
G1 X158.681 Y89.223
Z2.
X166.28 Y89.329
Z0. F1200.
X181.713 Y89.544 F3600.
G2 X183.639 Y87.671 I0.026 J-1.9
G1 X183.853 Y72.3
G2 X183.315 Y70.95 I-1.9 J-0.026
G1 X183.294 Y70.917
X183.287 Y70.879
X183.295 Y70.84
X183.317 Y70.808
X183.35 Y70.787
X183.388 Y70.78
X183.426 Y70.788
X183.458 Y70.81
G2 X184.794 Y71.385 I1.362 J-1.325
G1 X200.165 Y71.599
G2 X202.091 Y69.726 I0.026 J-1.9
G1 X202.386 Y48.518
Z2.
X202.491 Y40.919
Z0. F1200.
X202.786 Y19.73 F3600.
G2 X200.912 Y17.804 I-1.9 J-0.026
G1 X185.542 Y17.59
G2 X184.192 Y18.128 I-0.026 J1.9
G1 X184.159 Y18.149
X184.12 Y18.156
X184.082 Y18.148
X184.05 Y18.126
X184.029 Y18.093
X184.022 Y18.055
X184.03 Y18.016
X184.052 Y17.984
G2 X184.627 Y16.649 I-1.325 J-1.362
G1 X184.841 Y1.279
G2 X182.967 Y-0.647 I-1.9 J-0.026
G1 X164.215 Y-0.908
Z2.
X156.616 Y-1.014
Z0. F1200.
X136.172 Y-1.299 F3600.
G2 X134.246 Y0.575 I-0.026 J1.9
G1 X134.032 Y15.945
G2 X134.57 Y17.296 I1.9 J0.026
G1 X134.591 Y17.329
X134.598 Y17.367
X134.59 Y17.405
X134.568 Y17.438
X134.535 Y17.459
X134.497 Y17.466
X134.458 Y17.458
X134.426 Y17.436
G2 X133.09 Y16.86 I-1.362 J1.325
G1 X117.72 Y16.646
G2 X115.794 Y18.52 I-0.026 J1.9
G1 X115.473 Y41.647
Z2.
X115.367 Y49.246
Z0. F1200.
X115.273 Y56.016 F3600.
G3 X114.888 Y56.391 I-0.38 J-0.005 F1000.
G1 X114.508 Y56.385
X114.434 Y56.384 Z0.007
X114.362 Y56.383 Z0.029
X114.297 Y56.382 Z0.064
X114.239 Z0.111
X114.192 Y56.381 Z0.169
X114.157 Y56.38 Z0.235
X114.135 Z0.306
X114.128 Z0.38
G0 Z23.2
X110.621 Y65.412
G1 Z5.6 F1200.
Z0.38
Y65.42 Z0.306
Y65.441 Z0.235
X110.62 Y65.476 Z0.169
Y65.524 Z0.111
X110.619 Y65.581 Z0.064
X110.618 Y65.647 Z0.029
X110.617 Y65.718 Z0.007
X110.616 Y65.792 Z0.
X110.611 Y66.172 F1000.
G3 X110.225 Y66.547 I-0.38 J-0.005
G1 X94.856 Y66.333 F3600.
G2 X93.505 Y66.871 I-0.026 J1.9
G1 X93.472 Y66.892
X93.433 Y66.899
X93.395 Y66.891
X93.363 Y66.869
X93.342 Y66.836
X93.335 Y66.798
X93.343 Y66.759
X93.365 Y66.727
G2 X93.94 Y65.392 I-1.325 J-1.362
G1 X94.215 Y45.645
Z2.
X94.321 Y38.045
Z0. F1200.
X94.557 Y21.053 F3600.
G2 X94.02 Y19.702 I-1.9 J-0.026
G1 X93.998 Y19.669
X93.991 Y19.631
X93.999 Y19.592
X94.021 Y19.56
X94.054 Y19.539
X94.093 Y19.532
X94.131 Y19.54
X94.163 Y19.562
G2 X95.499 Y20.137 I1.362 J-1.325
G1 X110.869 Y20.351
G2 X112.795 Y18.478 I0.026 J-1.9
G1 X113.048 Y0.28
G2 X111.174 Y-1.647 I-1.9 J-0.026
G1 X92.977 Y-1.9
X92.95
X80.949
Z2.
X73.349
Z0. F1200.
X42.354 F3600.
G2 X-1.764 Y37.5 I0. J44.4
X2.057 Y41.839 I3.875 J0.439
G1 X8.091 Y41.923
G2 X12.012 Y38.53 I0.054 J-3.9
G3 X39.281 Y12.055 I30.341 J3.971
G1 Z2.
G3 X46.879 Y12.237 I3.072 J30.445
G1 Z0. F1200.
G3 X47.219 Y72.711 I-4.526 J30.263 F3600.
G1 Z2.
G3 X39.624 Y72.978 I-4.866 J-30.211
G1 Z0. F1200.
G3 X11.914 Y45.625 I2.73 J-30.478 F3600.
G2 X8.088 Y42.123 I-3.88 J0.398
G1 X2.054 Y42.039
G2 X-1.886 Y46.27 I-0.054 J3.9
X41.118 Y86.883 I44.24 J-3.77
G1 X71.361 Y87.725
Z2.
X78.958 Y87.936
Z0. F1200.
X91.695 Y88.291 F3600.
X91.721
X109.92 Y88.545
G2 X111.846 Y86.671 I0.026 J-1.9
G1 X112.099 Y68.473
G2 X110.225 Y66.547 I-1.9 J-0.026
G3 X109.851 Y66.162 I0.005 J-0.38 F1000.
G1 X109.856 Y65.782
X109.857 Y65.708 Z0.007
X109.858 Y65.636 Z0.029
X109.859 Y65.571 Z0.064
X109.86 Y65.513 Z0.111
Y65.466 Z0.169
X109.861 Y65.431 Z0.235
Y65.409 Z0.306
Y65.402 Z0.38
G0 Z23.2
X222.327 Y57.126
G1 Z5.6 F1200.
Z0.38
X222.335 Y57.127 Z0.306
X222.356 Z0.235
X222.391 Z0.169
X222.439 Y57.128 Z0.111
X222.496 Y57.129 Z0.064
X222.562 Y57.13 Z0.029
X222.633 Y57.131 Z0.007
X222.707 Y57.132 Z0.
X223.087 Y57.137 F1000.
G3 X223.462 Y57.522 I-0.005 J0.38
G1 X223.327 Y67.192 F3600.
G2 X223.865 Y68.544 I1.9 J0.026
G1 X223.886 Y68.576
X223.894 Y68.615
X223.886 Y68.653
X223.864 Y68.685
X223.831 Y68.706
X223.793 Y68.713
X223.754 Y68.705
X223.722 Y68.683
G2 X222.386 Y68.108 I-1.362 J1.324
G1 X207.016 Y67.894
G2 X205.09 Y69.767 I-0.026 J1.9
G1 X204.837 Y87.966
G2 X206.711 Y89.892 I1.9 J0.026
G1 X224.909 Y90.145
X224.935
X243.769
Z2.
X251.369
Z0. F1200.
X275.531 F3600.
G2 X319.649 Y50.745 I0. J-44.4
X315.827 Y46.406 I-3.875 J-0.439
G1 X309.793 Y46.322
G2 X305.872 Y49.715 I-0.054 J3.9
G3 X277.805 Y76.26 I-30.341 J-3.971
G1 Z2.
G3 X270.215 Y75.879 I-2.274 J-30.515
G1 Z0. F1200.
G3 X272.08 Y15.34 I5.316 J-30.134 F3600.
G1 Z2.
G3 X279.679 Y15.427 I3.451 J30.405
G1 Z0. F1200.
G3 X305.971 Y42.621 I-4.148 J30.317 F3600.
G2 X309.797 Y46.122 I3.88 J-0.398
G1 X315.83 Y46.206
G2 X319.771 Y41.976 I0.055 J-3.9
X276.767 Y1.362 I-44.24 J3.77
G1 X243.87 Y0.447
Z2.
X236.273 Y0.235
Z0. F1200.
X226.19 Y-0.046 F3600.
X226.163
X207.965 Y-0.299
G2 X206.039 Y1.574 I-0.026 J1.9
G1 X205.786 Y19.772
G2 X207.66 Y21.698 I1.9 J0.026
G1 X223.03 Y21.912
G2 X224.38 Y21.375 I0.026 J-1.9
G1 X224.413 Y21.354
X224.452 Y21.347
X224.49 Y21.355
X224.522 Y21.377
X224.543 Y21.41
X224.55 Y21.448
X224.542 Y21.486
X224.52 Y21.518
G2 X223.945 Y22.854 I1.325 J1.362
G1 X223.639 Y44.789
Z2.
X223.534 Y52.388
Z0. F1200.
X223.462 Y57.522 F3600.
G3 X223.077 Y57.897 I-0.38 J-0.005 F1000.
G1 X222.697 Y57.892
X222.623 Y57.891 Z0.007
X222.551 Y57.89 Z0.029
X222.486 Y57.889 Z0.064
X222.428 Y57.888 Z0.111
X222.381 Y57.887 Z0.169
X222.346 Z0.235
X222.324 Y57.886 Z0.306
X222.317 Z0.38
G0 Z33.2
G28 G91 Z0.
G90

(CONTOUR1)
M5
M9
M1
T43 M6
(6MM SLOT CUTTING TOOL 3MM DEPTH)
S12000 M3
G54
M8
G0 X43.842 Y-8.804
Z33.2
Z9.45
G1 X43.843 Y-8.796 Z9.31 F1000.
X43.844 Y-8.773 Z9.172
X43.846 Y-8.734 Z9.037
X43.848 Y-8.68 Z8.908
X43.852 Y-8.613 Z8.785
X43.855 Y-8.532 Z8.671
X43.86 Y-8.438 Z8.566
X43.865 Y-8.334 Z8.473
X43.87 Y-8.22 Z8.392
X43.876 Y-8.097 Z8.324
X43.883 Y-7.968 Z8.27
X43.889 Y-7.833 Z8.231
X43.896 Y-7.695 Z8.208
X43.903 Y-7.555 Z8.2
G3 X42.714 Y-6.247 I-1.249 J0.06
G1 X42.518 Y-6.237
X42.323 Y-6.222
X42.127 Y-6.2
X41.931 Y-6.172
X41.735 Y-6.137
X41.539 Y-6.096
X41.357 Y-6.052
X41.343 Y-6.049
X41.148 Y-5.994
X40.952 Y-5.933
X40.756 Y-5.864
X40.735 Y-5.857
X40.56 Y-5.788
X40.364 Y-5.705
X40.269 Y-5.661
X40.168 Y-5.613
X39.973 Y-5.513
X39.885 Y-5.465
X39.777 Y-5.404
X39.581 Y-5.285
X39.557 Y-5.27
X39.385 Y-5.156
X39.268 Y-5.074
X39.189 Y-5.016
X39.011 Y-4.878
X38.993 Y-4.865
X38.798 Y-4.7
X38.778 Y-4.683
X38.602 Y-4.521
X38.567 Y-4.487
X38.406 Y-4.325
X38.374 Y-4.292
X38.21 Y-4.111
X38.197 Y-4.096
X38.174 Y-4.07
X38.167 Y-4.061
X38.165
X38.105 Y-4.056
X38.014 Y-4.048
X37.818 Y-4.028
X36.839 Y-3.921
X36.651 Y-3.9
X36.643
X36.447 Y-3.874
X35.24 Y-3.705
X35.077 Y-3.68
X34.881 Y-3.646
X33.902 Y-3.478
X33.706 Y-3.443
X33.51 Y-3.404
X32.531 Y-3.204
X32.335 Y-3.164
X32.139 Y-3.119
X30.964 Y-2.841
X30.768 Y-2.791
X29.593 Y-2.474
X29.397 Y-2.418
X29.202 Y-2.359
X28.222 Y-2.062
X28.027 Y-2.
X27.861 Y-1.944
X26.852 Y-1.604
X26.705 Y-1.553
X26.656 Y-1.535
X26.46 Y-1.463
X25.481 Y-1.098
X25.285 Y-1.022
X25.148 Y-0.966
X24.11 Y-0.542
X23.914 Y-0.459
X22.856 Y0.012
X22.739 Y0.064
X22.543 Y0.156
X21.564 Y0.629
X21.368 Y0.725
X21.234 Y0.794
X20.193 Y1.337
X20.11 Y1.381
X19.997 Y1.443
X19.018 Y1.993
X18.822 Y2.104
X18.722 Y2.164
X17.75 Y2.75
X17.647 Y2.812
X17.451 Y2.936
X16.472 Y3.569
X16.276 Y3.7
X15.297 Y4.377
X15.108 Y4.511
X15.101 Y4.516
X14.122 Y5.238
X14.048 Y5.293
X13.926 Y5.387
X12.947 Y6.158
X12.807 Y6.271
X12.751 Y6.318
X11.874 Y7.054
X11.772 Y7.14
X11.648 Y7.25
X10.772 Y8.032
X10.597 Y8.192
X9.737 Y9.01
X9.618 Y9.124
X9.537 Y9.206
X8.763 Y9.988
X8.639 Y10.114
X8.572 Y10.184
X8.443 Y10.322
X7.845 Y10.966
X7.663 Y11.162
X7.66 Y11.165
X7.489 Y11.357
X6.806 Y12.14
X6.681 Y12.284
X6.637 Y12.335
X6.485 Y12.521
X5.835 Y13.314
X5.701 Y13.481
X5.679 Y13.509
X4.918 Y14.499
X4.782 Y14.683
X4.076 Y15.661
X3.94 Y15.857
X3.28 Y16.835
X3.155 Y17.024
X3.152 Y17.03
X2.535 Y18.008
X2.413 Y18.204
X2.372 Y18.273
X1.785 Y19.272
X1.723 Y19.378
X1.613 Y19.573
X1.078 Y20.551
X1.001 Y20.693
X0.973 Y20.747
X0.874 Y20.942
X0.414 Y21.849
X0.378 Y21.921
X0.283 Y22.116
X-0.176 Y23.094
X-0.267 Y23.29
X-0.353 Y23.485
X-0.775 Y24.464
X-0.858 Y24.659
X-0.936 Y24.855
X-1.349 Y25.899
X-1.398 Y26.028
X-1.469 Y26.224
X-1.821 Y27.202
X-1.89 Y27.398
X-1.936 Y27.541
X-2.271 Y28.571
X-2.328 Y28.748
X-2.334 Y28.767
X-2.391 Y28.963
X-2.676 Y29.941
X-2.72 Y30.092
X-2.732 Y30.136
X-2.783 Y30.332
X-3.035 Y31.31
X-3.085 Y31.506
X-3.111 Y31.617
X-3.35 Y32.679
X-3.394 Y32.875
X-3.434 Y33.07
X-3.66 Y34.244
X-3.696 Y34.44
X-3.699 Y34.458
X-3.895 Y35.676
X-3.915 Y35.809
X-3.941 Y36.005
X-4.067 Y36.983
X-4.09 Y37.164
X-4.092 Y37.178
X-4.113 Y37.374
X-4.128 Y37.57
X-4.136 Y37.765
X-4.14 Y37.961
X-4.164 Y39.721
X-4.166 Y39.917
X-4.164 Y40.113
X-4.156 Y40.308
X-4.141 Y40.504
X-4.12 Y40.699
X-4.093 Y40.895
X-4.09 Y40.912
X-4.06 Y41.091
X-4.02 Y41.286
X-3.973 Y41.482
X-3.92 Y41.677
X-3.895 Y41.763
X-3.877 Y41.818
X-3.869 Y41.846
X-3.865 Y41.856
Y41.858
X-3.871 Y41.873
X-3.895 Y41.942
X-3.936 Y42.069
X-3.994 Y42.264
X-4.045 Y42.46
X-4.089 Y42.656
X-4.09 Y42.662
X-4.127 Y42.851
X-4.158 Y43.047
X-4.183 Y43.242
X-4.202 Y43.438
X-4.215 Y43.634
X-4.221 Y43.829
X-4.224 Y44.025
X-4.248 Y45.785
X-4.25 Y45.981
X-4.245 Y46.177
X-4.235 Y46.372
X-4.218 Y46.568
X-4.1 Y47.741
X-4.09 Y47.835
X-4.079 Y47.937
X-4.053 Y48.133
X-3.924 Y49.111
X-3.898 Y49.306
X-3.895 Y49.33
X-3.868 Y49.502
X-3.675 Y50.676
X-3.64 Y50.871
X-3.41 Y52.045
X-3.37 Y52.241
X-3.326 Y52.436
X-3.102 Y53.414
X-3.057 Y53.61
X-3.007 Y53.806
X-2.72 Y54.904
X-2.7 Y54.979
X-2.644 Y55.175
X-2.328 Y56.246
X-2.298 Y56.348
X-2.236 Y56.544
X-1.914 Y57.522
X-1.85 Y57.718
X-1.781 Y57.913
X-1.426 Y58.891
X-1.354 Y59.087
X-1.349 Y59.102
X-1.279 Y59.283
X-0.888 Y60.261
X-0.81 Y60.456
X-0.761 Y60.573
X-0.727 Y60.652
X-0.301 Y61.63
X-0.215 Y61.826
X-0.174 Y61.914
X0.339 Y62.999
X0.414 Y63.154
X0.434 Y63.195
X0.534 Y63.391
X1.001 Y64.304
X1.034 Y64.369
X1.14 Y64.564
X1.679 Y65.542
X1.785 Y65.731
X1.788 Y65.738
X1.904 Y65.934
X2.372 Y66.724
X2.484 Y66.912
X2.568 Y67.047
X3.227 Y68.085
X3.351 Y68.274
X4.021 Y69.259
X4.135 Y69.423
X4.158 Y69.455
X4.868 Y70.433
X4.918 Y70.502
X5.014 Y70.628
X5.771 Y71.606
X5.897 Y71.765
X6.681 Y72.714
X6.735 Y72.78
X6.876 Y72.943
X7.593 Y73.758
X7.66 Y73.834
X7.768 Y73.954
X7.856 Y74.048
X8.639 Y74.885
X8.683 Y74.932
X8.835 Y75.086
X9.654 Y75.91
X9.814 Y76.065
X10.685 Y76.888
X10.793 Y76.989
X10.899 Y77.083
X11.78 Y77.866
X11.968 Y78.027
X12.751 Y78.68
X12.947 Y78.843
X12.949 Y78.844
X13.143 Y78.998
X13.946 Y79.626
X14.122 Y79.763
X14.201 Y79.822
X15.101 Y80.482
X15.269 Y80.605
X15.297 Y80.625
X15.493 Y80.76
X16.406 Y81.387
X16.472 Y81.432
X16.668 Y81.559
X17.619 Y82.169
X17.647 Y82.188
X17.843 Y82.308
X18.822 Y82.894
X18.919 Y82.952
X19.018 Y83.009
X19.214 Y83.118
X19.997 Y83.555
X20.193 Y83.664
X20.326 Y83.734
X21.368 Y84.274
X21.46 Y84.321
X21.564 Y84.373
X21.76 Y84.467
X22.682 Y84.908
X22.739 Y84.936
X22.935 Y85.025
X24. Y85.495
X24.11 Y85.543
X24.306 Y85.624
X25.285 Y86.02
X25.437 Y86.082
X25.481 Y86.099
X25.677 Y86.172
X26.656 Y86.533
X26.852 Y86.605
X27.04 Y86.669
X28.027 Y86.998
X28.212 Y87.06
X28.222 Y87.063
X28.418 Y87.123
X29.512 Y87.451
X29.593 Y87.475
X29.789 Y87.528
X30.768 Y87.789
X30.964 Y87.841
X30.968 Y87.842
X31.16 Y87.889
X32.335 Y88.163
X32.531 Y88.206
X33.706 Y88.442
X33.902 Y88.479
X34.097 Y88.513
X35.077 Y88.678
X35.272 Y88.711
X35.468 Y88.738
X36.447 Y88.873
X36.643 Y88.9
X36.839 Y88.923
X36.871 Y88.926
X36.873 Y88.927
X36.879 Y88.935
X36.893 Y88.951
X36.946 Y89.016
X37.035 Y89.12
X37.117 Y89.212
X37.231 Y89.333
X37.303 Y89.407
X37.427 Y89.528
X37.507 Y89.603
X37.622 Y89.706
X37.73 Y89.798
X37.818 Y89.87
X37.977 Y89.994
X38.014 Y90.021
X38.21 Y90.161
X38.253 Y90.19
X38.406 Y90.289
X38.563 Y90.385
X38.602 Y90.407
X38.798 Y90.516
X38.922 Y90.581
X38.993 Y90.616
X39.189 Y90.708
X39.35 Y90.776
X39.385 Y90.791
X39.581 Y90.867
X39.777 Y90.935
X39.894 Y90.972
X39.973 Y90.996
X40.168 Y91.05
X40.364 Y91.097
X40.56 Y91.138
X40.728 Y91.168
X40.756 Y91.172
X40.952 Y91.2
X41.148 Y91.222
X41.343 Y91.237
G3 X42.058 Y93.433 I-0.098 J1.246
G0 Z23.2
X43.842 Y-8.804
Z8.45
G1 X43.843 Y-8.796 Z8.31 F1000.
X43.844 Y-8.773 Z8.172
X43.846 Y-8.734 Z8.037
X43.848 Y-8.68 Z7.908
X43.852 Y-8.613 Z7.785
X43.855 Y-8.532 Z7.671
X43.86 Y-8.438 Z7.566
X43.865 Y-8.334 Z7.473
X43.87 Y-8.22 Z7.392
X43.876 Y-8.097 Z7.324
X43.883 Y-7.968 Z7.27
X43.889 Y-7.833 Z7.231
X43.896 Y-7.695 Z7.208
X43.903 Y-7.555 Z7.2
G3 X42.714 Y-6.247 I-1.249 J0.06
G1 X42.518 Y-6.237
X42.323 Y-6.222
X42.127 Y-6.2
X41.931 Y-6.172
X41.735 Y-6.137
X41.539 Y-6.096
X41.357 Y-6.052
X41.343 Y-6.049
X41.148 Y-5.994
X40.952 Y-5.933
X40.756 Y-5.864
X40.735 Y-5.857
X40.56 Y-5.788
X40.364 Y-5.705
X40.269 Y-5.661
X40.168 Y-5.613
X39.973 Y-5.513
X39.885 Y-5.465
X39.777 Y-5.404
X39.581 Y-5.285
X39.557 Y-5.27
X39.385 Y-5.156
X39.268 Y-5.074
X39.189 Y-5.016
X39.011 Y-4.878
X38.993 Y-4.865
X38.798 Y-4.7
X38.778 Y-4.683
X38.602 Y-4.521
X38.567 Y-4.487
X38.406 Y-4.325
X38.374 Y-4.292
X38.21 Y-4.111
X38.197 Y-4.096
X38.174 Y-4.07
X38.167 Y-4.061
X38.165
X38.105 Y-4.056
X38.014 Y-4.048
X37.818 Y-4.028
X36.839 Y-3.921
X36.651 Y-3.9
X36.643
X36.447 Y-3.874
X35.24 Y-3.705
X35.077 Y-3.68
X34.881 Y-3.646
X33.902 Y-3.478
X33.706 Y-3.443
X33.51 Y-3.404
X32.531 Y-3.204
X32.335 Y-3.164
X32.139 Y-3.119
X30.964 Y-2.841
X30.768 Y-2.791
X29.593 Y-2.474
X29.397 Y-2.418
X29.202 Y-2.359
X28.222 Y-2.062
X28.027 Y-2.
X27.861 Y-1.944
X26.852 Y-1.604
X26.705 Y-1.553
X26.656 Y-1.535
X26.46 Y-1.463
X25.481 Y-1.098
X25.285 Y-1.022
X25.148 Y-0.966
X24.11 Y-0.542
X23.914 Y-0.459
X22.856 Y0.012
X22.739 Y0.064
X22.543 Y0.156
X21.564 Y0.629
X21.368 Y0.725
X21.234 Y0.794
X20.193 Y1.337
X20.11 Y1.381
X19.997 Y1.443
X19.018 Y1.993
X18.822 Y2.104
X18.722 Y2.164
X17.75 Y2.75
X17.647 Y2.812
X17.451 Y2.936
X16.472 Y3.569
X16.276 Y3.7
X15.297 Y4.377
X15.108 Y4.511
X15.101 Y4.516
X14.122 Y5.238
X14.048 Y5.293
X13.926 Y5.387
X12.947 Y6.158
X12.807 Y6.271
X12.751 Y6.318
X11.874 Y7.054
X11.772 Y7.14
X11.648 Y7.25
X10.772 Y8.032
X10.597 Y8.192
X9.737 Y9.01
X9.618 Y9.124
X9.537 Y9.206
X8.763 Y9.988
X8.639 Y10.114
X8.572 Y10.184
X8.443 Y10.322
X7.845 Y10.966
X7.663 Y11.162
X7.66 Y11.165
X7.489 Y11.357
X6.806 Y12.14
X6.681 Y12.284
X6.637 Y12.335
X6.485 Y12.521
X5.835 Y13.314
X5.701 Y13.481
X5.679 Y13.509
X4.918 Y14.499
X4.782 Y14.683
X4.076 Y15.661
X3.94 Y15.857
X3.28 Y16.835
X3.155 Y17.024
X3.152 Y17.03
X2.535 Y18.008
X2.413 Y18.204
X2.372 Y18.273
X1.785 Y19.272
X1.723 Y19.378
X1.613 Y19.573
X1.078 Y20.551
X1.001 Y20.693
X0.973 Y20.747
X0.874 Y20.942
X0.414 Y21.849
X0.378 Y21.921
X0.283 Y22.116
X-0.176 Y23.094
X-0.267 Y23.29
X-0.353 Y23.485
X-0.775 Y24.464
X-0.858 Y24.659
X-0.936 Y24.855
X-1.349 Y25.899
X-1.398 Y26.028
X-1.469 Y26.224
X-1.821 Y27.202
X-1.89 Y27.398
X-1.936 Y27.541
X-2.271 Y28.571
X-2.328 Y28.748
X-2.334 Y28.767
X-2.391 Y28.963
X-2.676 Y29.941
X-2.72 Y30.092
X-2.732 Y30.136
X-2.783 Y30.332
X-3.035 Y31.31
X-3.085 Y31.506
X-3.111 Y31.617
X-3.35 Y32.679
X-3.394 Y32.875
X-3.434 Y33.07
X-3.66 Y34.244
X-3.696 Y34.44
X-3.699 Y34.458
X-3.895 Y35.676
X-3.915 Y35.809
X-3.941 Y36.005
X-4.067 Y36.983
X-4.09 Y37.164
X-4.092 Y37.178
X-4.113 Y37.374
X-4.128 Y37.57
X-4.136 Y37.765
X-4.14 Y37.961
X-4.164 Y39.721
X-4.166 Y39.917
X-4.164 Y40.113
X-4.156 Y40.308
X-4.141 Y40.504
X-4.12 Y40.699
X-4.093 Y40.895
X-4.09 Y40.912
X-4.06 Y41.091
X-4.02 Y41.286
X-3.973 Y41.482
X-3.92 Y41.677
X-3.895 Y41.763
X-3.877 Y41.818
X-3.869 Y41.846
X-3.865 Y41.856
Y41.858
X-3.871 Y41.873
X-3.895 Y41.942
X-3.936 Y42.069
X-3.994 Y42.264
X-4.045 Y42.46
X-4.089 Y42.656
X-4.09 Y42.662
X-4.127 Y42.851
X-4.158 Y43.047
X-4.183 Y43.242
X-4.202 Y43.438
X-4.215 Y43.634
X-4.221 Y43.829
X-4.224 Y44.025
X-4.248 Y45.785
X-4.25 Y45.981
X-4.245 Y46.177
X-4.235 Y46.372
X-4.218 Y46.568
X-4.1 Y47.741
X-4.09 Y47.835
X-4.079 Y47.937
X-4.053 Y48.133
X-3.924 Y49.111
X-3.898 Y49.306
X-3.895 Y49.33
X-3.868 Y49.502
X-3.675 Y50.676
X-3.64 Y50.871
X-3.41 Y52.045
X-3.37 Y52.241
X-3.326 Y52.436
X-3.102 Y53.414
X-3.057 Y53.61
X-3.007 Y53.806
X-2.72 Y54.904
X-2.7 Y54.979
X-2.644 Y55.175
X-2.328 Y56.246
X-2.298 Y56.348
X-2.236 Y56.544
X-1.914 Y57.522
X-1.85 Y57.718
X-1.781 Y57.913
X-1.426 Y58.891
X-1.354 Y59.087
X-1.349 Y59.102
X-1.279 Y59.283
X-0.888 Y60.261
X-0.81 Y60.456
X-0.761 Y60.573
X-0.727 Y60.652
X-0.301 Y61.63
X-0.215 Y61.826
X-0.174 Y61.914
X0.339 Y62.999
X0.414 Y63.154
X0.434 Y63.195
X0.534 Y63.391
X1.001 Y64.304
X1.034 Y64.369
X1.14 Y64.564
X1.679 Y65.542
X1.785 Y65.731
X1.788 Y65.738
X1.904 Y65.934
X2.372 Y66.724
X2.484 Y66.912
X2.568 Y67.047
X3.227 Y68.085
X3.351 Y68.274
X4.021 Y69.259
X4.135 Y69.423
X4.158 Y69.455
X4.868 Y70.433
X4.918 Y70.502
X5.014 Y70.628
X5.771 Y71.606
X5.897 Y71.765
X6.681 Y72.714
X6.735 Y72.78
X6.876 Y72.943
X7.593 Y73.758
X7.66 Y73.834
X7.768 Y73.954
X7.856 Y74.048
X8.639 Y74.885
X8.683 Y74.932
X8.835 Y75.086
X9.654 Y75.91
X9.814 Y76.065
X10.685 Y76.888
X10.793 Y76.989
X10.899 Y77.083
X11.78 Y77.866
X11.968 Y78.027
X12.751 Y78.68
X12.947 Y78.843
X12.949 Y78.844
X13.143 Y78.998
X13.946 Y79.626
X14.122 Y79.763
X14.201 Y79.822
X15.101 Y80.482
X15.269 Y80.605
X15.297 Y80.625
X15.493 Y80.76
X16.406 Y81.387
X16.472 Y81.432
X16.668 Y81.559
X17.619 Y82.169
X17.647 Y82.188
X17.843 Y82.308
X18.822 Y82.894
X18.919 Y82.952
X19.018 Y83.009
X19.214 Y83.118
X19.997 Y83.555
X20.193 Y83.664
X20.326 Y83.734
X21.368 Y84.274
X21.46 Y84.321
X21.564 Y84.373
X21.76 Y84.467
X22.682 Y84.908
X22.739 Y84.936
X22.935 Y85.025
X24. Y85.495
X24.11 Y85.543
X24.306 Y85.624
X25.285 Y86.02
X25.437 Y86.082
X25.481 Y86.099
X25.677 Y86.172
X26.656 Y86.533
X26.852 Y86.605
X27.04 Y86.669
X28.027 Y86.998
X28.212 Y87.06
X28.222 Y87.063
X28.418 Y87.123
X29.512 Y87.451
X29.593 Y87.475
X29.789 Y87.528
X30.768 Y87.789
X30.964 Y87.841
X30.968 Y87.842
X31.16 Y87.889
X32.335 Y88.163
X32.531 Y88.206
X33.706 Y88.442
X33.902 Y88.479
X34.097 Y88.513
X35.077 Y88.678
X35.272 Y88.711
X35.468 Y88.738
X36.447 Y88.873
X36.643 Y88.9
X36.839 Y88.923
X36.871 Y88.926
X36.873 Y88.927
X36.879 Y88.935
X36.893 Y88.951
X36.946 Y89.016
X37.035 Y89.12
X37.117 Y89.212
X37.231 Y89.333
X37.303 Y89.407
X37.427 Y89.528
X37.507 Y89.603
X37.622 Y89.706
X37.73 Y89.798
X37.818 Y89.87
X37.977 Y89.994
X38.014 Y90.021
X38.21 Y90.161
X38.253 Y90.19
X38.406 Y90.289
X38.563 Y90.385
X38.602 Y90.407
X38.798 Y90.516
X38.922 Y90.581
X38.993 Y90.616
X39.189 Y90.708
X39.35 Y90.776
X39.385 Y90.791
X39.581 Y90.867
X39.777 Y90.935
X39.894 Y90.972
X39.973 Y90.996
X40.168 Y91.05
X40.364 Y91.097
X40.56 Y91.138
X40.728 Y91.168
X40.756 Y91.172
X40.952 Y91.2
X41.148 Y91.222
X41.343 Y91.237
G3 X42.058 Y93.433 I-0.098 J1.246
G0 Z23.2
X43.842 Y-8.804
Z7.45
G1 X43.843 Y-8.796 Z7.31 F1000.
X43.844 Y-8.773 Z7.172
X43.846 Y-8.734 Z7.037
X43.848 Y-8.68 Z6.908
X43.852 Y-8.613 Z6.785
X43.855 Y-8.532 Z6.671
X43.86 Y-8.438 Z6.566
X43.865 Y-8.334 Z6.473
X43.87 Y-8.22 Z6.392
X43.876 Y-8.097 Z6.324
X43.883 Y-7.968 Z6.27
X43.889 Y-7.833 Z6.231
X43.896 Y-7.695 Z6.208
X43.903 Y-7.555 Z6.2
G3 X42.714 Y-6.247 I-1.249 J0.06
G1 X42.518 Y-6.237
X42.323 Y-6.222
X42.127 Y-6.2
X41.931 Y-6.172
X41.735 Y-6.137
X41.539 Y-6.096
X41.357 Y-6.052
X41.343 Y-6.049
X41.148 Y-5.994
X40.952 Y-5.933
X40.756 Y-5.864
X40.735 Y-5.857
X40.56 Y-5.788
X40.364 Y-5.705
X40.269 Y-5.661
X40.168 Y-5.613
X39.973 Y-5.513
X39.885 Y-5.465
X39.777 Y-5.404
X39.581 Y-5.285
X39.557 Y-5.27
X39.385 Y-5.156
X39.268 Y-5.074
X39.189 Y-5.016
X39.011 Y-4.878
X38.993 Y-4.865
X38.798 Y-4.7
X38.778 Y-4.683
X38.602 Y-4.521
X38.567 Y-4.487
X38.406 Y-4.325
X38.374 Y-4.292
X38.21 Y-4.111
X38.197 Y-4.096
X38.174 Y-4.07
X38.167 Y-4.061
X38.165
X38.105 Y-4.056
X38.014 Y-4.048
X37.818 Y-4.028
X36.839 Y-3.921
X36.651 Y-3.9
X36.643
X36.447 Y-3.874
X35.24 Y-3.705
X35.077 Y-3.68
X34.881 Y-3.646
X33.902 Y-3.478
X33.706 Y-3.443
X33.51 Y-3.404
X32.531 Y-3.204
X32.335 Y-3.164
X32.139 Y-3.119
X30.964 Y-2.841
X30.768 Y-2.791
X29.593 Y-2.474
X29.397 Y-2.418
X29.202 Y-2.359
X28.222 Y-2.062
X28.027 Y-2.
X27.861 Y-1.944
X26.852 Y-1.604
X26.705 Y-1.553
X26.656 Y-1.535
X26.46 Y-1.463
X25.481 Y-1.098
X25.285 Y-1.022
X25.148 Y-0.966
X24.11 Y-0.542
X23.914 Y-0.459
X22.856 Y0.012
X22.739 Y0.064
X22.543 Y0.156
X21.564 Y0.629
X21.368 Y0.725
X21.234 Y0.794
X20.193 Y1.337
X20.11 Y1.381
X19.997 Y1.443
X19.018 Y1.993
X18.822 Y2.104
X18.722 Y2.164
X17.75 Y2.75
X17.647 Y2.812
X17.451 Y2.936
X16.472 Y3.569
X16.276 Y3.7
X15.297 Y4.377
X15.108 Y4.511
X15.101 Y4.516
X14.122 Y5.238
X14.048 Y5.293
X13.926 Y5.387
X12.947 Y6.158
X12.807 Y6.271
X12.751 Y6.318
X11.874 Y7.054
X11.772 Y7.14
X11.648 Y7.25
X10.772 Y8.032
X10.597 Y8.192
X9.737 Y9.01
X9.618 Y9.124
X9.537 Y9.206
X8.763 Y9.988
X8.639 Y10.114
X8.572 Y10.184
X8.443 Y10.322
X7.845 Y10.966
X7.663 Y11.162
X7.66 Y11.165
X7.489 Y11.357
X6.806 Y12.14
X6.681 Y12.284
X6.637 Y12.335
X6.485 Y12.521
X5.835 Y13.314
X5.701 Y13.481
X5.679 Y13.509
X4.918 Y14.499
X4.782 Y14.683
X4.076 Y15.661
X3.94 Y15.857
X3.28 Y16.835
X3.155 Y17.024
X3.152 Y17.03
X2.535 Y18.008
X2.413 Y18.204
X2.372 Y18.273
X1.785 Y19.272
X1.723 Y19.378
X1.613 Y19.573
X1.078 Y20.551
X1.001 Y20.693
X0.973 Y20.747
X0.874 Y20.942
X0.414 Y21.849
X0.378 Y21.921
X0.283 Y22.116
X-0.176 Y23.094
X-0.267 Y23.29
X-0.353 Y23.485
X-0.775 Y24.464
X-0.858 Y24.659
X-0.936 Y24.855
X-1.349 Y25.899
X-1.398 Y26.028
X-1.469 Y26.224
X-1.821 Y27.202
X-1.89 Y27.398
X-1.936 Y27.541
X-2.271 Y28.571
X-2.328 Y28.748
X-2.334 Y28.767
X-2.391 Y28.963
X-2.676 Y29.941
X-2.72 Y30.092
X-2.732 Y30.136
X-2.783 Y30.332
X-3.035 Y31.31
X-3.085 Y31.506
X-3.111 Y31.617
X-3.35 Y32.679
X-3.394 Y32.875
X-3.434 Y33.07
X-3.66 Y34.244
X-3.696 Y34.44
X-3.699 Y34.458
X-3.895 Y35.676
X-3.915 Y35.809
X-3.941 Y36.005
X-4.067 Y36.983
X-4.09 Y37.164
X-4.092 Y37.178
X-4.113 Y37.374
X-4.128 Y37.57
X-4.136 Y37.765
X-4.14 Y37.961
X-4.164 Y39.721
X-4.166 Y39.917
X-4.164 Y40.113
X-4.156 Y40.308
X-4.141 Y40.504
X-4.12 Y40.699
X-4.093 Y40.895
X-4.09 Y40.912
X-4.06 Y41.091
X-4.02 Y41.286
X-3.973 Y41.482
X-3.92 Y41.677
X-3.895 Y41.763
X-3.877 Y41.818
X-3.869 Y41.846
X-3.865 Y41.856
Y41.858
X-3.871 Y41.873
X-3.895 Y41.942
X-3.936 Y42.069
X-3.994 Y42.264
X-4.045 Y42.46
X-4.089 Y42.656
X-4.09 Y42.662
X-4.127 Y42.851
X-4.158 Y43.047
X-4.183 Y43.242
X-4.202 Y43.438
X-4.215 Y43.634
X-4.221 Y43.829
X-4.224 Y44.025
X-4.248 Y45.785
X-4.25 Y45.981
X-4.245 Y46.177
X-4.235 Y46.372
X-4.218 Y46.568
X-4.1 Y47.741
X-4.09 Y47.835
X-4.079 Y47.937
X-4.053 Y48.133
X-3.924 Y49.111
X-3.898 Y49.306
X-3.895 Y49.33
X-3.868 Y49.502
X-3.675 Y50.676
X-3.64 Y50.871
X-3.41 Y52.045
X-3.37 Y52.241
X-3.326 Y52.436
X-3.102 Y53.414
X-3.057 Y53.61
X-3.007 Y53.806
X-2.72 Y54.904
X-2.7 Y54.979
X-2.644 Y55.175
X-2.328 Y56.246
X-2.298 Y56.348
X-2.236 Y56.544
X-1.914 Y57.522
X-1.85 Y57.718
X-1.781 Y57.913
X-1.426 Y58.891
X-1.354 Y59.087
X-1.349 Y59.102
X-1.279 Y59.283
X-0.888 Y60.261
X-0.81 Y60.456
X-0.761 Y60.573
X-0.727 Y60.652
X-0.301 Y61.63
X-0.215 Y61.826
X-0.174 Y61.914
X0.339 Y62.999
X0.414 Y63.154
X0.434 Y63.195
X0.534 Y63.391
X1.001 Y64.304
X1.034 Y64.369
X1.14 Y64.564
X1.679 Y65.542
X1.785 Y65.731
X1.788 Y65.738
X1.904 Y65.934
X2.372 Y66.724
X2.484 Y66.912
X2.568 Y67.047
X3.227 Y68.085
X3.351 Y68.274
X4.021 Y69.259
X4.135 Y69.423
X4.158 Y69.455
X4.868 Y70.433
X4.918 Y70.502
X5.014 Y70.628
X5.771 Y71.606
X5.897 Y71.765
X6.681 Y72.714
X6.735 Y72.78
X6.876 Y72.943
X7.593 Y73.758
X7.66 Y73.834
X7.768 Y73.954
X7.856 Y74.048
X8.639 Y74.885
X8.683 Y74.932
X8.835 Y75.086
X9.654 Y75.91
X9.814 Y76.065
X10.685 Y76.888
X10.793 Y76.989
X10.899 Y77.083
X11.78 Y77.866
X11.968 Y78.027
X12.751 Y78.68
X12.947 Y78.843
X12.949 Y78.844
X13.143 Y78.998
X13.946 Y79.626
X14.122 Y79.763
X14.201 Y79.822
X15.101 Y80.482
X15.269 Y80.605
X15.297 Y80.625
X15.493 Y80.76
X16.406 Y81.387
X16.472 Y81.432
X16.668 Y81.559
X17.619 Y82.169
X17.647 Y82.188
X17.843 Y82.308
X18.822 Y82.894
X18.919 Y82.952
X19.018 Y83.009
X19.214 Y83.118
X19.997 Y83.555
X20.193 Y83.664
X20.326 Y83.734
X21.368 Y84.274
X21.46 Y84.321
X21.564 Y84.373
X21.76 Y84.467
X22.682 Y84.908
X22.739 Y84.936
X22.935 Y85.025
X24. Y85.495
X24.11 Y85.543
X24.306 Y85.624
X25.285 Y86.02
X25.437 Y86.082
X25.481 Y86.099
X25.677 Y86.172
X26.656 Y86.533
X26.852 Y86.605
X27.04 Y86.669
X28.027 Y86.998
X28.212 Y87.06
X28.222 Y87.063
X28.418 Y87.123
X29.512 Y87.451
X29.593 Y87.475
X29.789 Y87.528
X30.768 Y87.789
X30.964 Y87.841
X30.968 Y87.842
X31.16 Y87.889
X32.335 Y88.163
X32.531 Y88.206
X33.706 Y88.442
X33.902 Y88.479
X34.097 Y88.513
X35.077 Y88.678
X35.272 Y88.711
X35.468 Y88.738
X36.447 Y88.873
X36.643 Y88.9
X36.839 Y88.923
X36.871 Y88.926
X36.873 Y88.927
X36.879 Y88.935
X36.893 Y88.951
X36.946 Y89.016
X37.035 Y89.12
X37.117 Y89.212
X37.231 Y89.333
X37.303 Y89.407
X37.427 Y89.528
X37.507 Y89.603
X37.622 Y89.706
X37.73 Y89.798
X37.818 Y89.87
X37.977 Y89.994
X38.014 Y90.021
X38.21 Y90.161
X38.253 Y90.19
X38.406 Y90.289
X38.563 Y90.385
X38.602 Y90.407
X38.798 Y90.516
X38.922 Y90.581
X38.993 Y90.616
X39.189 Y90.708
X39.35 Y90.776
X39.385 Y90.791
X39.581 Y90.867
X39.777 Y90.935
X39.894 Y90.972
X39.973 Y90.996
X40.168 Y91.05
X40.364 Y91.097
X40.56 Y91.138
X40.728 Y91.168
X40.756 Y91.172
X40.952 Y91.2
X41.148 Y91.222
X41.343 Y91.237
G3 X42.058 Y93.433 I-0.098 J1.246
G0 Z23.2
X43.842 Y-8.804
Z6.45
G1 X43.843 Y-8.796 Z6.31 F1000.
X43.844 Y-8.773 Z6.172
X43.846 Y-8.734 Z6.037
X43.848 Y-8.68 Z5.908
X43.852 Y-8.613 Z5.785
X43.855 Y-8.532 Z5.671
X43.86 Y-8.438 Z5.566
X43.865 Y-8.334 Z5.473
X43.87 Y-8.22 Z5.392
X43.876 Y-8.097 Z5.324
X43.883 Y-7.968 Z5.27
X43.889 Y-7.833 Z5.231
X43.896 Y-7.695 Z5.208
X43.903 Y-7.555 Z5.2
G3 X42.714 Y-6.247 I-1.249 J0.06
G1 X42.518 Y-6.237
X42.323 Y-6.222
X42.127 Y-6.2
X41.931 Y-6.172
X41.735 Y-6.137
X41.539 Y-6.096
X41.357 Y-6.052
X41.343 Y-6.049
X41.148 Y-5.994
X40.952 Y-5.933
X40.756 Y-5.864
X40.735 Y-5.857
X40.56 Y-5.788
X40.364 Y-5.705
X40.269 Y-5.661
X40.168 Y-5.613
X39.973 Y-5.513
X39.885 Y-5.465
X39.777 Y-5.404
X39.581 Y-5.285
X39.557 Y-5.27
X39.385 Y-5.156
X39.268 Y-5.074
X39.189 Y-5.016
X39.011 Y-4.878
X38.993 Y-4.865
X38.798 Y-4.7
X38.778 Y-4.683
X38.602 Y-4.521
X38.567 Y-4.487
X38.406 Y-4.325
X38.374 Y-4.292
X38.21 Y-4.111
X38.197 Y-4.096
X38.174 Y-4.07
X38.167 Y-4.061
X38.165
X38.105 Y-4.056
X38.014 Y-4.048
X37.818 Y-4.028
X36.839 Y-3.921
X36.651 Y-3.9
X36.643
X36.447 Y-3.874
X35.24 Y-3.705
X35.077 Y-3.68
X34.881 Y-3.646
X33.902 Y-3.478
X33.706 Y-3.443
X33.51 Y-3.404
X32.531 Y-3.204
X32.335 Y-3.164
X32.139 Y-3.119
X30.964 Y-2.841
X30.768 Y-2.791
X29.593 Y-2.474
X29.397 Y-2.418
X29.202 Y-2.359
X28.222 Y-2.062
X28.027 Y-2.
X27.861 Y-1.944
X26.852 Y-1.604
X26.705 Y-1.553
X26.656 Y-1.535
X26.46 Y-1.463
X25.481 Y-1.098
X25.285 Y-1.022
X25.148 Y-0.966
X24.11 Y-0.542
X23.914 Y-0.459
X22.856 Y0.012
X22.739 Y0.064
X22.543 Y0.156
X21.564 Y0.629
X21.368 Y0.725
X21.234 Y0.794
X20.193 Y1.337
X20.11 Y1.381
X19.997 Y1.443
X19.018 Y1.993
X18.822 Y2.104
X18.722 Y2.164
X17.75 Y2.75
X17.647 Y2.812
X17.451 Y2.936
X16.472 Y3.569
X16.276 Y3.7
X15.297 Y4.377
X15.108 Y4.511
X15.101 Y4.516
X14.122 Y5.238
X14.048 Y5.293
X13.926 Y5.387
X12.947 Y6.158
X12.807 Y6.271
X12.751 Y6.318
X11.874 Y7.054
X11.772 Y7.14
X11.648 Y7.25
X10.772 Y8.032
X10.597 Y8.192
X9.737 Y9.01
X9.618 Y9.124
X9.537 Y9.206
X8.763 Y9.988
X8.639 Y10.114
X8.572 Y10.184
X8.443 Y10.322
X7.845 Y10.966
X7.663 Y11.162
X7.66 Y11.165
X7.489 Y11.357
X6.806 Y12.14
X6.681 Y12.284
X6.637 Y12.335
X6.485 Y12.521
X5.835 Y13.314
X5.701 Y13.481
X5.679 Y13.509
X4.918 Y14.499
X4.782 Y14.683
X4.076 Y15.661
X3.94 Y15.857
X3.28 Y16.835
X3.155 Y17.024
X3.152 Y17.03
X2.535 Y18.008
X2.413 Y18.204
X2.372 Y18.273
X1.785 Y19.272
X1.723 Y19.378
X1.613 Y19.573
X1.078 Y20.551
X1.001 Y20.693
X0.973 Y20.747
X0.874 Y20.942
X0.414 Y21.849
X0.378 Y21.921
X0.283 Y22.116
X-0.176 Y23.094
X-0.267 Y23.29
X-0.353 Y23.485
X-0.775 Y24.464
X-0.858 Y24.659
X-0.936 Y24.855
X-1.349 Y25.899
X-1.398 Y26.028
X-1.469 Y26.224
X-1.821 Y27.202
X-1.89 Y27.398
X-1.936 Y27.541
X-2.271 Y28.571
X-2.328 Y28.748
X-2.334 Y28.767
X-2.391 Y28.963
X-2.676 Y29.941
X-2.72 Y30.092
X-2.732 Y30.136
X-2.783 Y30.332
X-3.035 Y31.31
X-3.085 Y31.506
X-3.111 Y31.617
X-3.35 Y32.679
X-3.394 Y32.875
X-3.434 Y33.07
X-3.66 Y34.244
X-3.696 Y34.44
X-3.699 Y34.458
X-3.895 Y35.676
X-3.915 Y35.809
X-3.941 Y36.005
X-4.067 Y36.983
X-4.09 Y37.164
X-4.092 Y37.178
X-4.113 Y37.374
X-4.128 Y37.57
X-4.136 Y37.765
X-4.14 Y37.961
X-4.164 Y39.721
X-4.166 Y39.917
X-4.164 Y40.113
X-4.156 Y40.308
X-4.141 Y40.504
X-4.12 Y40.699
X-4.093 Y40.895
X-4.09 Y40.912
X-4.06 Y41.091
X-4.02 Y41.286
X-3.973 Y41.482
X-3.92 Y41.677
X-3.895 Y41.763
X-3.877 Y41.818
X-3.869 Y41.846
X-3.865 Y41.856
Y41.858
X-3.871 Y41.873
X-3.895 Y41.942
X-3.936 Y42.069
X-3.994 Y42.264
X-4.045 Y42.46
X-4.089 Y42.656
X-4.09 Y42.662
X-4.127 Y42.851
X-4.158 Y43.047
X-4.183 Y43.242
X-4.202 Y43.438
X-4.215 Y43.634
X-4.221 Y43.829
X-4.224 Y44.025
X-4.248 Y45.785
X-4.25 Y45.981
X-4.245 Y46.177
X-4.235 Y46.372
X-4.218 Y46.568
X-4.1 Y47.741
X-4.09 Y47.835
X-4.079 Y47.937
X-4.053 Y48.133
X-3.924 Y49.111
X-3.898 Y49.306
X-3.895 Y49.33
X-3.868 Y49.502
X-3.675 Y50.676
X-3.64 Y50.871
X-3.41 Y52.045
X-3.37 Y52.241
X-3.326 Y52.436
X-3.102 Y53.414
X-3.057 Y53.61
X-3.007 Y53.806
X-2.72 Y54.904
X-2.7 Y54.979
X-2.644 Y55.175
X-2.328 Y56.246
X-2.298 Y56.348
X-2.236 Y56.544
X-1.914 Y57.522
X-1.85 Y57.718
X-1.781 Y57.913
X-1.426 Y58.891
X-1.354 Y59.087
X-1.349 Y59.102
X-1.279 Y59.283
X-0.888 Y60.261
X-0.81 Y60.456
X-0.761 Y60.573
X-0.727 Y60.652
X-0.301 Y61.63
X-0.215 Y61.826
X-0.174 Y61.914
X0.339 Y62.999
X0.414 Y63.154
X0.434 Y63.195
X0.534 Y63.391
X1.001 Y64.304
X1.034 Y64.369
X1.14 Y64.564
X1.679 Y65.542
X1.785 Y65.731
X1.788 Y65.738
X1.904 Y65.934
X2.372 Y66.724
X2.484 Y66.912
X2.568 Y67.047
X3.227 Y68.085
X3.351 Y68.274
X4.021 Y69.259
X4.135 Y69.423
X4.158 Y69.455
X4.868 Y70.433
X4.918 Y70.502
X5.014 Y70.628
X5.771 Y71.606
X5.897 Y71.765
X6.681 Y72.714
X6.735 Y72.78
X6.876 Y72.943
X7.593 Y73.758
X7.66 Y73.834
X7.768 Y73.954
X7.856 Y74.048
X8.639 Y74.885
X8.683 Y74.932
X8.835 Y75.086
X9.654 Y75.91
X9.814 Y76.065
X10.685 Y76.888
X10.793 Y76.989
X10.899 Y77.083
X11.78 Y77.866
X11.968 Y78.027
X12.751 Y78.68
X12.947 Y78.843
X12.949 Y78.844
X13.143 Y78.998
X13.946 Y79.626
X14.122 Y79.763
X14.201 Y79.822
X15.101 Y80.482
X15.269 Y80.605
X15.297 Y80.625
X15.493 Y80.76
X16.406 Y81.387
X16.472 Y81.432
X16.668 Y81.559
X17.619 Y82.169
X17.647 Y82.188
X17.843 Y82.308
X18.822 Y82.894
X18.919 Y82.952
X19.018 Y83.009
X19.214 Y83.118
X19.997 Y83.555
X20.193 Y83.664
X20.326 Y83.734
X21.368 Y84.274
X21.46 Y84.321
X21.564 Y84.373
X21.76 Y84.467
X22.682 Y84.908
X22.739 Y84.936
X22.935 Y85.025
X24. Y85.495
X24.11 Y85.543
X24.306 Y85.624
X25.285 Y86.02
X25.437 Y86.082
X25.481 Y86.099
X25.677 Y86.172
X26.656 Y86.533
X26.852 Y86.605
X27.04 Y86.669
X28.027 Y86.998
X28.212 Y87.06
X28.222 Y87.063
X28.418 Y87.123
X29.512 Y87.451
X29.593 Y87.475
X29.789 Y87.528
X30.768 Y87.789
X30.964 Y87.841
X30.968 Y87.842
X31.16 Y87.889
X32.335 Y88.163
X32.531 Y88.206
X33.706 Y88.442
X33.902 Y88.479
X34.097 Y88.513
X35.077 Y88.678
X35.272 Y88.711
X35.468 Y88.738
X36.447 Y88.873
X36.643 Y88.9
X36.839 Y88.923
X36.871 Y88.926
X36.873 Y88.927
X36.879 Y88.935
X36.893 Y88.951
X36.946 Y89.016
X37.035 Y89.12
X37.117 Y89.212
X37.231 Y89.333
X37.303 Y89.407
X37.427 Y89.528
X37.507 Y89.603
X37.622 Y89.706
X37.73 Y89.798
X37.818 Y89.87
X37.977 Y89.994
X38.014 Y90.021
X38.21 Y90.161
X38.253 Y90.19
X38.406 Y90.289
X38.563 Y90.385
X38.602 Y90.407
X38.798 Y90.516
X38.922 Y90.581
X38.993 Y90.616
X39.189 Y90.708
X39.35 Y90.776
X39.385 Y90.791
X39.581 Y90.867
X39.777 Y90.935
X39.894 Y90.972
X39.973 Y90.996
X40.168 Y91.05
X40.364 Y91.097
X40.56 Y91.138
X40.728 Y91.168
X40.756 Y91.172
X40.952 Y91.2
X41.148 Y91.222
X41.343 Y91.237
G3 X42.058 Y93.433 I-0.098 J1.246
G0 Z23.2
X43.842 Y-8.804
Z5.45
G1 X43.843 Y-8.796 Z5.31 F1000.
X43.844 Y-8.773 Z5.172
X43.846 Y-8.734 Z5.037
X43.848 Y-8.68 Z4.908
X43.852 Y-8.613 Z4.785
X43.855 Y-8.532 Z4.671
X43.86 Y-8.438 Z4.566
X43.865 Y-8.334 Z4.473
X43.87 Y-8.22 Z4.392
X43.876 Y-8.097 Z4.324
X43.883 Y-7.968 Z4.27
X43.889 Y-7.833 Z4.231
X43.896 Y-7.695 Z4.208
X43.903 Y-7.555 Z4.2
G3 X42.714 Y-6.247 I-1.249 J0.06
G1 X42.518 Y-6.237
X42.323 Y-6.222
X42.127 Y-6.2
X41.931 Y-6.172
X41.735 Y-6.137
X41.539 Y-6.096
X41.357 Y-6.052
X41.343 Y-6.049
X41.148 Y-5.994
X40.952 Y-5.933
X40.756 Y-5.864
X40.735 Y-5.857
X40.56 Y-5.788
X40.364 Y-5.705
X40.269 Y-5.661
X40.168 Y-5.613
X39.973 Y-5.513
X39.885 Y-5.465
X39.777 Y-5.404
X39.581 Y-5.285
X39.557 Y-5.27
X39.385 Y-5.156
X39.268 Y-5.074
X39.189 Y-5.016
X39.011 Y-4.878
X38.993 Y-4.865
X38.798 Y-4.7
X38.778 Y-4.683
X38.602 Y-4.521
X38.567 Y-4.487
X38.406 Y-4.325
X38.374 Y-4.292
X38.21 Y-4.111
X38.197 Y-4.096
X38.174 Y-4.07
X38.167 Y-4.061
X38.165
X38.105 Y-4.056
X38.014 Y-4.048
X37.818 Y-4.028
X36.839 Y-3.921
X36.651 Y-3.9
X36.643
X36.447 Y-3.874
X35.24 Y-3.705
X35.077 Y-3.68
X34.881 Y-3.646
X33.902 Y-3.478
X33.706 Y-3.443
X33.51 Y-3.404
X32.531 Y-3.204
X32.335 Y-3.164
X32.139 Y-3.119
X30.964 Y-2.841
X30.768 Y-2.791
X29.593 Y-2.474
X29.397 Y-2.418
X29.202 Y-2.359
X28.222 Y-2.062
X28.027 Y-2.
X27.861 Y-1.944
X26.852 Y-1.604
X26.705 Y-1.553
X26.656 Y-1.535
X26.46 Y-1.463
X25.481 Y-1.098
X25.285 Y-1.022
X25.148 Y-0.966
X24.11 Y-0.542
X23.914 Y-0.459
X22.856 Y0.012
X22.739 Y0.064
X22.543 Y0.156
X21.564 Y0.629
X21.368 Y0.725
X21.234 Y0.794
X20.193 Y1.337
X20.11 Y1.381
X19.997 Y1.443
X19.018 Y1.993
X18.822 Y2.104
X18.722 Y2.164
X17.75 Y2.75
X17.647 Y2.812
X17.451 Y2.936
X16.472 Y3.569
X16.276 Y3.7
X15.297 Y4.377
X15.108 Y4.511
X15.101 Y4.516
X14.122 Y5.238
X14.048 Y5.293
X13.926 Y5.387
X12.947 Y6.158
X12.807 Y6.271
X12.751 Y6.318
X11.874 Y7.054
X11.772 Y7.14
X11.648 Y7.25
X10.772 Y8.032
X10.597 Y8.192
X9.737 Y9.01
X9.618 Y9.124
X9.537 Y9.206
X8.763 Y9.988
X8.639 Y10.114
X8.572 Y10.184
X8.443 Y10.322
X7.845 Y10.966
X7.663 Y11.162
X7.66 Y11.165
X7.489 Y11.357
X6.806 Y12.14
X6.681 Y12.284
X6.637 Y12.335
X6.485 Y12.521
X5.835 Y13.314
X5.701 Y13.481
X5.679 Y13.509
X4.918 Y14.499
X4.782 Y14.683
X4.076 Y15.661
X3.94 Y15.857
X3.28 Y16.835
X3.155 Y17.024
X3.152 Y17.03
X2.535 Y18.008
X2.413 Y18.204
X2.372 Y18.273
X1.785 Y19.272
X1.723 Y19.378
X1.613 Y19.573
X1.078 Y20.551
X1.001 Y20.693
X0.973 Y20.747
X0.874 Y20.942
X0.414 Y21.849
X0.378 Y21.921
X0.283 Y22.116
X-0.176 Y23.094
X-0.267 Y23.29
X-0.353 Y23.485
X-0.775 Y24.464
X-0.858 Y24.659
X-0.936 Y24.855
X-1.349 Y25.899
X-1.398 Y26.028
X-1.469 Y26.224
X-1.821 Y27.202
X-1.89 Y27.398
X-1.936 Y27.541
X-2.271 Y28.571
X-2.328 Y28.748
X-2.334 Y28.767
X-2.391 Y28.963
X-2.676 Y29.941
X-2.72 Y30.092
X-2.732 Y30.136
X-2.783 Y30.332
X-3.035 Y31.31
X-3.085 Y31.506
X-3.111 Y31.617
X-3.35 Y32.679
X-3.394 Y32.875
X-3.434 Y33.07
X-3.66 Y34.244
X-3.696 Y34.44
X-3.699 Y34.458
X-3.895 Y35.676
X-3.915 Y35.809
X-3.941 Y36.005
X-4.067 Y36.983
X-4.09 Y37.164
X-4.092 Y37.178
X-4.113 Y37.374
X-4.128 Y37.57
X-4.136 Y37.765
X-4.14 Y37.961
X-4.164 Y39.721
X-4.166 Y39.917
X-4.164 Y40.113
X-4.156 Y40.308
X-4.141 Y40.504
X-4.12 Y40.699
X-4.093 Y40.895
X-4.09 Y40.912
X-4.06 Y41.091
X-4.02 Y41.286
X-3.973 Y41.482
X-3.92 Y41.677
X-3.895 Y41.763
X-3.877 Y41.818
X-3.869 Y41.846
X-3.865 Y41.856
Y41.858
X-3.871 Y41.873
X-3.895 Y41.942
X-3.936 Y42.069
X-3.994 Y42.264
X-4.045 Y42.46
X-4.089 Y42.656
X-4.09 Y42.662
X-4.127 Y42.851
X-4.158 Y43.047
X-4.183 Y43.242
X-4.202 Y43.438
X-4.215 Y43.634
X-4.221 Y43.829
X-4.224 Y44.025
X-4.248 Y45.785
X-4.25 Y45.981
X-4.245 Y46.177
X-4.235 Y46.372
X-4.218 Y46.568
X-4.1 Y47.741
X-4.09 Y47.835
X-4.079 Y47.937
X-4.053 Y48.133
X-3.924 Y49.111
X-3.898 Y49.306
X-3.895 Y49.33
X-3.868 Y49.502
X-3.675 Y50.676
X-3.64 Y50.871
X-3.41 Y52.045
X-3.37 Y52.241
X-3.326 Y52.436
X-3.102 Y53.414
X-3.057 Y53.61
X-3.007 Y53.806
X-2.72 Y54.904
X-2.7 Y54.979
X-2.644 Y55.175
X-2.328 Y56.246
X-2.298 Y56.348
X-2.236 Y56.544
X-1.914 Y57.522
X-1.85 Y57.718
X-1.781 Y57.913
X-1.426 Y58.891
X-1.354 Y59.087
X-1.349 Y59.102
X-1.279 Y59.283
X-0.888 Y60.261
X-0.81 Y60.456
X-0.761 Y60.573
X-0.727 Y60.652
X-0.301 Y61.63
X-0.215 Y61.826
X-0.174 Y61.914
X0.339 Y62.999
X0.414 Y63.154
X0.434 Y63.195
X0.534 Y63.391
X1.001 Y64.304
X1.034 Y64.369
X1.14 Y64.564
X1.679 Y65.542
X1.785 Y65.731
X1.788 Y65.738
X1.904 Y65.934
X2.372 Y66.724
X2.484 Y66.912
X2.568 Y67.047
X3.227 Y68.085
X3.351 Y68.274
X4.021 Y69.259
X4.135 Y69.423
X4.158 Y69.455
X4.868 Y70.433
X4.918 Y70.502
X5.014 Y70.628
X5.771 Y71.606
X5.897 Y71.765
X6.681 Y72.714
X6.735 Y72.78
X6.876 Y72.943
X7.593 Y73.758
X7.66 Y73.834
X7.768 Y73.954
X7.856 Y74.048
X8.639 Y74.885
X8.683 Y74.932
X8.835 Y75.086
X9.654 Y75.91
X9.814 Y76.065
X10.685 Y76.888
X10.793 Y76.989
X10.899 Y77.083
X11.78 Y77.866
X11.968 Y78.027
X12.751 Y78.68
X12.947 Y78.843
X12.949 Y78.844
X13.143 Y78.998
X13.946 Y79.626
X14.122 Y79.763
X14.201 Y79.822
X15.101 Y80.482
X15.269 Y80.605
X15.297 Y80.625
X15.493 Y80.76
X16.406 Y81.387
X16.472 Y81.432
X16.668 Y81.559
X17.619 Y82.169
X17.647 Y82.188
X17.843 Y82.308
X18.822 Y82.894
X18.919 Y82.952
X19.018 Y83.009
X19.214 Y83.118
X19.997 Y83.555
X20.193 Y83.664
X20.326 Y83.734
X21.368 Y84.274
X21.46 Y84.321
X21.564 Y84.373
X21.76 Y84.467
X22.682 Y84.908
X22.739 Y84.936
X22.935 Y85.025
X24. Y85.495
X24.11 Y85.543
X24.306 Y85.624
X25.285 Y86.02
X25.437 Y86.082
X25.481 Y86.099
X25.677 Y86.172
X26.656 Y86.533
X26.852 Y86.605
X27.04 Y86.669
X28.027 Y86.998
X28.212 Y87.06
X28.222 Y87.063
X28.418 Y87.123
X29.512 Y87.451
X29.593 Y87.475
X29.789 Y87.528
X30.768 Y87.789
X30.964 Y87.841
X30.968 Y87.842
X31.16 Y87.889
X32.335 Y88.163
X32.531 Y88.206
X33.706 Y88.442
X33.902 Y88.479
X34.097 Y88.513
X35.077 Y88.678
X35.272 Y88.711
X35.468 Y88.738
X36.447 Y88.873
X36.643 Y88.9
X36.839 Y88.923
X36.871 Y88.926
X36.873 Y88.927
X36.879 Y88.935
X36.893 Y88.951
X36.946 Y89.016
X37.035 Y89.12
X37.117 Y89.212
X37.231 Y89.333
X37.303 Y89.407
X37.427 Y89.528
X37.507 Y89.603
X37.622 Y89.706
X37.73 Y89.798
X37.818 Y89.87
X37.977 Y89.994
X38.014 Y90.021
X38.21 Y90.161
X38.253 Y90.19
X38.406 Y90.289
X38.563 Y90.385
X38.602 Y90.407
X38.798 Y90.516
X38.922 Y90.581
X38.993 Y90.616
X39.189 Y90.708
X39.35 Y90.776
X39.385 Y90.791
X39.581 Y90.867
X39.777 Y90.935
X39.894 Y90.972
X39.973 Y90.996
X40.168 Y91.05
X40.364 Y91.097
X40.56 Y91.138
X40.728 Y91.168
X40.756 Y91.172
X40.952 Y91.2
X41.148 Y91.222
X41.343 Y91.237
G3 X42.058 Y93.433 I-0.098 J1.246
G0 Z23.2
X43.842 Y-8.804
Z4.85
G1 X43.843 Y-8.796 Z4.71 F1000.
X43.844 Y-8.773 Z4.572
X43.846 Y-8.734 Z4.437
X43.848 Y-8.68 Z4.308
X43.852 Y-8.613 Z4.185
X43.855 Y-8.532 Z4.071
X43.86 Y-8.438 Z3.966
X43.865 Y-8.334 Z3.873
X43.87 Y-8.22 Z3.792
X43.876 Y-8.097 Z3.724
X43.883 Y-7.968 Z3.67
X43.889 Y-7.833 Z3.631
X43.896 Y-7.695 Z3.608
X43.903 Y-7.555 Z3.6
G3 X42.714 Y-6.247 I-1.249 J0.06
G1 X42.518 Y-6.237
X42.323 Y-6.222
X42.127 Y-6.2
X41.931 Y-6.172
X41.735 Y-6.137
X41.539 Y-6.096
X41.357 Y-6.052
X41.343 Y-6.049
X41.148 Y-5.994
X40.952 Y-5.933
X40.756 Y-5.864
X40.735 Y-5.857
X40.56 Y-5.788
X40.364 Y-5.705
X40.269 Y-5.661
X40.168 Y-5.613
X39.973 Y-5.513
X39.885 Y-5.465
X39.777 Y-5.404
X39.581 Y-5.285
X39.557 Y-5.27
X39.385 Y-5.156
X39.268 Y-5.074
X39.189 Y-5.016
X39.011 Y-4.878
X38.993 Y-4.865
X38.798 Y-4.7
X38.778 Y-4.683
X38.602 Y-4.521
X38.567 Y-4.487
X38.406 Y-4.325
X38.374 Y-4.292
X38.21 Y-4.111
X38.197 Y-4.096
X38.174 Y-4.07
X38.167 Y-4.061
X38.165
X38.105 Y-4.056
X38.014 Y-4.048
X37.818 Y-4.028
X36.839 Y-3.921
X36.651 Y-3.9
X36.643
X36.447 Y-3.874
X35.24 Y-3.705
X35.077 Y-3.68
X34.881 Y-3.646
X33.902 Y-3.478
X33.706 Y-3.443
X33.51 Y-3.404
X32.531 Y-3.204
X32.335 Y-3.164
X32.139 Y-3.119
X30.964 Y-2.841
X30.768 Y-2.791
X29.593 Y-2.474
X29.397 Y-2.418
X29.202 Y-2.359
X28.222 Y-2.062
X28.027 Y-2.
X27.861 Y-1.944
X26.852 Y-1.604
X26.705 Y-1.553
X26.656 Y-1.535
X26.46 Y-1.463
X25.481 Y-1.098
X25.285 Y-1.022
X25.148 Y-0.966
X24.11 Y-0.542
X23.914 Y-0.459
X22.856 Y0.012
X22.739 Y0.064
X22.543 Y0.156
X21.564 Y0.629
X21.368 Y0.725
X21.234 Y0.794
X20.193 Y1.337
X20.11 Y1.381
X19.997 Y1.443
X19.018 Y1.993
X18.822 Y2.104
X18.722 Y2.164
X17.75 Y2.75
X17.647 Y2.812
X17.451 Y2.936
X16.472 Y3.569
X16.276 Y3.7
X15.297 Y4.377
X15.108 Y4.511
X15.101 Y4.516
X14.122 Y5.238
X14.048 Y5.293
X13.926 Y5.387
X12.947 Y6.158
X12.807 Y6.271
X12.751 Y6.318
X11.874 Y7.054
X11.772 Y7.14
X11.648 Y7.25
X10.772 Y8.032
X10.597 Y8.192
X9.737 Y9.01
X9.618 Y9.124
X9.537 Y9.206
X8.763 Y9.988
X8.639 Y10.114
X8.572 Y10.184
X8.443 Y10.322
X7.845 Y10.966
X7.663 Y11.162
X7.66 Y11.165
X7.489 Y11.357
X6.806 Y12.14
X6.681 Y12.284
X6.637 Y12.335
X6.485 Y12.521
X5.835 Y13.314
X5.701 Y13.481
X5.679 Y13.509
X4.918 Y14.499
X4.782 Y14.683
X4.076 Y15.661
X3.94 Y15.857
X3.28 Y16.835
X3.155 Y17.024
X3.152 Y17.03
X2.535 Y18.008
X2.413 Y18.204
X2.372 Y18.273
X1.785 Y19.272
X1.723 Y19.378
X1.613 Y19.573
X1.078 Y20.551
X1.001 Y20.693
X0.973 Y20.747
X0.874 Y20.942
X0.414 Y21.849
X0.378 Y21.921
X0.283 Y22.116
X-0.176 Y23.094
X-0.267 Y23.29
X-0.353 Y23.485
X-0.775 Y24.464
X-0.858 Y24.659
X-0.936 Y24.855
X-1.349 Y25.899
X-1.398 Y26.028
X-1.469 Y26.224
X-1.821 Y27.202
X-1.89 Y27.398
X-1.936 Y27.541
X-2.271 Y28.571
X-2.328 Y28.748
X-2.334 Y28.767
X-2.391 Y28.963
X-2.676 Y29.941
X-2.72 Y30.092
X-2.732 Y30.136
X-2.783 Y30.332
X-3.035 Y31.31
X-3.085 Y31.506
X-3.111 Y31.617
X-3.35 Y32.679
X-3.394 Y32.875
X-3.434 Y33.07
X-3.66 Y34.244
X-3.696 Y34.44
X-3.699 Y34.458
X-3.895 Y35.676
X-3.915 Y35.809
X-3.941 Y36.005
X-4.067 Y36.983
X-4.09 Y37.164
X-4.092 Y37.178
X-4.113 Y37.374
X-4.128 Y37.57
X-4.136 Y37.765
X-4.14 Y37.961
X-4.164 Y39.721
X-4.166 Y39.917
X-4.164 Y40.113
X-4.156 Y40.308
X-4.141 Y40.504
X-4.12 Y40.699
X-4.093 Y40.895
X-4.09 Y40.912
X-4.06 Y41.091
X-4.02 Y41.286
X-3.973 Y41.482
X-3.92 Y41.677
X-3.895 Y41.763
X-3.877 Y41.818
X-3.869 Y41.846
X-3.865 Y41.856
Y41.858
X-3.871 Y41.873
X-3.895 Y41.942
X-3.936 Y42.069
X-3.994 Y42.264
X-4.045 Y42.46
X-4.089 Y42.656
X-4.09 Y42.662
X-4.127 Y42.851
X-4.158 Y43.047
X-4.183 Y43.242
X-4.202 Y43.438
X-4.215 Y43.634
X-4.221 Y43.829
X-4.224 Y44.025
X-4.248 Y45.785
X-4.25 Y45.981
X-4.245 Y46.177
X-4.235 Y46.372
X-4.218 Y46.568
X-4.1 Y47.741
X-4.09 Y47.835
X-4.079 Y47.937
X-4.053 Y48.133
X-3.924 Y49.111
X-3.898 Y49.306
X-3.895 Y49.33
X-3.868 Y49.502
X-3.675 Y50.676
X-3.64 Y50.871
X-3.41 Y52.045
X-3.37 Y52.241
X-3.326 Y52.436
X-3.102 Y53.414
X-3.057 Y53.61
X-3.007 Y53.806
X-2.72 Y54.904
X-2.7 Y54.979
X-2.644 Y55.175
X-2.328 Y56.246
X-2.298 Y56.348
X-2.236 Y56.544
X-1.914 Y57.522
X-1.85 Y57.718
X-1.781 Y57.913
X-1.426 Y58.891
X-1.354 Y59.087
X-1.349 Y59.102
X-1.279 Y59.283
X-0.888 Y60.261
X-0.81 Y60.456
X-0.761 Y60.573
X-0.727 Y60.652
X-0.301 Y61.63
X-0.215 Y61.826
X-0.174 Y61.914
X0.339 Y62.999
X0.414 Y63.154
X0.434 Y63.195
X0.534 Y63.391
X1.001 Y64.304
X1.034 Y64.369
X1.14 Y64.564
X1.679 Y65.542
X1.785 Y65.731
X1.788 Y65.738
X1.904 Y65.934
X2.372 Y66.724
X2.484 Y66.912
X2.568 Y67.047
X3.227 Y68.085
X3.351 Y68.274
X4.021 Y69.259
X4.135 Y69.423
X4.158 Y69.455
X4.868 Y70.433
X4.918 Y70.502
X5.014 Y70.628
X5.771 Y71.606
X5.897 Y71.765
X6.681 Y72.714
X6.735 Y72.78
X6.876 Y72.943
X7.593 Y73.758
X7.66 Y73.834
X7.768 Y73.954
X7.856 Y74.048
X8.639 Y74.885
X8.683 Y74.932
X8.835 Y75.086
X9.654 Y75.91
X9.814 Y76.065
X10.685 Y76.888
X10.793 Y76.989
X10.899 Y77.083
X11.78 Y77.866
X11.968 Y78.027
X12.751 Y78.68
X12.947 Y78.843
X12.949 Y78.844
X13.143 Y78.998
X13.946 Y79.626
X14.122 Y79.763
X14.201 Y79.822
X15.101 Y80.482
X15.269 Y80.605
X15.297 Y80.625
X15.493 Y80.76
X16.406 Y81.387
X16.472 Y81.432
X16.668 Y81.559
X17.619 Y82.169
X17.647 Y82.188
X17.843 Y82.308
X18.822 Y82.894
X18.919 Y82.952
X19.018 Y83.009
X19.214 Y83.118
X19.997 Y83.555
X20.193 Y83.664
X20.326 Y83.734
X21.368 Y84.274
X21.46 Y84.321
X21.564 Y84.373
X21.76 Y84.467
X22.682 Y84.908
X22.739 Y84.936
X22.935 Y85.025
X24. Y85.495
X24.11 Y85.543
X24.306 Y85.624
X25.285 Y86.02
X25.437 Y86.082
X25.481 Y86.099
X25.677 Y86.172
X26.656 Y86.533
X26.852 Y86.605
X27.04 Y86.669
X28.027 Y86.998
X28.212 Y87.06
X28.222 Y87.063
X28.418 Y87.123
X29.512 Y87.451
X29.593 Y87.475
X29.789 Y87.528
X30.768 Y87.789
X30.964 Y87.841
X30.968 Y87.842
X31.16 Y87.889
X32.335 Y88.163
X32.531 Y88.206
X33.706 Y88.442
X33.902 Y88.479
X34.097 Y88.513
X35.077 Y88.678
X35.272 Y88.711
X35.468 Y88.738
X36.447 Y88.873
X36.643 Y88.9
X36.839 Y88.923
X36.871 Y88.926
X36.873 Y88.927
X36.879 Y88.935
X36.893 Y88.951
X36.946 Y89.016
X37.035 Y89.12
X37.117 Y89.212
X37.231 Y89.333
X37.303 Y89.407
X37.427 Y89.528
X37.507 Y89.603
X37.622 Y89.706
X37.73 Y89.798
X37.818 Y89.87
X37.977 Y89.994
X38.014 Y90.021
X38.21 Y90.161
X38.253 Y90.19
X38.406 Y90.289
X38.563 Y90.385
X38.602 Y90.407
X38.798 Y90.516
X38.922 Y90.581
X38.993 Y90.616
X39.189 Y90.708
X39.35 Y90.776
X39.385 Y90.791
X39.581 Y90.867
X39.777 Y90.935
X39.894 Y90.972
X39.973 Y90.996
X40.168 Y91.05
X40.364 Y91.097
X40.56 Y91.138
X40.728 Y91.168
X40.756 Y91.172
X40.952 Y91.2
X41.148 Y91.222
X41.343 Y91.237
G3 X42.058 Y93.433 I-0.098 J1.246
G0 Z23.2
X43.842 Y-8.804
Z4.25
G1 X43.843 Y-8.796 Z4.11 F1000.
X43.844 Y-8.773 Z3.972
X43.846 Y-8.734 Z3.837
X43.848 Y-8.68 Z3.708
X43.852 Y-8.613 Z3.585
X43.855 Y-8.532 Z3.471
X43.86 Y-8.438 Z3.366
X43.865 Y-8.334 Z3.273
X43.87 Y-8.22 Z3.192
X43.876 Y-8.097 Z3.124
X43.883 Y-7.968 Z3.07
X43.889 Y-7.833 Z3.031
X43.896 Y-7.695 Z3.008
X43.903 Y-7.555 Z3.
G3 X42.714 Y-6.247 I-1.249 J0.06
G1 X42.518 Y-6.237
X42.323 Y-6.222
X42.127 Y-6.2
X41.931 Y-6.172
X41.735 Y-6.137
X41.539 Y-6.096
X41.357 Y-6.052
X41.343 Y-6.049
X41.148 Y-5.994
X40.952 Y-5.933
X40.756 Y-5.864
X40.735 Y-5.857
X40.56 Y-5.788
X40.364 Y-5.705
X40.269 Y-5.661
X40.168 Y-5.613
X39.973 Y-5.513
X39.885 Y-5.465
X39.777 Y-5.404
X39.581 Y-5.285
X39.557 Y-5.27
X39.385 Y-5.156
X39.268 Y-5.074
X39.189 Y-5.016
X39.011 Y-4.878
X38.993 Y-4.865
X38.798 Y-4.7
X38.778 Y-4.683
X38.602 Y-4.521
X38.567 Y-4.487
X38.406 Y-4.325
X38.374 Y-4.292
X38.21 Y-4.111
X38.197 Y-4.096
X38.174 Y-4.07
X38.167 Y-4.061
X38.165
X38.105 Y-4.056
X38.014 Y-4.048
X37.818 Y-4.028
X36.839 Y-3.921
X36.651 Y-3.9
X36.643
X36.447 Y-3.874
X35.24 Y-3.705
X35.077 Y-3.68
X34.881 Y-3.646
X33.902 Y-3.478
X33.706 Y-3.443
X33.51 Y-3.404
X32.531 Y-3.204
X32.335 Y-3.164
X32.139 Y-3.119
X30.964 Y-2.841
X30.768 Y-2.791
X29.593 Y-2.474
X29.397 Y-2.418
X29.202 Y-2.359
X28.222 Y-2.062
X28.027 Y-2.
X27.861 Y-1.944
X26.852 Y-1.604
X26.705 Y-1.553
X26.656 Y-1.535
X26.46 Y-1.463
X25.481 Y-1.098
X25.285 Y-1.022
X25.148 Y-0.966
X24.11 Y-0.542
X23.914 Y-0.459
X22.856 Y0.012
X22.739 Y0.064
X22.543 Y0.156
X21.564 Y0.629
X21.368 Y0.725
X21.234 Y0.794
X20.193 Y1.337
X20.11 Y1.381
X19.997 Y1.443
X19.018 Y1.993
X18.822 Y2.104
X18.722 Y2.164
X17.75 Y2.75
X17.647 Y2.812
X17.451 Y2.936
X16.472 Y3.569
X16.276 Y3.7
X15.297 Y4.377
X15.108 Y4.511
X15.101 Y4.516
X14.122 Y5.238
X14.048 Y5.293
X13.926 Y5.387
X12.947 Y6.158
X12.807 Y6.271
X12.751 Y6.318
X11.874 Y7.054
X11.772 Y7.14
X11.648 Y7.25
X10.772 Y8.032
X10.597 Y8.192
X9.737 Y9.01
X9.618 Y9.124
X9.537 Y9.206
X8.763 Y9.988
X8.639 Y10.114
X8.572 Y10.184
X8.443 Y10.322
X7.845 Y10.966
X7.663 Y11.162
X7.66 Y11.165
X7.489 Y11.357
X6.806 Y12.14
X6.681 Y12.284
X6.637 Y12.335
X6.485 Y12.521
X5.835 Y13.314
X5.701 Y13.481
X5.679 Y13.509
X4.918 Y14.499
X4.782 Y14.683
X4.076 Y15.661
X3.94 Y15.857
X3.28 Y16.835
X3.155 Y17.024
X3.152 Y17.03
X2.535 Y18.008
X2.413 Y18.204
X2.372 Y18.273
X1.785 Y19.272
X1.723 Y19.378
X1.613 Y19.573
X1.078 Y20.551
X1.001 Y20.693
X0.973 Y20.747
X0.874 Y20.942
X0.414 Y21.849
X0.378 Y21.921
X0.283 Y22.116
X-0.176 Y23.094
X-0.267 Y23.29
X-0.353 Y23.485
X-0.775 Y24.464
X-0.858 Y24.659
X-0.936 Y24.855
X-1.349 Y25.899
X-1.398 Y26.028
X-1.469 Y26.224
X-1.821 Y27.202
X-1.89 Y27.398
X-1.936 Y27.541
X-2.271 Y28.571
X-2.328 Y28.748
X-2.334 Y28.767
X-2.391 Y28.963
X-2.676 Y29.941
X-2.72 Y30.092
X-2.732 Y30.136
X-2.783 Y30.332
X-3.035 Y31.31
X-3.085 Y31.506
X-3.111 Y31.617
X-3.35 Y32.679
X-3.394 Y32.875
X-3.434 Y33.07
X-3.66 Y34.244
X-3.696 Y34.44
X-3.699 Y34.458
X-3.895 Y35.676
X-3.915 Y35.809
X-3.941 Y36.005
X-4.067 Y36.983
X-4.09 Y37.164
X-4.092 Y37.178
X-4.113 Y37.374
X-4.128 Y37.57
X-4.136 Y37.765
X-4.14 Y37.961
X-4.164 Y39.721
X-4.166 Y39.917
X-4.164 Y40.113
X-4.156 Y40.308
X-4.141 Y40.504
X-4.12 Y40.699
X-4.093 Y40.895
X-4.09 Y40.912
X-4.06 Y41.091
X-4.02 Y41.286
X-3.973 Y41.482
X-3.92 Y41.677
X-3.895 Y41.763
X-3.877 Y41.818
X-3.869 Y41.846
X-3.865 Y41.856
Y41.858
X-3.871 Y41.873
X-3.895 Y41.942
X-3.936 Y42.069
X-3.994 Y42.264
X-4.045 Y42.46
X-4.089 Y42.656
X-4.09 Y42.662
X-4.127 Y42.851
X-4.158 Y43.047
X-4.183 Y43.242
X-4.202 Y43.438
X-4.215 Y43.634
X-4.221 Y43.829
X-4.224 Y44.025
X-4.248 Y45.785
X-4.25 Y45.981
X-4.245 Y46.177
X-4.235 Y46.372
X-4.218 Y46.568
X-4.1 Y47.741
X-4.09 Y47.835
X-4.079 Y47.937
X-4.053 Y48.133
X-3.924 Y49.111
X-3.898 Y49.306
X-3.895 Y49.33
X-3.868 Y49.502
X-3.675 Y50.676
X-3.64 Y50.871
X-3.41 Y52.045
X-3.37 Y52.241
X-3.326 Y52.436
X-3.102 Y53.414
X-3.057 Y53.61
X-3.007 Y53.806
X-2.72 Y54.904
X-2.7 Y54.979
X-2.644 Y55.175
X-2.328 Y56.246
X-2.298 Y56.348
X-2.236 Y56.544
X-1.914 Y57.522
X-1.85 Y57.718
X-1.781 Y57.913
X-1.426 Y58.891
X-1.354 Y59.087
X-1.349 Y59.102
X-1.279 Y59.283
X-0.888 Y60.261
X-0.81 Y60.456
X-0.761 Y60.573
X-0.727 Y60.652
X-0.301 Y61.63
X-0.215 Y61.826
X-0.174 Y61.914
X0.339 Y62.999
X0.414 Y63.154
X0.434 Y63.195
X0.534 Y63.391
X1.001 Y64.304
X1.034 Y64.369
X1.14 Y64.564
X1.679 Y65.542
X1.785 Y65.731
X1.788 Y65.738
X1.904 Y65.934
X2.372 Y66.724
X2.484 Y66.912
X2.568 Y67.047
X3.227 Y68.085
X3.351 Y68.274
X4.021 Y69.259
X4.135 Y69.423
X4.158 Y69.455
X4.868 Y70.433
X4.918 Y70.502
X5.014 Y70.628
X5.771 Y71.606
X5.897 Y71.765
X6.681 Y72.714
X6.735 Y72.78
X6.876 Y72.943
X7.593 Y73.758
X7.66 Y73.834
X7.768 Y73.954
X7.856 Y74.048
X8.639 Y74.885
X8.683 Y74.932
X8.835 Y75.086
X9.654 Y75.91
X9.814 Y76.065
X10.685 Y76.888
X10.793 Y76.989
X10.899 Y77.083
X11.78 Y77.866
X11.968 Y78.027
X12.751 Y78.68
X12.947 Y78.843
X12.949 Y78.844
X13.143 Y78.998
X13.946 Y79.626
X14.122 Y79.763
X14.201 Y79.822
X15.101 Y80.482
X15.269 Y80.605
X15.297 Y80.625
X15.493 Y80.76
X16.406 Y81.387
X16.472 Y81.432
X16.668 Y81.559
X17.619 Y82.169
X17.647 Y82.188
X17.843 Y82.308
X18.822 Y82.894
X18.919 Y82.952
X19.018 Y83.009
X19.214 Y83.118
X19.997 Y83.555
X20.193 Y83.664
X20.326 Y83.734
X21.368 Y84.274
X21.46 Y84.321
X21.564 Y84.373
X21.76 Y84.467
X22.682 Y84.908
X22.739 Y84.936
X22.935 Y85.025
X24. Y85.495
X24.11 Y85.543
X24.306 Y85.624
X25.285 Y86.02
X25.437 Y86.082
X25.481 Y86.099
X25.677 Y86.172
X26.656 Y86.533
X26.852 Y86.605
X27.04 Y86.669
X28.027 Y86.998
X28.212 Y87.06
X28.222 Y87.063
X28.418 Y87.123
X29.512 Y87.451
X29.593 Y87.475
X29.789 Y87.528
X30.768 Y87.789
X30.964 Y87.841
X30.968 Y87.842
X31.16 Y87.889
X32.335 Y88.163
X32.531 Y88.206
X33.706 Y88.442
X33.902 Y88.479
X34.097 Y88.513
X35.077 Y88.678
X35.272 Y88.711
X35.468 Y88.738
X36.447 Y88.873
X36.643 Y88.9
X36.839 Y88.923
X36.871 Y88.926
X36.873 Y88.927
X36.879 Y88.935
X36.893 Y88.951
X36.946 Y89.016
X37.035 Y89.12
X37.117 Y89.212
X37.231 Y89.333
X37.303 Y89.407
X37.427 Y89.528
X37.507 Y89.603
X37.622 Y89.706
X37.73 Y89.798
X37.818 Y89.87
X37.977 Y89.994
X38.014 Y90.021
X38.21 Y90.161
X38.253 Y90.19
X38.406 Y90.289
X38.563 Y90.385
X38.602 Y90.407
X38.798 Y90.516
X38.922 Y90.581
X38.993 Y90.616
X39.189 Y90.708
X39.35 Y90.776
X39.385 Y90.791
X39.581 Y90.867
X39.777 Y90.935
X39.894 Y90.972
X39.973 Y90.996
X40.168 Y91.05
X40.364 Y91.097
X40.56 Y91.138
X40.728 Y91.168
X40.756 Y91.172
X40.952 Y91.2
X41.148 Y91.222
X41.343 Y91.237
G3 X42.058 Y93.433 I-0.098 J1.246
G0 Z23.2
X274.043 Y97.049
Z9.45
G1 X274.042 Y97.041 Z9.31 F1000.
X274.041 Y97.018 Z9.172
X274.039 Y96.979 Z9.037
X274.037 Y96.926 Z8.908
X274.033 Y96.858 Z8.785
X274.029 Y96.777 Z8.671
X274.025 Y96.684 Z8.566
X274.02 Y96.579 Z8.473
X274.014 Y96.465 Z8.392
X274.008 Y96.342 Z8.324
X274.002 Y96.213 Z8.27
X273.996 Y96.079 Z8.231
X273.989 Y95.941 Z8.208
X273.982 Y95.801 Z8.2
G3 X275.171 Y94.492 I1.249 J-0.06
G1 X275.367 Y94.483
X275.562 Y94.467
X275.758 Y94.445
X275.954 Y94.417
X276.15 Y94.382
X276.346 Y94.341
X276.528 Y94.297
X276.542 Y94.294
X276.737 Y94.239
X276.933 Y94.178
X277.129 Y94.11
X277.15 Y94.102
X277.325 Y94.034
X277.521 Y93.95
X277.616 Y93.906
X277.717 Y93.858
X277.912 Y93.758
X278. Y93.711
X278.108 Y93.649
X278.304 Y93.53
X278.328 Y93.515
X278.5 Y93.401
X278.617 Y93.319
X278.696 Y93.262
X278.874 Y93.124
X278.892 Y93.11
X279.087 Y92.945
X279.107 Y92.928
X279.283 Y92.766
X279.318 Y92.733
X279.479 Y92.571
X279.511 Y92.537
X279.675 Y92.357
X279.688 Y92.341
X279.711 Y92.315
X279.718 Y92.307
X279.72 Y92.306
X279.78 Y92.301
X279.871 Y92.293
X280.067 Y92.273
X281.046 Y92.166
X281.234 Y92.146
X281.242 Y92.145
X281.437 Y92.12
X282.645 Y91.95
X282.808 Y91.925
X283.004 Y91.892
X283.983 Y91.723
X284.179 Y91.688
X284.375 Y91.649
X285.354 Y91.449
X285.55 Y91.409
X285.746 Y91.364
X286.921 Y91.086
X287.117 Y91.036
X288.292 Y90.719
X288.488 Y90.664
X288.683 Y90.604
X289.663 Y90.307
X289.858 Y90.246
X290.024 Y90.19
X291.033 Y89.849
X291.18 Y89.798
X291.229 Y89.781
X291.425 Y89.708
X292.404 Y89.343
X292.6 Y89.268
X292.737 Y89.212
X293.775 Y88.788
X293.971 Y88.704
X295.029 Y88.233
X295.146 Y88.181
X295.342 Y88.089
X296.321 Y87.616
X296.517 Y87.52
X296.651 Y87.451
X297.692 Y86.908
X297.775 Y86.864
X297.888 Y86.802
X298.867 Y86.252
X299.063 Y86.141
X299.163 Y86.082
X300.135 Y85.495
X300.238 Y85.433
X300.433 Y85.309
X301.413 Y84.676
X301.608 Y84.546
X302.588 Y83.869
X302.777 Y83.734
X302.784 Y83.73
X303.763 Y83.007
X303.837 Y82.952
X303.958 Y82.858
X304.938 Y82.087
X305.078 Y81.974
X305.134 Y81.927
X306.011 Y81.191
X306.113 Y81.105
X306.237 Y80.996
X307.113 Y80.213
X307.288 Y80.053
X308.148 Y79.235
X308.267 Y79.121
X308.348 Y79.04
X309.122 Y78.257
X309.246 Y78.131
X309.313 Y78.062
X309.442 Y77.923
X310.04 Y77.279
X310.222 Y77.083
X310.225 Y77.08
X310.396 Y76.888
X311.079 Y76.105
X311.204 Y75.961
X311.247 Y75.91
X311.4 Y75.724
X312.05 Y74.932
X312.184 Y74.765
X312.206 Y74.736
X312.967 Y73.746
X313.103 Y73.562
X313.808 Y72.584
X313.945 Y72.389
X314.605 Y71.411
X314.729 Y71.221
X314.733 Y71.215
X315.35 Y70.237
X315.472 Y70.041
X315.513 Y69.972
X316.1 Y68.973
X316.162 Y68.868
X316.272 Y68.672
X316.807 Y67.694
X316.884 Y67.552
X316.912 Y67.498
X317.011 Y67.303
X317.471 Y66.396
X317.507 Y66.325
X317.602 Y66.129
X318.061 Y65.151
X318.152 Y64.955
X318.238 Y64.76
X318.66 Y63.782
X318.743 Y63.586
X318.821 Y63.391
X319.234 Y62.346
X319.283 Y62.217
X319.354 Y62.021
X319.706 Y61.043
X319.774 Y60.848
X319.821 Y60.705
X320.156 Y59.674
X320.213 Y59.497
X320.219 Y59.478
X320.276 Y59.283
X320.561 Y58.305
X320.604 Y58.153
X320.617 Y58.109
X320.668 Y57.913
X320.92 Y56.935
X320.97 Y56.74
X320.996 Y56.628
X321.235 Y55.566
X321.279 Y55.37
X321.319 Y55.175
X321.545 Y54.001
X321.581 Y53.806
X321.584 Y53.787
X321.78 Y52.569
X321.8 Y52.436
X321.826 Y52.241
X321.952 Y51.263
X321.975 Y51.081
X321.977 Y51.067
X321.998 Y50.871
X322.013 Y50.676
X322.021 Y50.48
X322.025 Y50.284
X322.049 Y48.524
X322.051 Y48.328
X322.049 Y48.133
X322.041 Y47.937
X322.026 Y47.741
X322.005 Y47.546
X321.978 Y47.35
X321.975 Y47.334
X321.944 Y47.155
X321.905 Y46.959
X321.858 Y46.763
X321.805 Y46.568
X321.78 Y46.483
X321.762 Y46.427
X321.754 Y46.4
X321.75 Y46.389
Y46.388
X321.756 Y46.372
X321.78 Y46.303
X321.821 Y46.177
X321.879 Y45.981
X321.93 Y45.785
X321.974 Y45.59
X321.975 Y45.583
X322.012 Y45.394
X322.043 Y45.199
X322.068 Y45.003
X322.087 Y44.807
X322.1 Y44.612
X322.106 Y44.416
X322.109 Y44.22
X322.133 Y42.46
X322.135 Y42.264
X322.13 Y42.069
X322.12 Y41.873
X322.103 Y41.677
X321.985 Y40.504
X321.975 Y40.41
X321.964 Y40.308
X321.938 Y40.113
X321.809 Y39.135
X321.783 Y38.939
X321.78 Y38.915
X321.752 Y38.743
X321.56 Y37.57
X321.525 Y37.374
X321.295 Y36.2
X321.255 Y36.005
X321.211 Y35.809
X320.987 Y34.831
X320.942 Y34.635
X320.892 Y34.44
X320.604 Y33.341
X320.585 Y33.266
X320.529 Y33.07
X320.213 Y31.999
X320.183 Y31.897
X320.121 Y31.701
X319.799 Y30.723
X319.735 Y30.528
X319.666 Y30.332
X319.31 Y29.354
X319.239 Y29.158
X319.234 Y29.143
X319.164 Y28.963
X318.773 Y27.985
X318.695 Y27.789
X318.646 Y27.673
X318.612 Y27.593
X318.186 Y26.615
X318.1 Y26.42
X318.059 Y26.331
X317.546 Y25.246
X317.471 Y25.091
X317.451 Y25.05
X317.351 Y24.855
X316.884 Y23.941
X316.851 Y23.877
X316.745 Y23.681
X316.206 Y22.703
X316.1 Y22.514
X316.097 Y22.507
X315.981 Y22.312
X315.513 Y21.522
X315.401 Y21.334
X315.317 Y21.198
X314.658 Y20.16
X314.534 Y19.972
X313.864 Y18.986
X313.75 Y18.823
X313.727 Y18.791
X313.017 Y17.813
X312.967 Y17.743
X312.871 Y17.617
X312.114 Y16.639
X311.988 Y16.481
X311.204 Y15.531
X311.15 Y15.465
X311.009 Y15.303
X310.292 Y14.487
X310.225 Y14.411
X310.117 Y14.292
X310.029 Y14.198
X309.246 Y13.36
X309.202 Y13.314
X309.05 Y13.159
X308.231 Y12.335
X308.071 Y12.18
X307.2 Y11.357
X307.092 Y11.256
X306.986 Y11.162
X306.104 Y10.379
X305.917 Y10.218
X305.134 Y9.565
X304.938 Y9.402
X304.936 Y9.401
X304.742 Y9.247
X303.939 Y8.619
X303.763 Y8.482
X303.684 Y8.423
X302.784 Y7.763
X302.616 Y7.641
X302.588 Y7.62
X302.392 Y7.485
X301.479 Y6.858
X301.413 Y6.813
X301.217 Y6.686
X300.266 Y6.076
X300.238 Y6.058
X300.042 Y5.937
X299.063 Y5.351
X298.966 Y5.293
X298.867 Y5.236
X298.671 Y5.127
X297.888 Y4.69
X297.692 Y4.581
X297.559 Y4.511
X296.517 Y3.972
X296.424 Y3.924
X296.321 Y3.873
X296.125 Y3.779
X295.203 Y3.337
X295.146 Y3.31
X294.95 Y3.22
X293.885 Y2.75
X293.775 Y2.702
X293.579 Y2.621
X292.6 Y2.225
X292.448 Y2.164
X292.404 Y2.146
X292.208 Y2.073
X291.229 Y1.712
X291.033 Y1.64
X290.845 Y1.577
X289.858 Y1.247
X289.673 Y1.186
X289.663 Y1.182
X289.467 Y1.123
X288.372 Y0.794
X288.292 Y0.771
X288.096 Y0.717
X287.117 Y0.456
X286.921 Y0.404
X286.917 Y0.403
X286.725 Y0.357
X285.55 Y0.082
X285.354 Y0.04
X284.179 Y-0.197
X283.983 Y-0.234
X283.787 Y-0.267
X282.808 Y-0.433
X282.612 Y-0.465
X282.417 Y-0.493
X281.437 Y-0.627
X281.242 Y-0.654
X281.046 Y-0.677
X281.014 Y-0.681
X281.012
X281.006 Y-0.69
X280.992 Y-0.706
X280.939 Y-0.771
X280.85 Y-0.874
X280.768 Y-0.966
X280.654 Y-1.088
X280.581 Y-1.162
X280.458 Y-1.282
X280.378 Y-1.357
X280.262 Y-1.461
X280.154 Y-1.553
X280.067 Y-1.625
X279.908 Y-1.749
X279.871 Y-1.776
X279.675 Y-1.915
X279.632 Y-1.944
X279.479 Y-2.044
X279.321 Y-2.14
X279.283 Y-2.162
X279.087 Y-2.271
X278.963 Y-2.335
X278.892 Y-2.371
X278.696 Y-2.462
X278.535 Y-2.531
X278.5 Y-2.546
X278.304 Y-2.621
X278.108 Y-2.689
X277.991 Y-2.727
X277.912 Y-2.75
X277.717 Y-2.805
X277.521 Y-2.852
X277.325 Y-2.893
X277.157 Y-2.922
X277.129 Y-2.927
X276.933 Y-2.955
X276.737 Y-2.976
X276.542 Y-2.992
G3 X275.827 Y-5.188 I0.098 J-1.246
G0 Z23.2
X274.043 Y97.049
Z8.45
G1 X274.042 Y97.041 Z8.31 F1000.
X274.041 Y97.018 Z8.172
X274.039 Y96.979 Z8.037
X274.037 Y96.926 Z7.908
X274.033 Y96.858 Z7.785
X274.029 Y96.777 Z7.671
X274.025 Y96.684 Z7.566
X274.02 Y96.579 Z7.473
X274.014 Y96.465 Z7.392
X274.008 Y96.342 Z7.324
X274.002 Y96.213 Z7.27
X273.996 Y96.079 Z7.231
X273.989 Y95.941 Z7.208
X273.982 Y95.801 Z7.2
G3 X275.171 Y94.492 I1.249 J-0.06
G1 X275.367 Y94.483
X275.562 Y94.467
X275.758 Y94.445
X275.954 Y94.417
X276.15 Y94.382
X276.346 Y94.341
X276.528 Y94.297
X276.542 Y94.294
X276.737 Y94.239
X276.933 Y94.178
X277.129 Y94.11
X277.15 Y94.102
X277.325 Y94.034
X277.521 Y93.95
X277.616 Y93.906
X277.717 Y93.858
X277.912 Y93.758
X278. Y93.711
X278.108 Y93.649
X278.304 Y93.53
X278.328 Y93.515
X278.5 Y93.401
X278.617 Y93.319
X278.696 Y93.262
X278.874 Y93.124
X278.892 Y93.11
X279.087 Y92.945
X279.107 Y92.928
X279.283 Y92.766
X279.318 Y92.733
X279.479 Y92.571
X279.511 Y92.537
X279.675 Y92.357
X279.688 Y92.341
X279.711 Y92.315
X279.718 Y92.307
X279.72 Y92.306
X279.78 Y92.301
X279.871 Y92.293
X280.067 Y92.273
X281.046 Y92.166
X281.234 Y92.146
X281.242 Y92.145
X281.437 Y92.12
X282.645 Y91.95
X282.808 Y91.925
X283.004 Y91.892
X283.983 Y91.723
X284.179 Y91.688
X284.375 Y91.649
X285.354 Y91.449
X285.55 Y91.409
X285.746 Y91.364
X286.921 Y91.086
X287.117 Y91.036
X288.292 Y90.719
X288.488 Y90.664
X288.683 Y90.604
X289.663 Y90.307
X289.858 Y90.246
X290.024 Y90.19
X291.033 Y89.849
X291.18 Y89.798
X291.229 Y89.781
X291.425 Y89.708
X292.404 Y89.343
X292.6 Y89.268
X292.737 Y89.212
X293.775 Y88.788
X293.971 Y88.704
X295.029 Y88.233
X295.146 Y88.181
X295.342 Y88.089
X296.321 Y87.616
X296.517 Y87.52
X296.651 Y87.451
X297.692 Y86.908
X297.775 Y86.864
X297.888 Y86.802
X298.867 Y86.252
X299.063 Y86.141
X299.163 Y86.082
X300.135 Y85.495
X300.238 Y85.433
X300.433 Y85.309
X301.413 Y84.676
X301.608 Y84.546
X302.588 Y83.869
X302.777 Y83.734
X302.784 Y83.73
X303.763 Y83.007
X303.837 Y82.952
X303.958 Y82.858
X304.938 Y82.087
X305.078 Y81.974
X305.134 Y81.927
X306.011 Y81.191
X306.113 Y81.105
X306.237 Y80.996
X307.113 Y80.213
X307.288 Y80.053
X308.148 Y79.235
X308.267 Y79.121
X308.348 Y79.04
X309.122 Y78.257
X309.246 Y78.131
X309.313 Y78.062
X309.442 Y77.923
X310.04 Y77.279
X310.222 Y77.083
X310.225 Y77.08
X310.396 Y76.888
X311.079 Y76.105
X311.204 Y75.961
X311.247 Y75.91
X311.4 Y75.724
X312.05 Y74.932
X312.184 Y74.765
X312.206 Y74.736
X312.967 Y73.746
X313.103 Y73.562
X313.808 Y72.584
X313.945 Y72.389
X314.605 Y71.411
X314.729 Y71.221
X314.733 Y71.215
X315.35 Y70.237
X315.472 Y70.041
X315.513 Y69.972
X316.1 Y68.973
X316.162 Y68.868
X316.272 Y68.672
X316.807 Y67.694
X316.884 Y67.552
X316.912 Y67.498
X317.011 Y67.303
X317.471 Y66.396
X317.507 Y66.325
X317.602 Y66.129
X318.061 Y65.151
X318.152 Y64.955
X318.238 Y64.76
X318.66 Y63.782
X318.743 Y63.586
X318.821 Y63.391
X319.234 Y62.346
X319.283 Y62.217
X319.354 Y62.021
X319.706 Y61.043
X319.774 Y60.848
X319.821 Y60.705
X320.156 Y59.674
X320.213 Y59.497
X320.219 Y59.478
X320.276 Y59.283
X320.561 Y58.305
X320.604 Y58.153
X320.617 Y58.109
X320.668 Y57.913
X320.92 Y56.935
X320.97 Y56.74
X320.996 Y56.628
X321.235 Y55.566
X321.279 Y55.37
X321.319 Y55.175
X321.545 Y54.001
X321.581 Y53.806
X321.584 Y53.787
X321.78 Y52.569
X321.8 Y52.436
X321.826 Y52.241
X321.952 Y51.263
X321.975 Y51.081
X321.977 Y51.067
X321.998 Y50.871
X322.013 Y50.676
X322.021 Y50.48
X322.025 Y50.284
X322.049 Y48.524
X322.051 Y48.328
X322.049 Y48.133
X322.041 Y47.937
X322.026 Y47.741
X322.005 Y47.546
X321.978 Y47.35
X321.975 Y47.334
X321.944 Y47.155
X321.905 Y46.959
X321.858 Y46.763
X321.805 Y46.568
X321.78 Y46.483
X321.762 Y46.427
X321.754 Y46.4
X321.75 Y46.389
Y46.388
X321.756 Y46.372
X321.78 Y46.303
X321.821 Y46.177
X321.879 Y45.981
X321.93 Y45.785
X321.974 Y45.59
X321.975 Y45.583
X322.012 Y45.394
X322.043 Y45.199
X322.068 Y45.003
X322.087 Y44.807
X322.1 Y44.612
X322.106 Y44.416
X322.109 Y44.22
X322.133 Y42.46
X322.135 Y42.264
X322.13 Y42.069
X322.12 Y41.873
X322.103 Y41.677
X321.985 Y40.504
X321.975 Y40.41
X321.964 Y40.308
X321.938 Y40.113
X321.809 Y39.135
X321.783 Y38.939
X321.78 Y38.915
X321.752 Y38.743
X321.56 Y37.57
X321.525 Y37.374
X321.295 Y36.2
X321.255 Y36.005
X321.211 Y35.809
X320.987 Y34.831
X320.942 Y34.635
X320.892 Y34.44
X320.604 Y33.341
X320.585 Y33.266
X320.529 Y33.07
X320.213 Y31.999
X320.183 Y31.897
X320.121 Y31.701
X319.799 Y30.723
X319.735 Y30.528
X319.666 Y30.332
X319.31 Y29.354
X319.239 Y29.158
X319.234 Y29.143
X319.164 Y28.963
X318.773 Y27.985
X318.695 Y27.789
X318.646 Y27.673
X318.612 Y27.593
X318.186 Y26.615
X318.1 Y26.42
X318.059 Y26.331
X317.546 Y25.246
X317.471 Y25.091
X317.451 Y25.05
X317.351 Y24.855
X316.884 Y23.941
X316.851 Y23.877
X316.745 Y23.681
X316.206 Y22.703
X316.1 Y22.514
X316.097 Y22.507
X315.981 Y22.312
X315.513 Y21.522
X315.401 Y21.334
X315.317 Y21.198
X314.658 Y20.16
X314.534 Y19.972
X313.864 Y18.986
X313.75 Y18.823
X313.727 Y18.791
X313.017 Y17.813
X312.967 Y17.743
X312.871 Y17.617
X312.114 Y16.639
X311.988 Y16.481
X311.204 Y15.531
X311.15 Y15.465
X311.009 Y15.303
X310.292 Y14.487
X310.225 Y14.411
X310.117 Y14.292
X310.029 Y14.198
X309.246 Y13.36
X309.202 Y13.314
X309.05 Y13.159
X308.231 Y12.335
X308.071 Y12.18
X307.2 Y11.357
X307.092 Y11.256
X306.986 Y11.162
X306.104 Y10.379
X305.917 Y10.218
X305.134 Y9.565
X304.938 Y9.402
X304.936 Y9.401
X304.742 Y9.247
X303.939 Y8.619
X303.763 Y8.482
X303.684 Y8.423
X302.784 Y7.763
X302.616 Y7.641
X302.588 Y7.62
X302.392 Y7.485
X301.479 Y6.858
X301.413 Y6.813
X301.217 Y6.686
X300.266 Y6.076
X300.238 Y6.058
X300.042 Y5.937
X299.063 Y5.351
X298.966 Y5.293
X298.867 Y5.236
X298.671 Y5.127
X297.888 Y4.69
X297.692 Y4.581
X297.559 Y4.511
X296.517 Y3.972
X296.424 Y3.924
X296.321 Y3.873
X296.125 Y3.779
X295.203 Y3.337
X295.146 Y3.31
X294.95 Y3.22
X293.885 Y2.75
X293.775 Y2.702
X293.579 Y2.621
X292.6 Y2.225
X292.448 Y2.164
X292.404 Y2.146
X292.208 Y2.073
X291.229 Y1.712
X291.033 Y1.64
X290.845 Y1.577
X289.858 Y1.247
X289.673 Y1.186
X289.663 Y1.182
X289.467 Y1.123
X288.372 Y0.794
X288.292 Y0.771
X288.096 Y0.717
X287.117 Y0.456
X286.921 Y0.404
X286.917 Y0.403
X286.725 Y0.357
X285.55 Y0.082
X285.354 Y0.04
X284.179 Y-0.197
X283.983 Y-0.234
X283.787 Y-0.267
X282.808 Y-0.433
X282.612 Y-0.465
X282.417 Y-0.493
X281.437 Y-0.627
X281.242 Y-0.654
X281.046 Y-0.677
X281.014 Y-0.681
X281.012
X281.006 Y-0.69
X280.992 Y-0.706
X280.939 Y-0.771
X280.85 Y-0.874
X280.768 Y-0.966
X280.654 Y-1.088
X280.581 Y-1.162
X280.458 Y-1.282
X280.378 Y-1.357
X280.262 Y-1.461
X280.154 Y-1.553
X280.067 Y-1.625
X279.908 Y-1.749
X279.871 Y-1.776
X279.675 Y-1.915
X279.632 Y-1.944
X279.479 Y-2.044
X279.321 Y-2.14
X279.283 Y-2.162
X279.087 Y-2.271
X278.963 Y-2.335
X278.892 Y-2.371
X278.696 Y-2.462
X278.535 Y-2.531
X278.5 Y-2.546
X278.304 Y-2.621
X278.108 Y-2.689
X277.991 Y-2.727
X277.912 Y-2.75
X277.717 Y-2.805
X277.521 Y-2.852
X277.325 Y-2.893
X277.157 Y-2.922
X277.129 Y-2.927
X276.933 Y-2.955
X276.737 Y-2.976
X276.542 Y-2.992
G3 X275.827 Y-5.188 I0.098 J-1.246
G0 Z23.2
X274.043 Y97.049
Z7.45
G1 X274.042 Y97.041 Z7.31 F1000.
X274.041 Y97.018 Z7.172
X274.039 Y96.979 Z7.037
X274.037 Y96.926 Z6.908
X274.033 Y96.858 Z6.785
X274.029 Y96.777 Z6.671
X274.025 Y96.684 Z6.566
X274.02 Y96.579 Z6.473
X274.014 Y96.465 Z6.392
X274.008 Y96.342 Z6.324
X274.002 Y96.213 Z6.27
X273.996 Y96.079 Z6.231
X273.989 Y95.941 Z6.208
X273.982 Y95.801 Z6.2
G3 X275.171 Y94.492 I1.249 J-0.06
G1 X275.367 Y94.483
X275.562 Y94.467
X275.758 Y94.445
X275.954 Y94.417
X276.15 Y94.382
X276.346 Y94.341
X276.528 Y94.297
X276.542 Y94.294
X276.737 Y94.239
X276.933 Y94.178
X277.129 Y94.11
X277.15 Y94.102
X277.325 Y94.034
X277.521 Y93.95
X277.616 Y93.906
X277.717 Y93.858
X277.912 Y93.758
X278. Y93.711
X278.108 Y93.649
X278.304 Y93.53
X278.328 Y93.515
X278.5 Y93.401
X278.617 Y93.319
X278.696 Y93.262
X278.874 Y93.124
X278.892 Y93.11
X279.087 Y92.945
X279.107 Y92.928
X279.283 Y92.766
X279.318 Y92.733
X279.479 Y92.571
X279.511 Y92.537
X279.675 Y92.357
X279.688 Y92.341
X279.711 Y92.315
X279.718 Y92.307
X279.72 Y92.306
X279.78 Y92.301
X279.871 Y92.293
X280.067 Y92.273
X281.046 Y92.166
X281.234 Y92.146
X281.242 Y92.145
X281.437 Y92.12
X282.645 Y91.95
X282.808 Y91.925
X283.004 Y91.892
X283.983 Y91.723
X284.179 Y91.688
X284.375 Y91.649
X285.354 Y91.449
X285.55 Y91.409
X285.746 Y91.364
X286.921 Y91.086
X287.117 Y91.036
X288.292 Y90.719
X288.488 Y90.664
X288.683 Y90.604
X289.663 Y90.307
X289.858 Y90.246
X290.024 Y90.19
X291.033 Y89.849
X291.18 Y89.798
X291.229 Y89.781
X291.425 Y89.708
X292.404 Y89.343
X292.6 Y89.268
X292.737 Y89.212
X293.775 Y88.788
X293.971 Y88.704
X295.029 Y88.233
X295.146 Y88.181
X295.342 Y88.089
X296.321 Y87.616
X296.517 Y87.52
X296.651 Y87.451
X297.692 Y86.908
X297.775 Y86.864
X297.888 Y86.802
X298.867 Y86.252
X299.063 Y86.141
X299.163 Y86.082
X300.135 Y85.495
X300.238 Y85.433
X300.433 Y85.309
X301.413 Y84.676
X301.608 Y84.546
X302.588 Y83.869
X302.777 Y83.734
X302.784 Y83.73
X303.763 Y83.007
X303.837 Y82.952
X303.958 Y82.858
X304.938 Y82.087
X305.078 Y81.974
X305.134 Y81.927
X306.011 Y81.191
X306.113 Y81.105
X306.237 Y80.996
X307.113 Y80.213
X307.288 Y80.053
X308.148 Y79.235
X308.267 Y79.121
X308.348 Y79.04
X309.122 Y78.257
X309.246 Y78.131
X309.313 Y78.062
X309.442 Y77.923
X310.04 Y77.279
X310.222 Y77.083
X310.225 Y77.08
X310.396 Y76.888
X311.079 Y76.105
X311.204 Y75.961
X311.247 Y75.91
X311.4 Y75.724
X312.05 Y74.932
