(2018-01-30 CALIPER BRACKET)
(2018-01-30 CALIPER BRACKET)
(T24  D=4. CR=0. TAPER=118DEG - ZMIN=-0.702 - DRILL)
(T162  D=5.5 CR=0. - ZMIN=0. - FLAT END MILL)
G90 G94 G91.1 G40 G49 G17
G21
G28 G91 Z0.
G90

(DRILL3 3)
M5
M9
T24 M6
S8000 M3
G54
M8
G0 X31.8 Y40.9
Z33.2
Z23.2
G98 G83 X31.8 Y40.9 Z-0.702 R23.2 Q4. F800.
X18.2
Y9.1
X31.8
G80
Z33.2
G28 G91 Z0.
G90

(2D POCKET2 2)
M5
M9
M1
T162 M6
S12000 M3
G54
M8
G0 X-7.659 Y24.218
Z33.2
Z23.2
G1 Z14.75 F1000.
X-7.652 Z14.664
X-7.632 Z14.58
X-7.599 Y24.217 Z14.5
X-7.554 Z14.427
X-7.498 Y24.216 Z14.361
X-7.432 Y24.215 Z14.305
X-7.359 Y24.213 Z14.26
X-7.279 Y24.212 Z14.227
X-7.195 Y24.211 Z14.207
X-7.109 Y24.209 Z14.2
X-2.641 Y24.134
X20.065 Y23.753 F3600.
X52.639 Y23.677
G3 X52.915 Y23.951 I0.001 J0.275
G1 X52.925 Y26.046
G3 X52.65 Y26.323 I-0.275 J0.001
G1 X20.065 Y26.247
X-2.643 Y25.866
G3 X-2.914 Y25.591 I0.005 J-0.275
G1 X-2.91 Y20.42
G3 X-2.64 Y20.146 I0.275 J0.
G1 X0.048 Y20.099
X20.026 Y19.75
X50.005 Y19.698
X52.646 Y19.693
G3 X52.921 Y19.968 I0. J0.275
G1 X52.919 Y30.032
G3 X52.644 Y30.307 I-0.275 J0.
G1 X50.005 Y30.302
X20.026 Y30.25
X0.048 Y29.901
X-2.65 Y29.854
G3 X-2.914 Y29.637 I0.005 J-0.275
G1 X-4.026 Y24.486
G3 X-3.762 Y24.153 I0.269 J-0.058
G1 X-3.676 Y24.152 Z14.193 F1000.
X-3.592 Y24.15 Z14.173
X-3.512 Y24.149 Z14.14
X-3.439 Y24.148 Z14.095
X-3.373 Y24.146 Z14.039
X-3.317 Y24.145 Z13.973
X-3.272 Z13.9
X-3.239 Y24.144 Z13.82
X-3.219 Z13.736
X-3.212 Z13.65
Z10.75
X-3.205 Z10.664
X-3.185 Y24.143 Z10.58
X-3.152 Z10.5
X-3.107 Y24.142 Z10.427
X-3.051 Y24.141 Z10.361
X-2.985 Y24.14 Z10.305
X-2.912 Y24.139 Z10.26
X-2.832 Y24.137 Z10.227
X-2.748 Y24.136 Z10.207
X-2.662 Y24.134 Z10.2
X-2.641
X20.065 Y23.753 F3600.
X52.639 Y23.677
G3 X52.915 Y23.951 I0.001 J0.275
G1 X52.925 Y26.046
G3 X52.65 Y26.323 I-0.275 J0.001
G1 X20.065 Y26.247
X-2.643 Y25.866
G3 X-2.914 Y25.591 I0.005 J-0.275
G1 X-2.91 Y20.42
G3 X-2.64 Y20.146 I0.275 J0.
G1 X0.048 Y20.099
X20.026 Y19.75
X50.005 Y19.698
X52.646 Y19.693
G3 X52.921 Y19.968 I0. J0.275
G1 X52.919 Y30.032
G3 X52.644 Y30.307 I-0.275 J0.
G1 X50.005 Y30.302
X20.026 Y30.25
X0.048 Y29.901
X-2.65 Y29.854
G3 X-2.914 Y29.637 I0.005 J-0.275
G1 X-4.026 Y24.486
G3 X-3.762 Y24.153 I0.269 J-0.058
G1 X-3.676 Y24.152 Z10.193 F1000.
X-3.592 Y24.15 Z10.173
X-3.512 Y24.149 Z10.14
X-3.439 Y24.148 Z10.095
X-3.373 Y24.146 Z10.039
X-3.317 Y24.145 Z9.973
X-3.272 Z9.9
X-3.239 Y24.144 Z9.82
X-3.219 Z9.736
X-3.212 Z9.65
X-3.205 Z9.564
X-3.185 Y24.143 Z9.48
X-3.152 Z9.4
X-3.107 Y24.142 Z9.327
X-3.051 Y24.141 Z9.261
X-2.985 Y24.14 Z9.205
X-2.912 Y24.139 Z9.16
X-2.832 Y24.137 Z9.127
X-2.748 Y24.136 Z9.107
X-2.662 Y24.134 Z9.1
X-2.641
X20.065 Y23.753 F3600.
X52.639 Y23.677
G3 X52.915 Y23.951 I0.001 J0.275
G1 X52.925 Y26.046
G3 X52.65 Y26.323 I-0.275 J0.001
G1 X20.065 Y26.247
X-2.643 Y25.866
G3 X-2.914 Y25.591 I0.005 J-0.275
G1 X-2.91 Y20.42
G3 X-2.64 Y20.146 I0.275 J0.
G1 X0.048 Y20.099
X20.026 Y19.75
X50.005 Y19.698
X52.646 Y19.693
G3 X52.921 Y19.968 I0. J0.275
G1 X52.919 Y30.032
G3 X52.644 Y30.307 I-0.275 J0.
G1 X50.005 Y30.302
X20.026 Y30.25
X0.048 Y29.901
X-2.65 Y29.854
X-2.736 Y29.846 F1000.
X-5.444 Y29.368
X-5.529 Y29.353 Z9.107
X-5.611 Y29.339 Z9.127
X-5.69 Y29.325 Z9.16
X-5.762 Y29.312 Z9.205
X-5.827 Y29.301 Z9.261
X-5.882 Y29.291 Z9.327
X-5.927 Y29.283 Z9.4
X-5.959 Y29.278 Z9.48
X-5.979 Y29.274 Z9.564
X-5.986 Y29.273 Z9.65
G0 Z33.2

(2D CONTOUR4 2)
G0 X-4.4 Y24.45
Z33.2
Z23.2
G1 Z22.2 F1200.
Z15.75
G18 G2 X-3.85 Z15.2 I0.55 K0.
G1 X-3.3 F1000.
G17 G3 X-2.75 Y25. I0. J0.55
G1 Y40. F3600.
G2 X10. Y52.75 I12.75 J0.
G1 X40.
G2 X52.75 Y40. I0. J-12.75
G1 Y10.
G2 X40. Y-2.75 I-12.75 J0.
G1 X10.
G2 X-2.75 Y10. I0. J12.75
G1 Y25.
G3 X-3.3 Y25.55 I-0.55 J0. F1000.
G1 X-3.85
G18 G3 X-4.4 Z15.75 I0. K0.55
G0 Z23.2
Y24.45
G1 Z19.2 F1200.
Z12.75
G2 X-3.85 Z12.2 I0.55 K0.
G1 X-3.3 F1000.
G17 G3 X-2.75 Y25. I0. J0.55
G1 Y40. F3600.
G2 X10. Y52.75 I12.75 J0.
G1 X40.
G2 X52.75 Y40. I0. J-12.75
G1 Y10.
G2 X40. Y-2.75 I-12.75 J0.
G1 X10.
G2 X-2.75 Y10. I0. J12.75
G1 Y25.
G3 X-3.3 Y25.55 I-0.55 J0. F1000.
G1 X-3.85
G18 G3 X-4.4 Z12.75 I0. K0.55
G0 Z23.2
Y24.45
G1 Z16.2 F1200.
Z9.75
G2 X-3.85 Z9.2 I0.55 K0.
G1 X-3.3 F1000.
G17 G3 X-2.75 Y25. I0. J0.55
G1 Y40. F3600.
G2 X10. Y52.75 I12.75 J0.
G1 X40.
G2 X52.75 Y40. I0. J-12.75
G1 Y10.
G2 X40. Y-2.75 I-12.75 J0.
G1 X10.
G2 X-2.75 Y10. I0. J12.75
G1 Y25.
G3 X-3.3 Y25.55 I-0.55 J0. F1000.
G1 X-3.85
G18 G3 X-4.4 Z9.75 I0. K0.55
G0 Z23.2
Y24.45
G1 Z13.2 F1200.
Z6.75
G2 X-3.85 Z6.2 I0.55 K0.
G1 X-3.3 F1000.
G17 G3 X-2.75 Y25. I0. J0.55
G1 Y40. F3600.
G2 X10. Y52.75 I12.75 J0.
G1 X40.
G2 X52.75 Y40. I0. J-12.75
G1 Y10.
G2 X40. Y-2.75 I-12.75 J0.
G1 X10.
G2 X-2.75 Y10. I0. J12.75
G1 Y25.
G3 X-3.3 Y25.55 I-0.55 J0. F1000.
G1 X-3.85
G18 G3 X-4.4 Z6.75 I0. K0.55
G0 Z23.2
Y24.45
G1 Z10.2 F1200.
Z3.75
G2 X-3.85 Z3.2 I0.55 K0.
G1 X-3.3 F1000.
G17 G3 X-2.75 Y25. I0. J0.55
G1 Y40. F3600.
G2 X10. Y52.75 I12.75 J0.
G1 X40.
G2 X52.75 Y40. I0. J-12.75
G1 Y10.
G2 X40. Y-2.75 I-12.75 J0.
G1 X10.
G2 X-2.75 Y10. I0. J12.75
G1 Y25.
G3 X-3.3 Y25.55 I-0.55 J0. F1000.
G1 X-3.85
G18 G3 X-4.4 Z3.75 I0. K0.55
G0 Z23.2
Y24.45
G1 Z7.2 F1200.
Z2.15
G2 X-3.85 Z1.6 I0.55 K0.
G1 X-3.3 F1000.
G17 G3 X-2.75 Y25. I0. J0.55
G1 Y40. F3600.
G2 X10. Y52.75 I12.75 J0.
G1 X40.
G2 X52.75 Y40. I0. J-12.75
G1 Y10.
G2 X40. Y-2.75 I-12.75 J0.
G1 X10.
G2 X-2.75 Y10. I0. J12.75
G1 Y25.
G3 X-3.3 Y25.55 I-0.55 J0. F1000.
G1 X-3.85
G18 G3 X-4.4 Z2.15 I0. K0.55
G0 Z23.2
Y24.45
G1 Z5.6 F1200.
Z0.55
G2 X-3.85 Z0. I0.55 K0.
G1 X-3.3 F1000.
G17 G3 X-2.75 Y25. I0. J0.55
G1 Y40. F3600.
G2 X10. Y52.75 I12.75 J0.
G1 X40.
G2 X52.75 Y40. I0. J-12.75
G1 Y10.
G2 X40. Y-2.75 I-12.75 J0.
G1 X10.
G2 X-2.75 Y10. I0. J12.75
G1 Y25.
G3 X-3.3 Y25.55 I-0.55 J0. F1000.
G1 X-3.85
G18 G3 X-4.4 Z0.55 I0. K0.55
G0 Z33.2
G17

M9
G28 G91 Z0.
G90
G28 G91 X0. Y0.
G90
M30
