(2018-01-26 HACKSAW)
(2018-01-26 HACKSAW)
(T24  D=4. CR=0. TAPER=118DEG - ZMIN=-2.702 - DRILL)
(T42  D=0.1 CR=0. TAPER=45DEG - ZMIN=14.2 - TAPERED MILL)
(T162  D=5.5 CR=0. - ZMIN=0. - FLAT END MILL)
G90 G94 G91.1 G40 G49 G17
G21
G28 G91 Z0.
G90

(DRILL3 3)
M5
M9
T24 M6
S8000 M3
G54
M8
G0 X15.108 Y45.984
Z33.2
Z23.2
G98 G83 X15.108 Y45.984 Z-2.702 R23.2 Q4. F800.
X14.79 Y12.5
X69.79 Y12.596
X70.108 Y46.08
G80
Z33.2
G28 G91 Z0.
G90

(DRILL3 4)
M5
M9
M1
T42 M6
S12000 M3
G54
M8
G0 X15.108 Y45.984
Z33.2
Z23.2
G83 X15.108 Y45.984 Z14.2 R23.2 Q4. F1200.
X70.108 Y46.08
G80
Z33.2
G28 G91 Z0.
G90

(2D CONTOUR4 2)
M5
M9
M1
T162 M6
S12000 M3
G54
M8
G0 X70.307 Y29.18
Z33.2
Z23.2
G1 Z22.2 F1200.
Z15.75
Y29.187 Z15.664
Y29.207 Z15.58
Y29.24 Z15.5
Y29.285 Z15.427
Y29.341 Z15.361
X70.306 Y29.407 Z15.305
Y29.48 Z15.26
Y29.56 Z15.227
Y29.644 Z15.207
Y29.73 Z15.2
X70.305 Y30.28 F1000.
G3 X69.754 Y30.829 I-0.55 J-0.001
G1 X15.139 Y30.734 F3600.
X15.077
G2 X-2.642 Y48.453 I0.031 J17.75
X15.077 Y66.234 I17.75 J0.031
G1 X70.077 Y66.33
G2 X87.858 Y48.611 I0.031 J-17.75
X70.139 Y30.83 I-17.75 J-0.031
G1 X69.754 Y30.829
G3 X69.205 Y30.278 I0.001 J-0.55 F1000.
G1 X69.206 Y29.728
Y29.642 Z15.207
Y29.558 Z15.227
Y29.479 Z15.26
Y29.405 Z15.305
X69.207 Y29.339 Z15.361
Y29.283 Z15.427
Y29.238 Z15.5
Y29.205 Z15.58
Y29.185 Z15.664
Y29.178 Z15.75
G0 Z23.2
X69.206 Y29.495
G1 Z22.2 F1200.
Z15.75
Y29.488 Z15.664
Y29.468 Z15.58
Y29.435 Z15.5
X69.207 Y29.39 Z15.427
Y29.334 Z15.361
Y29.268 Z15.305
Y29.195 Z15.26
Y29.115 Z15.227
Y29.031 Z15.207
Y28.945 Z15.2
X69.208 Y28.395 F1000.
G3 X69.759 Y27.846 I0.55 J0.001
G2 X87.292 Y13.054 I0.031 J-17.75 F3600.
Y12.138 I-2.712 J-0.458
X69.821 Y-2.654 I-17.502 J2.958
G1 X14.821 Y-2.75
G2 X-2.712 Y12.042 I-0.031 J17.75
Y12.958 I2.712 J0.458
X14.759 Y27.75 I17.502 J-2.958
G1 X69.759 Y27.846
G3 X70.308 Y28.397 I-0.001 J0.55 F1000.
G1 X70.307 Y28.947
Y29.033 Z15.207
Y29.117 Z15.227
Y29.197 Z15.26
Y29.27 Z15.305
Y29.336 Z15.361
Y29.392 Z15.427
X70.306 Y29.437 Z15.5
Y29.47 Z15.58
Y29.49 Z15.664
Y29.497 Z15.75
G0 Z23.2
X70.307 Y29.18
G1 Z19.2 F1200.
Z12.75
Y29.187 Z12.664
Y29.207 Z12.58
Y29.24 Z12.5
Y29.285 Z12.427
Y29.341 Z12.361
X70.306 Y29.407 Z12.305
Y29.48 Z12.26
Y29.56 Z12.227
Y29.644 Z12.207
Y29.73 Z12.2
X70.305 Y30.28 F1000.
G3 X69.754 Y30.829 I-0.55 J-0.001
G1 X15.139 Y30.734 F3600.
X15.077
G2 X-2.642 Y48.453 I0.031 J17.75
X15.077 Y66.234 I17.75 J0.031
G1 X70.077 Y66.33
G2 X87.858 Y48.611 I0.031 J-17.75
X70.139 Y30.83 I-17.75 J-0.031
G1 X69.754 Y30.829
G3 X69.205 Y30.278 I0.001 J-0.55 F1000.
G1 X69.206 Y29.728
Y29.642 Z12.207
Y29.558 Z12.227
Y29.479 Z12.26
Y29.405 Z12.305
X69.207 Y29.339 Z12.361
Y29.283 Z12.427
Y29.238 Z12.5
Y29.205 Z12.58
Y29.185 Z12.664
Y29.178 Z12.75
G0 Z23.2
X69.206 Y29.495
G1 Z19.2 F1200.
Z12.75
Y29.488 Z12.664
Y29.468 Z12.58
Y29.435 Z12.5
X69.207 Y29.39 Z12.427
Y29.334 Z12.361
Y29.268 Z12.305
Y29.195 Z12.26
Y29.115 Z12.227
Y29.031 Z12.207
Y28.945 Z12.2
X69.208 Y28.395 F1000.
G3 X69.759 Y27.846 I0.55 J0.001
G2 X87.292 Y13.054 I0.031 J-17.75 F3600.
Y12.138 I-2.712 J-0.458
X69.821 Y-2.654 I-17.502 J2.958
G1 X14.821 Y-2.75
G2 X-2.712 Y12.042 I-0.031 J17.75
Y12.958 I2.712 J0.458
X14.759 Y27.75 I17.502 J-2.958
G1 X69.759 Y27.846
G3 X70.308 Y28.397 I-0.001 J0.55 F1000.
G1 X70.307 Y28.947
Y29.033 Z12.207
Y29.117 Z12.227
Y29.197 Z12.26
Y29.27 Z12.305
Y29.336 Z12.361
Y29.392 Z12.427
X70.306 Y29.437 Z12.5
Y29.47 Z12.58
Y29.49 Z12.664
Y29.497 Z12.75
G0 Z23.2
X70.307 Y29.18
G1 Z16.2 F1200.
Z9.75
Y29.187 Z9.664
Y29.207 Z9.58
Y29.24 Z9.5
Y29.285 Z9.427
Y29.341 Z9.361
X70.306 Y29.407 Z9.305
Y29.48 Z9.26
Y29.56 Z9.227
Y29.644 Z9.207
Y29.73 Z9.2
X70.305 Y30.28 F1000.
G3 X69.754 Y30.829 I-0.55 J-0.001
G1 X15.139 Y30.734 F3600.
X15.077
G2 X-2.642 Y48.453 I0.031 J17.75
X15.077 Y66.234 I17.75 J0.031
G1 X70.077 Y66.33
G2 X87.858 Y48.611 I0.031 J-17.75
X70.139 Y30.83 I-17.75 J-0.031
G1 X69.754 Y30.829
G3 X69.205 Y30.278 I0.001 J-0.55 F1000.
G1 X69.206 Y29.728
Y29.642 Z9.207
Y29.558 Z9.227
Y29.479 Z9.26
Y29.405 Z9.305
X69.207 Y29.339 Z9.361
Y29.283 Z9.427
Y29.238 Z9.5
Y29.205 Z9.58
Y29.185 Z9.664
Y29.178 Z9.75
G0 Z23.2
X69.206 Y29.495
G1 Z16.2 F1200.
Z9.75
Y29.488 Z9.664
Y29.468 Z9.58
Y29.435 Z9.5
X69.207 Y29.39 Z9.427
Y29.334 Z9.361
Y29.268 Z9.305
Y29.195 Z9.26
Y29.115 Z9.227
Y29.031 Z9.207
Y28.945 Z9.2
X69.208 Y28.395 F1000.
G3 X69.759 Y27.846 I0.55 J0.001
G2 X87.292 Y13.054 I0.031 J-17.75 F3600.
Y12.138 I-2.712 J-0.458
X69.821 Y-2.654 I-17.502 J2.958
G1 X14.821 Y-2.75
G2 X-2.712 Y12.042 I-0.031 J17.75
Y12.958 I2.712 J0.458
X14.759 Y27.75 I17.502 J-2.958
G1 X69.759 Y27.846
G3 X70.308 Y28.397 I-0.001 J0.55 F1000.
G1 X70.307 Y28.947
Y29.033 Z9.207
Y29.117 Z9.227
Y29.197 Z9.26
Y29.27 Z9.305
Y29.336 Z9.361
Y29.392 Z9.427
X70.306 Y29.437 Z9.5
Y29.47 Z9.58
Y29.49 Z9.664
Y29.497 Z9.75
G0 Z23.2
X70.307 Y29.18
G1 Z13.2 F1200.
Z6.75
Y29.187 Z6.664
Y29.207 Z6.58
Y29.24 Z6.5
Y29.285 Z6.427
Y29.341 Z6.361
X70.306 Y29.407 Z6.305
Y29.48 Z6.26
Y29.56 Z6.227
Y29.644 Z6.207
Y29.73 Z6.2
X70.305 Y30.28 F1000.
G3 X69.754 Y30.829 I-0.55 J-0.001
G1 X15.139 Y30.734 F3600.
X15.077
G2 X-2.642 Y48.453 I0.031 J17.75
X15.077 Y66.234 I17.75 J0.031
G1 X70.077 Y66.33
G2 X87.858 Y48.611 I0.031 J-17.75
X70.139 Y30.83 I-17.75 J-0.031
G1 X69.754 Y30.829
G3 X69.205 Y30.278 I0.001 J-0.55 F1000.
G1 X69.206 Y29.728
Y29.642 Z6.207
Y29.558 Z6.227
Y29.479 Z6.26
Y29.405 Z6.305
X69.207 Y29.339 Z6.361
Y29.283 Z6.427
Y29.238 Z6.5
Y29.205 Z6.58
Y29.185 Z6.664
Y29.178 Z6.75
G0 Z23.2
X69.206 Y29.495
G1 Z13.2 F1200.
Z6.75
Y29.488 Z6.664
Y29.468 Z6.58
Y29.435 Z6.5
X69.207 Y29.39 Z6.427
Y29.334 Z6.361
Y29.268 Z6.305
Y29.195 Z6.26
Y29.115 Z6.227
Y29.031 Z6.207
Y28.945 Z6.2
X69.208 Y28.395 F1000.
G3 X69.759 Y27.846 I0.55 J0.001
G2 X87.292 Y13.054 I0.031 J-17.75 F3600.
Y12.138 I-2.712 J-0.458
X69.821 Y-2.654 I-17.502 J2.958
G1 X14.821 Y-2.75
G2 X-2.712 Y12.042 I-0.031 J17.75
Y12.958 I2.712 J0.458
X14.759 Y27.75 I17.502 J-2.958
G1 X69.759 Y27.846
G3 X70.308 Y28.397 I-0.001 J0.55 F1000.
G1 X70.307 Y28.947
Y29.033 Z6.207
Y29.117 Z6.227
Y29.197 Z6.26
Y29.27 Z6.305
Y29.336 Z6.361
Y29.392 Z6.427
X70.306 Y29.437 Z6.5
Y29.47 Z6.58
Y29.49 Z6.664
Y29.497 Z6.75
G0 Z23.2
X70.307 Y29.18
G1 Z10.2 F1200.
Z3.75
Y29.187 Z3.664
Y29.207 Z3.58
Y29.24 Z3.5
Y29.285 Z3.427
Y29.341 Z3.361
X70.306 Y29.407 Z3.305
Y29.48 Z3.26
Y29.56 Z3.227
Y29.644 Z3.207
Y29.73 Z3.2
X70.305 Y30.28 F1000.
G3 X69.754 Y30.829 I-0.55 J-0.001
G1 X15.139 Y30.734 F3600.
X15.077
G2 X-2.642 Y48.453 I0.031 J17.75
X15.077 Y66.234 I17.75 J0.031
G1 X70.077 Y66.33
G2 X87.858 Y48.611 I0.031 J-17.75
X70.139 Y30.83 I-17.75 J-0.031
G1 X69.754 Y30.829
G3 X69.205 Y30.278 I0.001 J-0.55 F1000.
G1 X69.206 Y29.728
Y29.642 Z3.207
Y29.558 Z3.227
Y29.479 Z3.26
Y29.405 Z3.305
X69.207 Y29.339 Z3.361
Y29.283 Z3.427
Y29.238 Z3.5
Y29.205 Z3.58
Y29.185 Z3.664
Y29.178 Z3.75
G0 Z23.2
X69.206 Y29.495
G1 Z10.2 F1200.
Z3.75
Y29.488 Z3.664
Y29.468 Z3.58
Y29.435 Z3.5
X69.207 Y29.39 Z3.427
Y29.334 Z3.361
Y29.268 Z3.305
Y29.195 Z3.26
Y29.115 Z3.227
Y29.031 Z3.207
Y28.945 Z3.2
X69.208 Y28.395 F1000.
G3 X69.759 Y27.846 I0.55 J0.001
G2 X87.292 Y13.054 I0.031 J-17.75 F3600.
Y12.138 I-2.712 J-0.458
X69.821 Y-2.654 I-17.502 J2.958
G1 X14.821 Y-2.75
G2 X-2.712 Y12.042 I-0.031 J17.75
Y12.958 I2.712 J0.458
X14.759 Y27.75 I17.502 J-2.958
G1 X69.759 Y27.846
G3 X70.308 Y28.397 I-0.001 J0.55 F1000.
G1 X70.307 Y28.947
Y29.033 Z3.207
Y29.117 Z3.227
Y29.197 Z3.26
Y29.27 Z3.305
Y29.336 Z3.361
Y29.392 Z3.427
X70.306 Y29.437 Z3.5
Y29.47 Z3.58
Y29.49 Z3.664
Y29.497 Z3.75
G0 Z23.2
X70.307 Y29.18
G1 Z7.2 F1200.
Z2.15
Y29.187 Z2.064
Y29.207 Z1.98
Y29.24 Z1.9
Y29.285 Z1.827
Y29.341 Z1.761
X70.306 Y29.407 Z1.705
Y29.48 Z1.66
Y29.56 Z1.627
Y29.644 Z1.607
Y29.73 Z1.6
X70.305 Y30.28 F1000.
G3 X69.754 Y30.829 I-0.55 J-0.001
G1 X15.139 Y30.734 F3600.
X15.077
G2 X-2.642 Y48.453 I0.031 J17.75
X15.077 Y66.234 I17.75 J0.031
G1 X70.077 Y66.33
G2 X87.858 Y48.611 I0.031 J-17.75
X70.139 Y30.83 I-17.75 J-0.031
G1 X69.754 Y30.829
G3 X69.205 Y30.278 I0.001 J-0.55 F1000.
G1 X69.206 Y29.728
Y29.642 Z1.607
Y29.558 Z1.627
Y29.479 Z1.66
Y29.405 Z1.705
X69.207 Y29.339 Z1.761
Y29.283 Z1.827
Y29.238 Z1.9
Y29.205 Z1.98
Y29.185 Z2.064
Y29.178 Z2.15
G0 Z23.2
X69.206 Y29.495
G1 Z7.2 F1200.
Z2.15
Y29.488 Z2.064
Y29.468 Z1.98
Y29.435 Z1.9
X69.207 Y29.39 Z1.827
Y29.334 Z1.761
Y29.268 Z1.705
Y29.195 Z1.66
Y29.115 Z1.627
Y29.031 Z1.607
Y28.945 Z1.6
X69.208 Y28.395 F1000.
G3 X69.759 Y27.846 I0.55 J0.001
G2 X87.292 Y13.054 I0.031 J-17.75 F3600.
Y12.138 I-2.712 J-0.458
X69.821 Y-2.654 I-17.502 J2.958
G1 X14.821 Y-2.75
G2 X-2.712 Y12.042 I-0.031 J17.75
Y12.958 I2.712 J0.458
X14.759 Y27.75 I17.502 J-2.958
G1 X69.759 Y27.846
G3 X70.308 Y28.397 I-0.001 J0.55 F1000.
G1 X70.307 Y28.947
Y29.033 Z1.607
Y29.117 Z1.627
Y29.197 Z1.66
Y29.27 Z1.705
Y29.336 Z1.761
Y29.392 Z1.827
X70.306 Y29.437 Z1.9
Y29.47 Z1.98
Y29.49 Z2.064
Y29.497 Z2.15
G0 Z23.2
X70.307 Y29.18
G1 Z5.6 F1200.
Z0.55
Y29.187 Z0.464
Y29.207 Z0.38
Y29.24 Z0.3
Y29.285 Z0.227
Y29.341 Z0.161
X70.306 Y29.407 Z0.105
Y29.48 Z0.06
Y29.56 Z0.027
Y29.644 Z0.007
Y29.73 Z0.
X70.305 Y30.28 F1000.
G3 X69.754 Y30.829 I-0.55 J-0.001
G1 X15.139 Y30.734 F3600.
X15.077
G2 X-2.642 Y48.453 I0.031 J17.75
X15.077 Y66.234 I17.75 J0.031
G1 X70.077 Y66.33
G2 X87.858 Y48.611 I0.031 J-17.75
X70.139 Y30.83 I-17.75 J-0.031
G1 X69.754 Y30.829
G3 X69.205 Y30.278 I0.001 J-0.55 F1000.
G1 X69.206 Y29.728
Y29.642 Z0.007
Y29.558 Z0.027
Y29.479 Z0.06
Y29.405 Z0.105
X69.207 Y29.339 Z0.161
Y29.283 Z0.227
Y29.238 Z0.3
Y29.205 Z0.38
Y29.185 Z0.464
Y29.178 Z0.55
G0 Z23.2
X69.206 Y29.495
G1 Z5.6 F1200.
Z0.55
Y29.488 Z0.464
Y29.468 Z0.38
Y29.435 Z0.3
X69.207 Y29.39 Z0.227
Y29.334 Z0.161
Y29.268 Z0.105
Y29.195 Z0.06
Y29.115 Z0.027
Y29.031 Z0.007
Y28.945 Z0.
X69.208 Y28.395 F1000.
G3 X69.759 Y27.846 I0.55 J0.001
G2 X87.292 Y13.054 I0.031 J-17.75 F3600.
Y12.138 I-2.712 J-0.458
X69.821 Y-2.654 I-17.502 J2.958
G1 X14.821 Y-2.75
G2 X-2.712 Y12.042 I-0.031 J17.75
Y12.958 I2.712 J0.458
X14.759 Y27.75 I17.502 J-2.958
G1 X69.759 Y27.846
G3 X70.308 Y28.397 I-0.001 J0.55 F1000.
G1 X70.307 Y28.947
Y29.033 Z0.007
Y29.117 Z0.027
Y29.197 Z0.06
Y29.27 Z0.105
Y29.336 Z0.161
Y29.392 Z0.227
X70.306 Y29.437 Z0.3
Y29.47 Z0.38
Y29.49 Z0.464
Y29.497 Z0.55
G0 Z33.2

M9
G28 G91 Z0.
G90
G28 G91 X0. Y0.
G90
M30
