(2018-01-26 STAPLE GUN)
(2018-01-26 STAPLE GUN)
(T24  D=4. CR=0. TAPER=118DEG - ZMIN=-2.702 - DRILL)
(T42  D=0.1 CR=0. TAPER=45DEG - ZMIN=14.2 - TAPERED MILL)
(T162  D=5.5 CR=0. - ZMIN=0. - FLAT END MILL)
G90 G94 G91.1 G40 G49 G17
G21
G28 G91 Z0.
G90

(DRILL3 3)
M5
M9
T24 M6
S8000 M3
G54
M8
G0 X70. Y33.089
Z33.2
Z23.2
G98 G83 X70. Y33.089 Z-2.702 R23.2 Q4. F800.
X69.683 Y7.605
X9.682 Y7.5
X10. Y32.984
G80
Z33.2
G28 G91 Z0.
G90

(DRILL3 4)
M5
M9
M1
T42 M6
S12000 M3
G54
M8
G0 X10. Y32.984
Z33.2
Z23.2
G83 X10. Y32.984 Z14.2 R23.2 Q4. F1200.
X70. Y33.089
G80
Z33.2
G28 G91 Z0.
G90

(2D CONTOUR4 2)
M5
M9
M1
T162 M6
S12000 M3
G54
M8
G0 X84.302 Y33.825
Z33.2
Z23.2
G1 Z22.2 F1200.
Z15.75
X84.295 Y33.826 Z15.664
X84.276 Y33.829 Z15.58
X84.243 Y33.834 Z15.5
X84.198 Y33.842 Z15.427
X84.143 Y33.851 Z15.361
X84.078 Y33.861 Z15.305
X84.006 Y33.873 Z15.26
X83.927 Y33.886 Z15.227
X83.844 Y33.899 Z15.207
X83.759 Y33.913 Z15.2
X83.216 Y34.001 F1000.
G3 X82.585 Y33.546 I-0.088 J-0.543
G2 X70.022 Y22.839 I-12.585 J2.042 F3600.
G1 X10.022 Y22.734
G2 X-2.75 Y35.462 I-0.022 J12.75
X9.978 Y48.234 I12.75 J0.022
G1 X69.978 Y48.339
G2 X80.862 Y42.265 I0.022 J-12.75
X82.75 Y35.611 I-10.862 J-6.676
X82.585 Y33.546 I-12.75 J-0.022
G3 X83.04 Y32.915 I0.543 J-0.088 F1000.
G1 X83.583 Y32.827
X83.668 Y32.813 Z15.207
X83.751 Y32.8 Z15.227
X83.83 Y32.787 Z15.26
X83.902 Y32.775 Z15.305
X83.967 Y32.765 Z15.361
X84.022 Y32.756 Z15.427
X84.067 Y32.749 Z15.5
X84.099 Y32.743 Z15.58
X84.119 Y32.74 Z15.664
X84.126 Y32.739 Z15.75
G0 Z23.2
X83.488 Y9.237
G1 Z22.2 F1200.
Z15.75
X83.481 Y9.236 Z15.664
X83.462 Y9.231 Z15.58
X83.43 Y9.222 Z15.5
X83.386 Y9.211 Z15.427
X83.332 Y9.197 Z15.361
X83.268 Y9.181 Z15.305
X83.197 Y9.162 Z15.26
X83.12 Y9.142 Z15.227
X83.039 Y9.121 Z15.207
X82.955 Y9.1 Z15.2
X82.423 Y8.962 F1000.
G3 X82.028 Y8.292 I0.138 J-0.533
G2 Y6.917 I-2.663 J-0.688 F3600.
X69.705 Y-2.645 I-12.345 J3.188
G1 X9.705 Y-2.75
G2 X-2.663 Y6.813 I-0.022 J12.75
Y8.187 I2.663 J0.688
X9.66 Y17.75 I12.345 J-3.187
G1 X9.981 Y17.751
X69.66 Y17.855
G2 X82.028 Y8.292 I0.022 J-12.75
G3 X82.698 Y7.897 I0.533 J0.138 F1000.
G1 X83.23 Y8.035
X83.314 Y8.056 Z15.207
X83.395 Y8.077 Z15.227
X83.472 Y8.097 Z15.26
X83.543 Y8.116 Z15.305
X83.607 Y8.132 Z15.361
X83.661 Y8.146 Z15.427
X83.705 Y8.157 Z15.5
X83.737 Y8.165 Z15.58
X83.756 Y8.17 Z15.664
X83.763 Y8.172 Z15.75
G0 Z23.2
X83.488 Y9.237
G1 Z19.2 F1200.
Z12.75
X83.481 Y9.236 Z12.664
X83.462 Y9.231 Z12.58
X83.43 Y9.222 Z12.5
X83.386 Y9.211 Z12.427
X83.332 Y9.197 Z12.361
X83.268 Y9.181 Z12.305
X83.197 Y9.162 Z12.26
X83.12 Y9.142 Z12.227
X83.039 Y9.121 Z12.207
X82.955 Y9.1 Z12.2
X82.423 Y8.962 F1000.
G3 X82.028 Y8.292 I0.138 J-0.533
G2 Y6.917 I-2.663 J-0.688 F3600.
X69.705 Y-2.645 I-12.345 J3.188
G1 X9.705 Y-2.75
G2 X-2.663 Y6.813 I-0.022 J12.75
Y8.187 I2.663 J0.688
X9.66 Y17.75 I12.345 J-3.187
G1 X9.981 Y17.751
X69.66 Y17.855
G2 X82.028 Y8.292 I0.022 J-12.75
G3 X82.698 Y7.897 I0.533 J0.138 F1000.
G1 X83.23 Y8.035
X83.314 Y8.056 Z12.207
X83.395 Y8.077 Z12.227
X83.472 Y8.097 Z12.26
X83.543 Y8.116 Z12.305
X83.607 Y8.132 Z12.361
X83.661 Y8.146 Z12.427
X83.705 Y8.157 Z12.5
X83.737 Y8.165 Z12.58
X83.756 Y8.17 Z12.664
X83.763 Y8.172 Z12.75
G0 Z23.2
X84.302 Y33.825
G1 Z19.2 F1200.
Z12.75
X84.295 Y33.826 Z12.664
X84.276 Y33.829 Z12.58
X84.243 Y33.834 Z12.5
X84.198 Y33.842 Z12.427
X84.143 Y33.851 Z12.361
X84.078 Y33.861 Z12.305
X84.006 Y33.873 Z12.26
X83.927 Y33.886 Z12.227
X83.844 Y33.899 Z12.207
X83.759 Y33.913 Z12.2
X83.216 Y34.001 F1000.
G3 X82.585 Y33.546 I-0.088 J-0.543
G2 X70.022 Y22.839 I-12.585 J2.042 F3600.
G1 X10.022 Y22.734
G2 X-2.75 Y35.462 I-0.022 J12.75
X9.978 Y48.234 I12.75 J0.022
G1 X69.978 Y48.339
G2 X80.862 Y42.265 I0.022 J-12.75
X82.75 Y35.611 I-10.862 J-6.676
X82.585 Y33.546 I-12.75 J-0.022
G3 X83.04 Y32.915 I0.543 J-0.088 F1000.
G1 X83.583 Y32.827
X83.668 Y32.813 Z12.207
X83.751 Y32.8 Z12.227
X83.83 Y32.787 Z12.26
X83.902 Y32.775 Z12.305
X83.967 Y32.765 Z12.361
X84.022 Y32.756 Z12.427
X84.067 Y32.749 Z12.5
X84.099 Y32.743 Z12.58
X84.119 Y32.74 Z12.664
X84.126 Y32.739 Z12.75
G0 Z23.2
X84.302 Y33.825
G1 Z16.2 F1200.
Z9.75
X84.295 Y33.826 Z9.664
X84.276 Y33.829 Z9.58
X84.243 Y33.834 Z9.5
X84.198 Y33.842 Z9.427
X84.143 Y33.851 Z9.361
X84.078 Y33.861 Z9.305
X84.006 Y33.873 Z9.26
X83.927 Y33.886 Z9.227
X83.844 Y33.899 Z9.207
X83.759 Y33.913 Z9.2
X83.216 Y34.001 F1000.
G3 X82.585 Y33.546 I-0.088 J-0.543
G2 X70.022 Y22.839 I-12.585 J2.042 F3600.
G1 X10.022 Y22.734
G2 X-2.75 Y35.462 I-0.022 J12.75
X9.978 Y48.234 I12.75 J0.022
G1 X69.978 Y48.339
G2 X80.862 Y42.265 I0.022 J-12.75
X82.75 Y35.611 I-10.862 J-6.676
X82.585 Y33.546 I-12.75 J-0.022
G3 X83.04 Y32.915 I0.543 J-0.088 F1000.
G1 X83.583 Y32.827
X83.668 Y32.813 Z9.207
X83.751 Y32.8 Z9.227
X83.83 Y32.787 Z9.26
X83.902 Y32.775 Z9.305
X83.967 Y32.765 Z9.361
X84.022 Y32.756 Z9.427
X84.067 Y32.749 Z9.5
X84.099 Y32.743 Z9.58
X84.119 Y32.74 Z9.664
X84.126 Y32.739 Z9.75
G0 Z23.2
X83.488 Y9.237
G1 Z16.2 F1200.
Z9.75
X83.481 Y9.236 Z9.664
X83.462 Y9.231 Z9.58
X83.43 Y9.222 Z9.5
X83.386 Y9.211 Z9.427
X83.332 Y9.197 Z9.361
X83.268 Y9.181 Z9.305
X83.197 Y9.162 Z9.26
X83.12 Y9.142 Z9.227
X83.039 Y9.121 Z9.207
X82.955 Y9.1 Z9.2
X82.423 Y8.962 F1000.
G3 X82.028 Y8.292 I0.138 J-0.533
G2 Y6.917 I-2.663 J-0.688 F3600.
X69.705 Y-2.645 I-12.345 J3.188
G1 X9.705 Y-2.75
G2 X-2.663 Y6.813 I-0.022 J12.75
Y8.187 I2.663 J0.688
X9.66 Y17.75 I12.345 J-3.187
G1 X9.981 Y17.751
X69.66 Y17.855
G2 X82.028 Y8.292 I0.022 J-12.75
G3 X82.698 Y7.897 I0.533 J0.138 F1000.
G1 X83.23 Y8.035
X83.314 Y8.056 Z9.207
X83.395 Y8.077 Z9.227
X83.472 Y8.097 Z9.26
X83.543 Y8.116 Z9.305
X83.607 Y8.132 Z9.361
X83.661 Y8.146 Z9.427
X83.705 Y8.157 Z9.5
X83.737 Y8.165 Z9.58
X83.756 Y8.17 Z9.664
X83.763 Y8.172 Z9.75
G0 Z23.2
X83.488 Y9.237
G1 Z13.2 F1200.
Z6.75
X83.481 Y9.236 Z6.664
X83.462 Y9.231 Z6.58
X83.43 Y9.222 Z6.5
X83.386 Y9.211 Z6.427
X83.332 Y9.197 Z6.361
X83.268 Y9.181 Z6.305
X83.197 Y9.162 Z6.26
X83.12 Y9.142 Z6.227
X83.039 Y9.121 Z6.207
X82.955 Y9.1 Z6.2
X82.423 Y8.962 F1000.
G3 X82.028 Y8.292 I0.138 J-0.533
G2 Y6.917 I-2.663 J-0.688 F3600.
X69.705 Y-2.645 I-12.345 J3.188
G1 X9.705 Y-2.75
G2 X-2.663 Y6.813 I-0.022 J12.75
Y8.187 I2.663 J0.688
X9.66 Y17.75 I12.345 J-3.187
G1 X9.981 Y17.751
X69.66 Y17.855
G2 X82.028 Y8.292 I0.022 J-12.75
G3 X82.698 Y7.897 I0.533 J0.138 F1000.
G1 X83.23 Y8.035
X83.314 Y8.056 Z6.207
X83.395 Y8.077 Z6.227
X83.472 Y8.097 Z6.26
X83.543 Y8.116 Z6.305
X83.607 Y8.132 Z6.361
X83.661 Y8.146 Z6.427
X83.705 Y8.157 Z6.5
X83.737 Y8.165 Z6.58
X83.756 Y8.17 Z6.664
X83.763 Y8.172 Z6.75
G0 Z23.2
X84.302 Y33.825
G1 Z13.2 F1200.
Z6.75
X84.295 Y33.826 Z6.664
X84.276 Y33.829 Z6.58
X84.243 Y33.834 Z6.5
X84.198 Y33.842 Z6.427
X84.143 Y33.851 Z6.361
X84.078 Y33.861 Z6.305
X84.006 Y33.873 Z6.26
X83.927 Y33.886 Z6.227
X83.844 Y33.899 Z6.207
X83.759 Y33.913 Z6.2
X83.216 Y34.001 F1000.
G3 X82.585 Y33.546 I-0.088 J-0.543
G2 X70.022 Y22.839 I-12.585 J2.042 F3600.
G1 X10.022 Y22.734
G2 X-2.75 Y35.462 I-0.022 J12.75
X9.978 Y48.234 I12.75 J0.022
G1 X69.978 Y48.339
G2 X80.862 Y42.265 I0.022 J-12.75
X82.75 Y35.611 I-10.862 J-6.676
X82.585 Y33.546 I-12.75 J-0.022
G3 X83.04 Y32.915 I0.543 J-0.088 F1000.
G1 X83.583 Y32.827
X83.668 Y32.813 Z6.207
X83.751 Y32.8 Z6.227
X83.83 Y32.787 Z6.26
X83.902 Y32.775 Z6.305
X83.967 Y32.765 Z6.361
X84.022 Y32.756 Z6.427
X84.067 Y32.749 Z6.5
X84.099 Y32.743 Z6.58
X84.119 Y32.74 Z6.664
X84.126 Y32.739 Z6.75
G0 Z23.2
X84.302 Y33.825
G1 Z10.2 F1200.
Z3.75
X84.295 Y33.826 Z3.664
X84.276 Y33.829 Z3.58
X84.243 Y33.834 Z3.5
X84.198 Y33.842 Z3.427
X84.143 Y33.851 Z3.361
X84.078 Y33.861 Z3.305
X84.006 Y33.873 Z3.26
X83.927 Y33.886 Z3.227
X83.844 Y33.899 Z3.207
X83.759 Y33.913 Z3.2
X83.216 Y34.001 F1000.
G3 X82.585 Y33.546 I-0.088 J-0.543
G2 X70.022 Y22.839 I-12.585 J2.042 F3600.
G1 X10.022 Y22.734
G2 X-2.75 Y35.462 I-0.022 J12.75
X9.978 Y48.234 I12.75 J0.022
G1 X69.978 Y48.339
G2 X80.862 Y42.265 I0.022 J-12.75
X82.75 Y35.611 I-10.862 J-6.676
X82.585 Y33.546 I-12.75 J-0.022
G3 X83.04 Y32.915 I0.543 J-0.088 F1000.
G1 X83.583 Y32.827
X83.668 Y32.813 Z3.207
X83.751 Y32.8 Z3.227
X83.83 Y32.787 Z3.26
X83.902 Y32.775 Z3.305
X83.967 Y32.765 Z3.361
X84.022 Y32.756 Z3.427
X84.067 Y32.749 Z3.5
X84.099 Y32.743 Z3.58
X84.119 Y32.74 Z3.664
X84.126 Y32.739 Z3.75
G0 Z23.2
X83.488 Y9.237
G1 Z10.2 F1200.
Z3.75
X83.481 Y9.236 Z3.664
X83.462 Y9.231 Z3.58
X83.43 Y9.222 Z3.5
X83.386 Y9.211 Z3.427
X83.332 Y9.197 Z3.361
X83.268 Y9.181 Z3.305
X83.197 Y9.162 Z3.26
X83.12 Y9.142 Z3.227
X83.039 Y9.121 Z3.207
X82.955 Y9.1 Z3.2
X82.423 Y8.962 F1000.
G3 X82.028 Y8.292 I0.138 J-0.533
G2 Y6.917 I-2.663 J-0.688 F3600.
X69.705 Y-2.645 I-12.345 J3.188
G1 X9.705 Y-2.75
G2 X-2.663 Y6.813 I-0.022 J12.75
Y8.187 I2.663 J0.688
X9.66 Y17.75 I12.345 J-3.187
G1 X9.981 Y17.751
X69.66 Y17.855
G2 X82.028 Y8.292 I0.022 J-12.75
G3 X82.698 Y7.897 I0.533 J0.138 F1000.
G1 X83.23 Y8.035
X83.314 Y8.056 Z3.207
X83.395 Y8.077 Z3.227
X83.472 Y8.097 Z3.26
X83.543 Y8.116 Z3.305
X83.607 Y8.132 Z3.361
X83.661 Y8.146 Z3.427
X83.705 Y8.157 Z3.5
X83.737 Y8.165 Z3.58
X83.756 Y8.17 Z3.664
X83.763 Y8.172 Z3.75
G0 Z23.2
X83.488 Y9.237
G1 Z7.2 F1200.
Z2.15
X83.481 Y9.236 Z2.064
X83.462 Y9.231 Z1.98
X83.43 Y9.222 Z1.9
X83.386 Y9.211 Z1.827
X83.332 Y9.197 Z1.761
X83.268 Y9.181 Z1.705
X83.197 Y9.162 Z1.66
X83.12 Y9.142 Z1.627
X83.039 Y9.121 Z1.607
X82.955 Y9.1 Z1.6
X82.423 Y8.962 F1000.
G3 X82.028 Y8.292 I0.138 J-0.533
G2 Y6.917 I-2.663 J-0.688 F3600.
X69.705 Y-2.645 I-12.345 J3.188
G1 X9.705 Y-2.75
G2 X-2.663 Y6.813 I-0.022 J12.75
Y8.187 I2.663 J0.688
X9.66 Y17.75 I12.345 J-3.187
G1 X9.981 Y17.751
X69.66 Y17.855
G2 X82.028 Y8.292 I0.022 J-12.75
G3 X82.698 Y7.897 I0.533 J0.138 F1000.
G1 X83.23 Y8.035
X83.314 Y8.056 Z1.607
X83.395 Y8.077 Z1.627
X83.472 Y8.097 Z1.66
X83.543 Y8.116 Z1.705
X83.607 Y8.132 Z1.761
X83.661 Y8.146 Z1.827
X83.705 Y8.157 Z1.9
X83.737 Y8.165 Z1.98
X83.756 Y8.17 Z2.064
X83.763 Y8.172 Z2.15
G0 Z23.2
X84.302 Y33.825
G1 Z7.2 F1200.
Z2.15
X84.295 Y33.826 Z2.064
X84.276 Y33.829 Z1.98
X84.243 Y33.834 Z1.9
X84.198 Y33.842 Z1.827
X84.143 Y33.851 Z1.761
X84.078 Y33.861 Z1.705
X84.006 Y33.873 Z1.66
X83.927 Y33.886 Z1.627
X83.844 Y33.899 Z1.607
X83.759 Y33.913 Z1.6
X83.216 Y34.001 F1000.
G3 X82.585 Y33.546 I-0.088 J-0.543
G2 X70.022 Y22.839 I-12.585 J2.042 F3600.
G1 X10.022 Y22.734
G2 X-2.75 Y35.462 I-0.022 J12.75
X9.978 Y48.234 I12.75 J0.022
G1 X69.978 Y48.339
G2 X80.862 Y42.265 I0.022 J-12.75
X82.75 Y35.611 I-10.862 J-6.676
X82.585 Y33.546 I-12.75 J-0.022
G3 X83.04 Y32.915 I0.543 J-0.088 F1000.
G1 X83.583 Y32.827
X83.668 Y32.813 Z1.607
X83.751 Y32.8 Z1.627
X83.83 Y32.787 Z1.66
X83.902 Y32.775 Z1.705
X83.967 Y32.765 Z1.761
X84.022 Y32.756 Z1.827
X84.067 Y32.749 Z1.9
X84.099 Y32.743 Z1.98
X84.119 Y32.74 Z2.064
X84.126 Y32.739 Z2.15
G0 Z23.2
X84.302 Y33.825
G1 Z5.6 F1200.
Z0.55
X84.295 Y33.826 Z0.464
X84.276 Y33.829 Z0.38
X84.243 Y33.834 Z0.3
X84.198 Y33.842 Z0.227
X84.143 Y33.851 Z0.161
X84.078 Y33.861 Z0.105
X84.006 Y33.873 Z0.06
X83.927 Y33.886 Z0.027
X83.844 Y33.899 Z0.007
X83.759 Y33.913 Z0.
X83.216 Y34.001 F1000.
G3 X82.585 Y33.546 I-0.088 J-0.543
G2 X70.022 Y22.839 I-12.585 J2.042 F3600.
G1 X10.022 Y22.734
G2 X-2.75 Y35.462 I-0.022 J12.75
X9.978 Y48.234 I12.75 J0.022
G1 X69.978 Y48.339
G2 X80.862 Y42.265 I0.022 J-12.75
X82.75 Y35.611 I-10.862 J-6.676
X82.585 Y33.546 I-12.75 J-0.022
G3 X83.04 Y32.915 I0.543 J-0.088 F1000.
G1 X83.583 Y32.827
X83.668 Y32.813 Z0.007
X83.751 Y32.8 Z0.027
X83.83 Y32.787 Z0.06
X83.902 Y32.775 Z0.105
X83.967 Y32.765 Z0.161
X84.022 Y32.756 Z0.227
X84.067 Y32.749 Z0.3
X84.099 Y32.743 Z0.38
X84.119 Y32.74 Z0.464
X84.126 Y32.739 Z0.55
G0 Z23.2
X83.488 Y9.237
G1 Z5.6 F1200.
Z0.55
X83.481 Y9.236 Z0.464
X83.462 Y9.231 Z0.38
X83.43 Y9.222 Z0.3
X83.386 Y9.211 Z0.227
X83.332 Y9.197 Z0.161
X83.268 Y9.181 Z0.105
X83.197 Y9.162 Z0.06
X83.12 Y9.142 Z0.027
X83.039 Y9.121 Z0.007
X82.955 Y9.1 Z0.
X82.423 Y8.962 F1000.
G3 X82.028 Y8.292 I0.138 J-0.533
G2 Y6.917 I-2.663 J-0.688 F3600.
X69.705 Y-2.645 I-12.345 J3.188
G1 X9.705 Y-2.75
G2 X-2.663 Y6.813 I-0.022 J12.75
Y8.187 I2.663 J0.688
X9.66 Y17.75 I12.345 J-3.187
G1 X9.981 Y17.751
X69.66 Y17.855
G2 X82.028 Y8.292 I0.022 J-12.75
G3 X82.698 Y7.897 I0.533 J0.138 F1000.
G1 X83.23 Y8.035
X83.314 Y8.056 Z0.007
X83.395 Y8.077 Z0.027
X83.472 Y8.097 Z0.06
X83.543 Y8.116 Z0.105
X83.607 Y8.132 Z0.161
X83.661 Y8.146 Z0.227
X83.705 Y8.157 Z0.3
X83.737 Y8.165 Z0.38
X83.756 Y8.17 Z0.464
X83.763 Y8.172 Z0.55
G0 Z33.2

M9
G28 G91 Z0.
G90
G28 G91 X0. Y0.
G90
M30
