(2018-01-26 EARMUFFS)
(2018-01-26 EARMUFFS)
(T24  D=4. CR=0. TAPER=118DEG - ZMIN=-2.702 - DRILL)
(T162  D=5.5 CR=0. - ZMIN=0. - FLAT END MILL)
G90 G94 G91.1 G40 G49 G17
G21
G28 G91 Z0.
G90

(DRILL3 3)
M5
M9
T24 M6
S8000 M3
G54
M8
G0 X9.682 Y22.933
Z33.2
Z23.2
G98 G83 X9.682 Y22.933 Z-2.702 R23.2 Q4. F800.
Y63.487
Y104.041
Y144.595
X69.682
X88.427 Y131.562
X69.682 Y104.041
X88.427 Y91.008
X69.682 Y63.487
X88.427 Y50.454
X69.682 Y22.933
X88.427 Y9.9
X148.427
Y50.454
Y91.008
Y131.562
G80
Z33.2
G28 G91 Z0.
G90

(2D POCKE)
M5
M9
M1
T162 M6
S12000 M3
G54
M8
G0 X97.153 Y153.387
Z33.2
Z23.2
G1 Z14.75 F1000.
X97.159 Y153.39 Z14.664
X97.178 Y153.397 Z14.58
X97.209 Y153.409 Z14.5
X97.251 Y153.425 Z14.427
X97.303 Y153.445 Z14.361
X97.364 Y153.469 Z14.305
X97.433 Y153.496 Z14.26
X97.507 Y153.525 Z14.227
X97.585 Y153.555 Z14.207
X97.666 Y153.586 Z14.2
X97.717 Y153.606
G2 X139.137 I20.71 J-53.403 F3600.
G1 X141.701 Y152.612 F1000.
X141.781 Y152.58 Z14.207
X141.859 Y152.55 Z14.227
X141.934 Y152.521 Z14.26
X142.002 Y152.495 Z14.305
X142.063 Y152.471 Z14.361
X142.116 Y152.451 Z14.427
X142.158 Y152.434 Z14.5
X142.188 Y152.422 Z14.58
X142.207 Y152.415 Z14.664
X142.214 Y152.413 Z14.75
G0 Z23.2
X73.472 Y123.705
G1 Z14.695 F1000.
X73.475 Y123.712 Z14.609
X73.484 Y123.733 Z14.526
X73.499 Y123.766 Z14.448
X73.519 Y123.811 Z14.377
X73.543 Y123.867 Z14.316
X73.571 Y123.932 Z14.266
X73.602 Y124.004 Z14.23
X73.635 Y124.08 Z14.208
X73.67 Y124.159 Z14.2
X75.977 Y129.471
X76.005 Y129.552
X76.081 Y129.85 F3600.
G2 X78.864 Y135.095 I12.345 J-3.188
X157.99 I39.563 J-34.891
X160.772 Y129.849 I-9.563 J-8.433
G1 X160.849 Y129.549
X160.877 Y129.468 F1000.
X161.973 Y126.945
X162.007 Y126.866 Z14.207
X162.041 Y126.789 Z14.227
X162.072 Y126.716 Z14.26
X162.102 Y126.649 Z14.305
X162.128 Y126.589 Z14.361
X162.15 Y126.537 Z14.427
X162.168 Y126.496 Z14.5
X162.181 Y126.466 Z14.58
X162.189 Y126.447 Z14.664
X162.192 Y126.441 Z14.75
G0 Z23.2
X97.153 Y153.387
G1 Z19.2 F1000.
Z10.75
X97.159 Y153.39 Z10.664
X97.178 Y153.397 Z10.58
X97.209 Y153.409 Z10.5
X97.251 Y153.425 Z10.427
X97.303 Y153.445 Z10.361
X97.364 Y153.469 Z10.305
X97.433 Y153.496 Z10.26
X97.507 Y153.525 Z10.227
X97.585 Y153.555 Z10.207
X97.666 Y153.586 Z10.2
X97.717 Y153.606
G2 X139.137 I20.71 J-53.403 F3600.
G1 X141.701 Y152.612 F1000.
X141.781 Y152.58 Z10.207
X141.859 Y152.55 Z10.227
X141.934 Y152.521 Z10.26
X142.002 Y152.495 Z10.305
X142.063 Y152.471 Z10.361
X142.116 Y152.451 Z10.427
X142.158 Y152.434 Z10.5
X142.188 Y152.422 Z10.58
X142.207 Y152.415 Z10.664
X142.214 Y152.413 Z10.75
G0 Z23.2
X73.472 Y123.705
G1 Z10.695 F1000.
X73.475 Y123.712 Z10.609
X73.484 Y123.733 Z10.526
X73.499 Y123.766 Z10.448
X73.519 Y123.811 Z10.377
X73.543 Y123.867 Z10.316
X73.571 Y123.932 Z10.266
X73.602 Y124.004 Z10.23
X73.635 Y124.08 Z10.208
X73.67 Y124.159 Z10.2
X75.977 Y129.471
X76.005 Y129.552
X76.081 Y129.85 F3600.
G2 X78.864 Y135.095 I12.345 J-3.188
X157.99 I39.563 J-34.891
X160.772 Y129.849 I-9.563 J-8.433
G1 X160.849 Y129.549
X160.877 Y129.468 F1000.
X161.973 Y126.945
X162.007 Y126.866 Z10.207
X162.041 Y126.789 Z10.227
X162.072 Y126.716 Z10.26
X162.102 Y126.649 Z10.305
X162.128 Y126.589 Z10.361
X162.15 Y126.537 Z10.427
X162.168 Y126.496 Z10.5
X162.181 Y126.466 Z10.58
X162.189 Y126.447 Z10.664
X162.192 Y126.441 Z10.75
G0 Z23.2
X97.153 Y153.387
G1 Z15.2 F1000.
Z8.95
X97.159 Y153.39 Z8.864
X97.178 Y153.397 Z8.78
X97.209 Y153.409 Z8.7
X97.251 Y153.425 Z8.627
X97.303 Y153.445 Z8.561
X97.364 Y153.469 Z8.505
X97.433 Y153.496 Z8.46
X97.507 Y153.525 Z8.427
X97.585 Y153.555 Z8.407
X97.666 Y153.586 Z8.4
X97.717 Y153.606
G2 X139.137 I20.71 J-53.403 F3600.
G1 X141.701 Y152.612 F1000.
X141.781 Y152.58 Z8.407
X141.859 Y152.55 Z8.427
X141.934 Y152.521 Z8.46
X142.002 Y152.495 Z8.505
X142.063 Y152.471 Z8.561
X142.116 Y152.451 Z8.627
X142.158 Y152.434 Z8.7
X142.188 Y152.422 Z8.78
X142.207 Y152.415 Z8.864
X142.214 Y152.413 Z8.95
G0 Z23.2
X73.472 Y123.705
G1 Z8.895 F1000.
X73.475 Y123.712 Z8.809
X73.484 Y123.733 Z8.726
X73.499 Y123.766 Z8.648
X73.519 Y123.811 Z8.577
X73.543 Y123.867 Z8.516
X73.571 Y123.932 Z8.466
X73.602 Y124.004 Z8.43
X73.635 Y124.08 Z8.408
X73.67 Y124.159 Z8.4
X75.977 Y129.471
X76.005 Y129.552
X76.081 Y129.85 F3600.
G2 X78.864 Y135.095 I12.345 J-3.188
X157.99 I39.563 J-34.891
X160.772 Y129.849 I-9.563 J-8.433
G1 X160.849 Y129.549
X160.877 Y129.468 F1000.
X161.973 Y126.945
X162.007 Y126.866 Z8.407
X162.041 Y126.789 Z8.427
X162.072 Y126.716 Z8.46
X162.102 Y126.649 Z8.505
X162.128 Y126.589 Z8.561
X162.15 Y126.537 Z8.627
X162.168 Y126.496 Z8.7
X162.181 Y126.466 Z8.78
X162.189 Y126.447 Z8.864
X162.192 Y126.441 Z8.95
G0 Z33.2
X97.153 Y112.834
Z23.2
G1 Z14.75 F1000.
X97.159 Y112.836 Z14.664
X97.178 Y112.843 Z14.58
X97.208 Y112.855 Z14.5
X97.25 Y112.872 Z14.427
X97.303 Y112.892 Z14.361
X97.364 Y112.916 Z14.305
X97.433 Y112.942 Z14.26
X97.507 Y112.971 Z14.227
X97.585 Y113.001 Z14.207
X97.665 Y113.033 Z14.2
X97.717 Y113.052
G2 X139.126 Y113.057 I20.71 J-53.402 F3600.
G1 X141.69 Y112.063 F1000.
X141.77 Y112.032 Z14.207
X141.848 Y112.002 Z14.227
X141.923 Y111.973 Z14.26
X141.991 Y111.946 Z14.305
X142.053 Y111.922 Z14.361
X142.105 Y111.902 Z14.427
X142.147 Y111.886 Z14.5
X142.178 Y111.874 Z14.58
X142.196 Y111.867 Z14.664
X142.203 Y111.864 Z14.75
G0 Z23.2
X73.472 Y83.151
G1 Z14.695 F1000.
X73.475 Y83.158 Z14.609
X73.484 Y83.179 Z14.526
X73.499 Y83.212 Z14.447
X73.518 Y83.257 Z14.377
X73.543 Y83.313 Z14.316
X73.571 Y83.378 Z14.266
X73.602 Y83.45 Z14.23
X73.635 Y83.526 Z14.208
X73.67 Y83.605 Z14.2
X75.977 Y88.917
X76.005 Y88.998
X76.081 Y89.296 F3600.
G2 X78.864 Y94.541 I12.345 J-3.188
X157.99 I39.563 J-34.891
X160.772 Y89.295 I-9.563 J-8.432
G1 X160.849 Y88.995
X160.877 Y88.914 F1000.
X161.973 Y86.391
X162.007 Y86.312 Z14.207
X162.041 Y86.235 Z14.227
X162.072 Y86.162 Z14.26
X162.102 Y86.095 Z14.305
X162.128 Y86.035 Z14.361
X162.15 Y85.983 Z14.427
X162.168 Y85.942 Z14.5
X162.181 Y85.911 Z14.58
X162.189 Y85.893 Z14.664
X162.192 Y85.887 Z14.75
G0 Z23.2
X97.153 Y112.834
G1 Z19.2 F1000.
Z10.75
X97.159 Y112.836 Z10.664
X97.178 Y112.843 Z10.58
X97.208 Y112.855 Z10.5
X97.25 Y112.872 Z10.427
X97.303 Y112.892 Z10.361
X97.364 Y112.916 Z10.305
X97.433 Y112.942 Z10.26
X97.507 Y112.971 Z10.227
X97.585 Y113.001 Z10.207
X97.665 Y113.033 Z10.2
X97.717 Y113.052
G2 X139.126 Y113.057 I20.71 J-53.402 F3600.
G1 X141.69 Y112.063 F1000.
X141.77 Y112.032 Z10.207
X141.848 Y112.002 Z10.227
X141.923 Y111.973 Z10.26
X141.991 Y111.946 Z10.305
X142.053 Y111.922 Z10.361
X142.105 Y111.902 Z10.427
X142.147 Y111.886 Z10.5
X142.178 Y111.874 Z10.58
X142.196 Y111.867 Z10.664
X142.203 Y111.864 Z10.75
G0 Z23.2
X73.472 Y83.151
G1 Z10.695 F1000.
X73.475 Y83.158 Z10.609
X73.484 Y83.179 Z10.526
X73.499 Y83.212 Z10.447
X73.518 Y83.257 Z10.377
X73.543 Y83.313 Z10.316
X73.571 Y83.378 Z10.266
X73.602 Y83.45 Z10.23
X73.635 Y83.526 Z10.208
X73.67 Y83.605 Z10.2
X75.977 Y88.917
X76.005 Y88.998
X76.081 Y89.296 F3600.
G2 X78.864 Y94.541 I12.345 J-3.188
X157.99 I39.563 J-34.891
X160.772 Y89.295 I-9.563 J-8.432
G1 X160.849 Y88.995
X160.877 Y88.914 F1000.
X161.973 Y86.391
X162.007 Y86.312 Z10.207
X162.041 Y86.235 Z10.227
X162.072 Y86.162 Z10.26
X162.102 Y86.095 Z10.305
X162.128 Y86.035 Z10.361
X162.15 Y85.983 Z10.427
X162.168 Y85.942 Z10.5
X162.181 Y85.911 Z10.58
X162.189 Y85.893 Z10.664
X162.192 Y85.887 Z10.75
G0 Z23.2
X97.153 Y112.834
G1 Z15.2 F1000.
Z8.95
X97.159 Y112.836 Z8.864
X97.178 Y112.843 Z8.78
X97.208 Y112.855 Z8.7
X97.25 Y112.872 Z8.627
X97.303 Y112.892 Z8.561
X97.364 Y112.916 Z8.505
X97.433 Y112.942 Z8.46
X97.507 Y112.971 Z8.427
X97.585 Y113.001 Z8.407
X97.665 Y113.033 Z8.4
X97.717 Y113.052
G2 X139.126 Y113.057 I20.71 J-53.402 F3600.
G1 X141.69 Y112.063 F1000.
X141.77 Y112.032 Z8.407
X141.848 Y112.002 Z8.427
X141.923 Y111.973 Z8.46
X141.991 Y111.946 Z8.505
X142.053 Y111.922 Z8.561
X142.105 Y111.902 Z8.627
X142.147 Y111.886 Z8.7
X142.178 Y111.874 Z8.78
X142.196 Y111.867 Z8.864
X142.203 Y111.864 Z8.95
G0 Z23.2
X73.472 Y83.151
G1 Z8.895 F1000.
X73.475 Y83.158 Z8.809
X73.484 Y83.179 Z8.726
X73.499 Y83.212 Z8.647
X73.518 Y83.257 Z8.577
X73.543 Y83.313 Z8.516
X73.571 Y83.378 Z8.466
X73.602 Y83.45 Z8.43
X73.635 Y83.526 Z8.408
X73.67 Y83.605 Z8.4
X75.977 Y88.917
X76.005 Y88.998
X76.081 Y89.296 F3600.
G2 X78.864 Y94.541 I12.345 J-3.188
X157.99 I39.563 J-34.891
X160.772 Y89.295 I-9.563 J-8.432
G1 X160.849 Y88.995
X160.877 Y88.914 F1000.
X161.973 Y86.391
X162.007 Y86.312 Z8.407
X162.041 Y86.235 Z8.427
X162.072 Y86.162 Z8.46
X162.102 Y86.095 Z8.505
X162.128 Y86.035 Z8.561
X162.15 Y85.983 Z8.627
X162.168 Y85.942 Z8.7
X162.181 Y85.911 Z8.78
X162.189 Y85.893 Z8.864
X162.192 Y85.887 Z8.95
G0 Z33.2
X97.153 Y72.28
Z23.2
G1 Z14.75 F1000.
X97.159 Y72.282 Z14.664
X97.178 Y72.289 Z14.58
X97.208 Y72.301 Z14.5
X97.25 Y72.318 Z14.427
X97.303 Y72.338 Z14.361
X97.364 Y72.362 Z14.305
X97.433 Y72.388 Z14.26
X97.507 Y72.417 Z14.227
X97.585 Y72.447 Z14.207
X97.665 Y72.479 Z14.2
X97.717 Y72.498
G2 X139.126 Y72.503 I20.71 J-53.402 F3600.
G1 X141.69 Y71.509 F1000.
X141.77 Y71.478 Z14.207
X141.848 Y71.448 Z14.227
X141.923 Y71.419 Z14.26
X141.991 Y71.392 Z14.305
X142.053 Y71.368 Z14.361
X142.105 Y71.348 Z14.427
X142.147 Y71.332 Z14.5
X142.178 Y71.32 Z14.58
X142.196 Y71.313 Z14.664
X142.203 Y71.31 Z14.75
G0 Z23.2
X73.472 Y42.597
G1 Z14.695 F1000.
X73.475 Y42.604 Z14.609
X73.484 Y42.625 Z14.526
X73.499 Y42.658 Z14.447
X73.519 Y42.703 Z14.377
X73.543 Y42.759 Z14.316
X73.571 Y42.824 Z14.266
X73.602 Y42.896 Z14.23
X73.635 Y42.972 Z14.208
X73.67 Y43.051 Z14.2
X75.977 Y48.363
X76.005 Y48.444
X76.081 Y48.742 F3600.
G2 X78.864 Y53.987 I12.345 J-3.188
X157.99 I39.563 J-34.891
X160.772 Y48.741 I-9.563 J-8.432
G1 X160.849 Y48.441
X160.877 Y48.36 F1000.
X161.973 Y45.837
X162.007 Y45.758 Z14.207
X162.041 Y45.681 Z14.227
X162.072 Y45.608 Z14.26
X162.102 Y45.541 Z14.305
X162.128 Y45.481 Z14.361
X162.15 Y45.429 Z14.427
X162.168 Y45.388 Z14.5
X162.181 Y45.357 Z14.58
X162.189 Y45.339 Z14.664
X162.192 Y45.333 Z14.75
G0 Z23.2
X97.153 Y72.28
G1 Z19.2 F1000.
Z10.75
X97.159 Y72.282 Z10.664
X97.178 Y72.289 Z10.58
X97.208 Y72.301 Z10.5
X97.25 Y72.318 Z10.427
X97.303 Y72.338 Z10.361
X97.364 Y72.362 Z10.305
X97.433 Y72.388 Z10.26
X97.507 Y72.417 Z10.227
X97.585 Y72.447 Z10.207
X97.665 Y72.479 Z10.2
X97.717 Y72.498
G2 X139.126 Y72.503 I20.71 J-53.402 F3600.
G1 X141.69 Y71.509 F1000.
X141.77 Y71.478 Z10.207
X141.848 Y71.448 Z10.227
X141.923 Y71.419 Z10.26
X141.991 Y71.392 Z10.305
X142.053 Y71.368 Z10.361
X142.105 Y71.348 Z10.427
X142.147 Y71.332 Z10.5
X142.178 Y71.32 Z10.58
X142.196 Y71.313 Z10.664
X142.203 Y71.31 Z10.75
G0 Z23.2
X73.472 Y42.597
G1 Z10.695 F1000.
X73.475 Y42.604 Z10.609
X73.484 Y42.625 Z10.526
X73.499 Y42.658 Z10.447
X73.519 Y42.703 Z10.377
X73.543 Y42.759 Z10.316
X73.571 Y42.824 Z10.266
X73.602 Y42.896 Z10.23
X73.635 Y42.972 Z10.208
X73.67 Y43.051 Z10.2
X75.977 Y48.363
X76.005 Y48.444
X76.081 Y48.742 F3600.
G2 X78.864 Y53.987 I12.345 J-3.188
X157.99 I39.563 J-34.891
X160.772 Y48.741 I-9.563 J-8.432
G1 X160.849 Y48.441
X160.877 Y48.36 F1000.
X161.973 Y45.837
X162.007 Y45.758 Z10.207
X162.041 Y45.681 Z10.227
X162.072 Y45.608 Z10.26
X162.102 Y45.541 Z10.305
X162.128 Y45.481 Z10.361
X162.15 Y45.429 Z10.427
X162.168 Y45.388 Z10.5
X162.181 Y45.357 Z10.58
X162.189 Y45.339 Z10.664
X162.192 Y45.333 Z10.75
G0 Z23.2
X97.153 Y72.28
G1 Z15.2 F1000.
Z8.95
X97.159 Y72.282 Z8.864
X97.178 Y72.289 Z8.78
X97.208 Y72.301 Z8.7
X97.25 Y72.318 Z8.627
X97.303 Y72.338 Z8.561
X97.364 Y72.362 Z8.505
X97.433 Y72.388 Z8.46
X97.507 Y72.417 Z8.427
X97.585 Y72.447 Z8.407
X97.665 Y72.479 Z8.4
X97.717 Y72.498
G2 X139.126 Y72.503 I20.71 J-53.402 F3600.
G1 X141.69 Y71.509 F1000.
X141.77 Y71.478 Z8.407
X141.848 Y71.448 Z8.427
X141.923 Y71.419 Z8.46
X141.991 Y71.392 Z8.505
X142.053 Y71.368 Z8.561
X142.105 Y71.348 Z8.627
X142.147 Y71.332 Z8.7
X142.178 Y71.32 Z8.78
X142.196 Y71.313 Z8.864
X142.203 Y71.31 Z8.95
G0 Z23.2
X73.472 Y42.597
G1 Z8.895 F1000.
X73.475 Y42.604 Z8.809
X73.484 Y42.625 Z8.726
X73.499 Y42.658 Z8.647
X73.519 Y42.703 Z8.577
X73.543 Y42.759 Z8.516
X73.571 Y42.824 Z8.466
X73.602 Y42.896 Z8.43
X73.635 Y42.972 Z8.408
X73.67 Y43.051 Z8.4
X75.977 Y48.363
X76.005 Y48.444
X76.081 Y48.742 F3600.
G2 X78.864 Y53.987 I12.345 J-3.188
X157.99 I39.563 J-34.891
X160.772 Y48.741 I-9.563 J-8.432
G1 X160.849 Y48.441
X160.877 Y48.36 F1000.
X161.973 Y45.837
X162.007 Y45.758 Z8.407
X162.041 Y45.681 Z8.427
X162.072 Y45.608 Z8.46
X162.102 Y45.541 Z8.505
X162.128 Y45.481 Z8.561
X162.15 Y45.429 Z8.627
X162.168 Y45.388 Z8.7
X162.181 Y45.357 Z8.78
X162.189 Y45.339 Z8.864
X162.192 Y45.333 Z8.95
G0 Z33.2
X97.153 Y31.726
Z23.2
G1 Z14.75 F1000.
X97.159 Y31.728 Z14.664
X97.178 Y31.735 Z14.58
X97.208 Y31.747 Z14.5
X97.25 Y31.764 Z14.427
X97.303 Y31.784 Z14.361
X97.364 Y31.808 Z14.305
X97.433 Y31.834 Z14.26
X97.507 Y31.863 Z14.227
X97.585 Y31.893 Z14.207
X97.665 Y31.925 Z14.2
X97.717 Y31.944
G2 X139.126 Y31.949 I20.71 J-53.402 F3600.
G1 X141.69 Y30.955 F1000.
X141.77 Y30.924 Z14.207
X141.848 Y30.894 Z14.227
X141.923 Y30.865 Z14.26
X141.991 Y30.838 Z14.305
X142.053 Y30.814 Z14.361
X142.105 Y30.794 Z14.427
X142.147 Y30.778 Z14.5
X142.178 Y30.766 Z14.58
X142.196 Y30.759 Z14.664
X142.203 Y30.756 Z14.75
G0 Z23.2
X73.472 Y2.043
G1 Z14.695 F1000.
X73.475 Y2.05 Z14.609
X73.484 Y2.071 Z14.526
X73.499 Y2.104 Z14.447
X73.519 Y2.149 Z14.377
X73.543 Y2.205 Z14.316
X73.571 Y2.27 Z14.266
X73.602 Y2.342 Z14.23
X73.635 Y2.418 Z14.208
X73.67 Y2.497 Z14.2
X75.977 Y7.809
X76.005 Y7.89
X76.081 Y8.188 F3600.
G2 X78.864 Y13.433 I12.345 J-3.188
X157.99 I39.563 J-34.891
X160.772 Y8.187 I-9.563 J-8.432
G1 X160.849 Y7.887
X160.877 Y7.806 F1000.
X161.973 Y5.283
X162.007 Y5.204 Z14.207
X162.041 Y5.127 Z14.227
X162.072 Y5.054 Z14.26
X162.102 Y4.987 Z14.305
X162.128 Y4.927 Z14.361
X162.15 Y4.875 Z14.427
X162.168 Y4.834 Z14.5
X162.181 Y4.803 Z14.58
X162.189 Y4.785 Z14.664
X162.192 Y4.779 Z14.75
G0 Z23.2
X97.153 Y31.726
G1 Z19.2 F1000.
Z10.75
X97.159 Y31.728 Z10.664
X97.178 Y31.735 Z10.58
X97.208 Y31.747 Z10.5
X97.25 Y31.764 Z10.427
X97.303 Y31.784 Z10.361
X97.364 Y31.808 Z10.305
X97.433 Y31.834 Z10.26
X97.507 Y31.863 Z10.227
X97.585 Y31.893 Z10.207
X97.665 Y31.925 Z10.2
X97.717 Y31.944
G2 X139.126 Y31.949 I20.71 J-53.402 F3600.
G1 X141.69 Y30.955 F1000.
X141.77 Y30.924 Z10.207
X141.848 Y30.894 Z10.227
X141.923 Y30.865 Z10.26
X141.991 Y30.838 Z10.305
X142.053 Y30.814 Z10.361
X142.105 Y30.794 Z10.427
X142.147 Y30.778 Z10.5
X142.178 Y30.766 Z10.58
X142.196 Y30.759 Z10.664
X142.203 Y30.756 Z10.75
G0 Z23.2
X73.472 Y2.043
G1 Z10.695 F1000.
X73.475 Y2.05 Z10.609
X73.484 Y2.071 Z10.526
X73.499 Y2.104 Z10.447
X73.519 Y2.149 Z10.377
X73.543 Y2.205 Z10.316
X73.571 Y2.27 Z10.266
X73.602 Y2.342 Z10.23
X73.635 Y2.418 Z10.208
X73.67 Y2.497 Z10.2
X75.977 Y7.809
X76.005 Y7.89
X76.081 Y8.188 F3600.
G2 X78.864 Y13.433 I12.345 J-3.188
X157.99 I39.563 J-34.891
X160.772 Y8.187 I-9.563 J-8.432
G1 X160.849 Y7.887
X160.877 Y7.806 F1000.
X161.973 Y5.283
X162.007 Y5.204 Z10.207
X162.041 Y5.127 Z10.227
X162.072 Y5.054 Z10.26
X162.102 Y4.987 Z10.305
X162.128 Y4.927 Z10.361
X162.15 Y4.875 Z10.427
X162.168 Y4.834 Z10.5
X162.181 Y4.803 Z10.58
X162.189 Y4.785 Z10.664
X162.192 Y4.779 Z10.75
G0 Z23.2
X97.153 Y31.726
G1 Z15.2 F1000.
Z8.95
X97.159 Y31.728 Z8.864
X97.178 Y31.735 Z8.78
X97.208 Y31.747 Z8.7
X97.25 Y31.764 Z8.627
X97.303 Y31.784 Z8.561
X97.364 Y31.808 Z8.505
X97.433 Y31.834 Z8.46
X97.507 Y31.863 Z8.427
X97.585 Y31.893 Z8.407
X97.665 Y31.925 Z8.4
X97.717 Y31.944
G2 X139.126 Y31.949 I20.71 J-53.402 F3600.
G1 X141.69 Y30.955 F1000.
X141.77 Y30.924 Z8.407
X141.848 Y30.894 Z8.427
X141.923 Y30.865 Z8.46
X141.991 Y30.838 Z8.505
X142.053 Y30.814 Z8.561
X142.105 Y30.794 Z8.627
X142.147 Y30.778 Z8.7
X142.178 Y30.766 Z8.78
X142.196 Y30.759 Z8.864
X142.203 Y30.756 Z8.95
G0 Z23.2
X73.472 Y2.043
G1 Z8.895 F1000.
X73.475 Y2.05 Z8.809
X73.484 Y2.071 Z8.726
X73.499 Y2.104 Z8.648
X73.519 Y2.149 Z8.577
X73.543 Y2.205 Z8.516
X73.571 Y2.27 Z8.466
X73.602 Y2.342 Z8.43
X73.635 Y2.418 Z8.408
X73.67 Y2.497 Z8.4
X75.977 Y7.809
X76.005 Y7.89
X76.081 Y8.188 F3600.
G2 X78.864 Y13.433 I12.345 J-3.188
X157.99 I39.563 J-34.891
X160.772 Y8.187 I-9.563 J-8.432
G1 X160.849 Y7.887
X160.877 Y7.806 F1000.
X161.973 Y5.283
X162.007 Y5.204 Z8.407
X162.041 Y5.127 Z8.427
X162.072 Y5.054 Z8.46
X162.102 Y4.987 Z8.505
X162.128 Y4.927 Z8.561
X162.15 Y4.875 Z8.627
X162.168 Y4.834 Z8.7
X162.181 Y4.803 Z8.78
X162.189 Y4.785 Z8.864
X162.192 Y4.779 Z8.95
G0 Z33.2

(2D CONOUR4 2)
T162
G0 X75.322 Y85.113
Z33.2
Z23.2
G1 Z22.2 F1200.
Z15.75
X75.329 Y85.115 Z15.664
X75.347 Y85.123 Z15.58
X75.378 Y85.136 Z15.5
X75.419 Y85.153 Z15.427
X75.471 Y85.174 Z15.361
X75.532 Y85.199 Z15.305
X75.6 Y85.227 Z15.26
X75.674 Y85.258 Z15.227
X75.751 Y85.29 Z15.207
X75.831 Y85.322 Z15.2
X76.339 Y85.532 F1000.
G3 X76.638 Y86.25 I-0.21 J0.509
G2 X78.864 Y99.541 I11.788 J4.858 F3600.
X157.99 I39.563 J-34.891
X148.427 Y78.358 I-9.563 J-8.433
G1 X88.427
G2 X76.638 Y86.25 I0. J12.75
G3 X75.92 Y86.549 I-0.509 J-0.21 F1000.
G1 X75.412 Y86.339
X75.332 Y86.307 Z15.207
X75.255 Y86.275 Z15.227
X75.181 Y86.244 Z15.26
X75.113 Y86.216 Z15.305
X75.052 Y86.191 Z15.361
X75. Y86.17 Z15.427
X74.959 Y86.153 Z15.5
X74.928 Y86.14 Z15.58
X74.909 Y86.132 Z15.664
X74.903 Y86.13 Z15.75
G0 Z23.2
X67.492 Y88.641
G1 Z22.2 F1200.
Z15.75
X67.489 Y88.647 Z15.664
X67.479 Y88.665 Z15.58
X67.462 Y88.693 Z15.5
X67.44 Y88.732 Z15.427
X67.411 Y88.781 Z15.361
X67.378 Y88.837 Z15.305
X67.342 Y88.901 Z15.26
X67.301 Y88.97 Z15.227
X67.259 Y89.042 Z15.207
X67.216 Y89.117 Z15.2
X66.94 Y89.592 F1000.
G3 X66.188 Y89.792 I-0.476 J-0.276
G2 X0.12 Y100.508 I-26.505 J45.607 F3600.
X-2.663 Y105.753 I9.562 J8.433
Y107.129 I2.663 J0.688
X9.682 Y116.691 I12.345 J-3.188
G1 X69.683
G2 X82.028 Y107.128 I0. J-12.75
Y105.753 I-2.663 J-0.687
X79.245 Y100.508 I-12.345 J3.188
X66.188 Y89.792 I-39.563 J34.891
G3 X65.989 Y89.04 I0.276 J-0.476 F1000.
G1 X66.265 Y88.564
X66.308 Y88.49 Z15.207
X66.35 Y88.417 Z15.227
X66.39 Y88.348 Z15.26
X66.427 Y88.285 Z15.305
X66.46 Y88.228 Z15.361
X66.489 Y88.179 Z15.427
X66.511 Y88.14 Z15.5
X66.528 Y88.112 Z15.58
X66.538 Y88.094 Z15.664
X66.541 Y88.089 Z15.75
G0 Z23.2
X67.492 Y88.641
G1 Z19.2 F1200.
Z12.75
X67.489 Y88.647 Z12.664
X67.479 Y88.665 Z12.58
X67.462 Y88.693 Z12.5
X67.44 Y88.732 Z12.427
X67.411 Y88.781 Z12.361
X67.378 Y88.837 Z12.305
X67.342 Y88.901 Z12.26
X67.301 Y88.97 Z12.227
X67.259 Y89.042 Z12.207
X67.216 Y89.117 Z12.2
X66.94 Y89.592 F1000.
G3 X66.188 Y89.792 I-0.476 J-0.276
G2 X0.12 Y100.508 I-26.505 J45.607 F3600.
X-2.663 Y105.753 I9.562 J8.433
Y107.129 I2.663 J0.688
X9.682 Y116.691 I12.345 J-3.188
G1 X69.683
G2 X82.028 Y107.128 I0. J-12.75
Y105.753 I-2.663 J-0.687
X79.245 Y100.508 I-12.345 J3.188
X66.188 Y89.792 I-39.563 J34.891
G3 X65.989 Y89.04 I0.276 J-0.476 F1000.
G1 X66.265 Y88.564
X66.308 Y88.49 Z12.207
X66.35 Y88.417 Z12.227
X66.39 Y88.348 Z12.26
X66.427 Y88.285 Z12.305
X66.46 Y88.228 Z12.361
X66.489 Y88.179 Z12.427
X66.511 Y88.14 Z12.5
X66.528 Y88.112 Z12.58
X66.538 Y88.094 Z12.664
X66.541 Y88.089 Z12.75
G0 Z23.2
X69.133 Y77.787
G1 Z22.2 F1200.
Z15.75
G19 G2 X69.132 Y77.237 Z15.2 J-0.55 K0.
G1 Y76.687 F1000.
G17 G3 X69.683 Y76.137 I0.55 J0.
G2 X82.028 Y66.575 I0. J-12.75 F3600.
Y65.2 I-2.663 J-0.688
X79.245 Y59.954 I-12.345 J3.187
X0.12 I-39.563 J34.891
X-2.663 Y65.2 I9.563 J8.433
Y66.575 I2.663 J0.687
X9.682 Y76.137 I12.345 J-3.188
G1 X69.683
G3 X70.232 Y76.687 I0. J0.55 F1000.
G1 Y77.237
G19 G3 Y77.787 Z15.75 J0. K0.55
G0 Z23.2
X75.322 Y44.559
G1 Z22.2 F1200.
Z15.75
X75.329 Y44.561 Z15.664
X75.347 Y44.569 Z15.58
X75.378 Y44.582 Z15.5
X75.419 Y44.599 Z15.427
X75.471 Y44.62 Z15.361
X75.532 Y44.645 Z15.305
X75.6 Y44.673 Z15.26
X75.674 Y44.704 Z15.227
X75.751 Y44.736 Z15.207
X75.831 Y44.768 Z15.2
X76.339 Y44.978 F1000.
G17 G3 X76.638 Y45.696 I-0.21 J0.509
G2 X78.864 Y58.987 I11.788 J4.858 F3600.
X157.99 I39.563 J-34.891
X148.427 Y37.804 I-9.563 J-8.433
G1 X88.427
G2 X76.638 Y45.696 I0. J12.75
G3 X75.92 Y45.995 I-0.509 J-0.21 F1000.
G1 X75.412 Y45.785
X75.332 Y45.753 Z15.207
X75.255 Y45.721 Z15.227
X75.181 Y45.69 Z15.26
X75.113 Y45.662 Z15.305
X75.052 Y45.637 Z15.361
X75. Y45.616 Z15.427
X74.959 Y45.599 Z15.5
X74.928 Y45.586 Z15.58
X74.909 Y45.578 Z15.664
X74.903 Y45.576 Z15.75
G0 Z23.2
X69.265 Y37.238
G1 Z22.2 F1200.
Z15.75
Y37.231 Z15.664
Y37.211 Z15.58
Y37.178 Z15.5
X69.264 Y37.133 Z15.427
Y37.077 Z15.361
X69.263 Y37.011 Z15.305
Y36.938 Z15.26
X69.262 Y36.858 Z15.227
X69.261 Y36.774 Z15.207
X69.26 Y36.688 Z15.2
X69.255 Y36.138 F1000.
G3 X69.8 Y35.583 I0.55 J-0.005
G2 X82.028 Y26.021 I-0.118 J-12.749 F3600.
Y24.646 I-2.663 J-0.687
X79.245 Y19.4 I-12.345 J3.187
X0.12 I-39.563 J34.891
X-2.663 Y24.646 I9.563 J8.433
Y26.021 I2.663 J0.687
X9.682 Y35.583 I12.345 J-3.188
G1 X69.683
X69.8
G3 X70.355 Y36.128 I0.005 J0.55 F1000.
G1 X70.36 Y36.678
X70.361 Y36.764 Z15.207
X70.362 Y36.848 Z15.227
Y36.927 Z15.26
X70.363 Y37.001 Z15.305
X70.364 Y37.067 Z15.361
Y37.123 Z15.427
X70.365 Y37.168 Z15.5
Y37.201 Z15.58
Y37.221 Z15.664
Y37.228 Z15.75
G0 Z23.2
X67.492 Y48.087
G1 Z19.2 F1200.
Z12.75
X67.489 Y48.093 Z12.664
X67.479 Y48.111 Z12.58
X67.462 Y48.139 Z12.5
X67.44 Y48.178 Z12.427
X67.411 Y48.227 Z12.361
X67.379 Y48.283 Z12.305
X67.342 Y48.347 Z12.26
X67.301 Y48.416 Z12.227
X67.259 Y48.488 Z12.207
X67.216 Y48.563 Z12.2
X66.94 Y49.038 F1000.
G3 X66.188 Y49.238 I-0.476 J-0.276
G2 X0.12 Y59.954 I-26.505 J45.607 F3600.
X-2.663 Y65.2 I9.563 J8.433
Y66.575 I2.663 J0.687
X9.682 Y76.137 I12.345 J-3.188
G1 X69.683
G2 X82.028 Y66.575 I0. J-12.75
Y65.2 I-2.663 J-0.688
X79.245 Y59.954 I-12.345 J3.187
X66.188 Y49.238 I-39.563 J34.891
G3 X65.989 Y48.486 I0.276 J-0.476 F1000.
G1 X66.265 Y48.01
X66.308 Y47.936 Z12.207
X66.35 Y47.863 Z12.227
X66.39 Y47.794 Z12.26
X66.427 Y47.731 Z12.305
X66.46 Y47.674 Z12.361
X66.489 Y47.625 Z12.427
X66.511 Y47.586 Z12.5
X66.528 Y47.558 Z12.58
X66.538 Y47.54 Z12.664
X66.541 Y47.535 Z12.75
G0 Z23.2
X87.628 Y28.388
G1 Z22.2 F1200.
Z15.75
X87.631 Y28.382 Z15.664
X87.643 Y28.365 Z15.58
X87.661 Y28.338 Z15.5
X87.686 Y28.3 Z15.427
X87.717 Y28.254 Z15.361
X87.754 Y28.199 Z15.305
X87.795 Y28.138 Z15.26
X87.839 Y28.072 Z15.227
X87.886 Y28.003 Z15.207
X87.934 Y27.931 Z15.2
X88.241 Y27.475 F1000.
G3 X89.004 Y27.325 I0.456 J0.307
G2 X157.99 Y18.433 I29.422 J-43.782 F3600.
X148.427 Y-2.75 I-9.563 J-8.433
G1 X88.427
G2 X78.864 Y18.433 I0. J12.75
X89.004 Y27.325 I39.563 J-34.891
G3 X89.154 Y28.088 I-0.307 J0.456 F1000.
G1 X88.847 Y28.545
X88.799 Y28.616 Z15.207
X88.752 Y28.686 Z15.227
X88.708 Y28.752 Z15.26
X88.667 Y28.813 Z15.305
X88.63 Y28.867 Z15.361
X88.599 Y28.914 Z15.427
X88.574 Y28.951 Z15.5
X88.556 Y28.979 Z15.58
X88.544 Y28.996 Z15.664
X88.541 Y29.001 Z15.75
G0 Z23.2
X87.628 Y28.388
G1 Z19.2 F1200.
Z12.75
X87.631 Y28.382 Z12.664
X87.643 Y28.365 Z12.58
X87.661 Y28.338 Z12.5
X87.686 Y28.3 Z12.427
X87.717 Y28.254 Z12.361
X87.754 Y28.199 Z12.305
X87.795 Y28.138 Z12.26
X87.839 Y28.072 Z12.227
X87.886 Y28.003 Z12.207
X87.934 Y27.931 Z12.2
X88.241 Y27.475 F1000.
G3 X89.004 Y27.325 I0.456 J0.307
G2 X157.99 Y18.433 I29.422 J-43.782 F3600.
X148.427 Y-2.75 I-9.563 J-8.433
G1 X88.427
G2 X78.864 Y18.433 I0. J12.75
X89.004 Y27.325 I39.563 J-34.891
G3 X89.154 Y28.088 I-0.307 J0.456 F1000.
G1 X88.847 Y28.545
X88.799 Y28.616 Z12.207
X88.752 Y28.686 Z12.227
X88.708 Y28.752 Z12.26
X88.667 Y28.813 Z12.305
X88.63 Y28.867 Z12.361
X88.599 Y28.914 Z12.427
X88.574 Y28.951 Z12.5
X88.556 Y28.979 Z12.58
X88.544 Y28.996 Z12.664
X88.541 Y29.001 Z12.75
G0 Z23.2
X69.265 Y37.238
G1 Z19.2 F1200.
Z12.75
Y37.231 Z12.664
Y37.211 Z12.58
Y37.178 Z12.5
X69.264 Y37.133 Z12.427
Y37.077 Z12.361
X69.263 Y37.011 Z12.305
Y36.938 Z12.26
X69.262 Y36.858 Z12.227
X69.261 Y36.774 Z12.207
X69.26 Y36.688 Z12.2
X69.255 Y36.138 F1000.
G3 X69.8 Y35.583 I0.55 J-0.005
G2 X82.028 Y26.021 I-0.118 J-12.749 F3600.
Y24.646 I-2.663 J-0.687
X79.245 Y19.4 I-12.345 J3.187
X0.12 I-39.563 J34.891
X-2.663 Y24.646 I9.563 J8.433
Y26.021 I2.663 J0.687
X9.682 Y35.583 I12.345 J-3.188
G1 X69.683
X69.8
G3 X70.355 Y36.128 I0.005 J0.55 F1000.
G1 X70.36 Y36.678
X70.361 Y36.764 Z12.207
X70.362 Y36.848 Z12.227
Y36.927 Z12.26
X70.363 Y37.001 Z12.305
X70.364 Y37.067 Z12.361
Y37.123 Z12.427
X70.365 Y37.168 Z12.5
Y37.201 Z12.58
Y37.221 Z12.664
Y37.228 Z12.75
G0 Z23.2
X69.265 Y37.238
G1 Z16.2 F1200.
Z9.75
Y37.231 Z9.664
Y37.211 Z9.58
Y37.178 Z9.5
X69.264 Y37.133 Z9.427
Y37.077 Z9.361
X69.263 Y37.011 Z9.305
Y36.938 Z9.26
X69.262 Y36.858 Z9.227
X69.261 Y36.774 Z9.207
X69.26 Y36.688 Z9.2
X69.255 Y36.138 F1000.
G3 X69.8 Y35.583 I0.55 J-0.005
G2 X82.028 Y26.021 I-0.118 J-12.749 F3600.
Y24.646 I-2.663 J-0.687
X79.245 Y19.4 I-12.345 J3.187
X0.12 I-39.563 J34.891
X-2.663 Y24.646 I9.563 J8.433
Y26.021 I2.663 J0.687
X9.682 Y35.583 I12.345 J-3.188
G1 X69.683
X69.8
G3 X70.355 Y36.128 I0.005 J0.55 F1000.
G1 X70.36 Y36.678
X70.361 Y36.764 Z9.207
X70.362 Y36.848 Z9.227
Y36.927 Z9.26
X70.363 Y37.001 Z9.305
X70.364 Y37.067 Z9.361
Y37.123 Z9.427
X70.365 Y37.168 Z9.5
Y37.201 Z9.58
Y37.221 Z9.664
Y37.228 Z9.75
G0 Z23.2
X75.322 Y44.559
G1 Z19.2 F1200.
Z12.75
X75.329 Y44.561 Z12.664
X75.347 Y44.569 Z12.58
X75.378 Y44.582 Z12.5
X75.419 Y44.599 Z12.427
X75.471 Y44.62 Z12.361
X75.532 Y44.645 Z12.305
X75.6 Y44.673 Z12.26
X75.674 Y44.704 Z12.227
X75.751 Y44.736 Z12.207
X75.831 Y44.768 Z12.2
X76.339 Y44.978 F1000.
G3 X76.638 Y45.696 I-0.21 J0.509
G2 X78.864 Y58.987 I11.788 J4.858 F3600.
X157.99 I39.563 J-34.891
X148.427 Y37.804 I-9.563 J-8.433
G1 X88.427
G2 X76.638 Y45.696 I0. J12.75
G3 X75.92 Y45.995 I-0.509 J-0.21 F1000.
G1 X75.412 Y45.785
X75.332 Y45.753 Z12.207
X75.255 Y45.721 Z12.227
X75.181 Y45.69 Z12.26
X75.113 Y45.662 Z12.305
X75.052 Y45.637 Z12.361
X75. Y45.616 Z12.427
X74.959 Y45.599 Z12.5
X74.928 Y45.586 Z12.58
X74.909 Y45.578 Z12.664
X74.903 Y45.576 Z12.75
G0 Z23.2
X67.492 Y48.087
G1 Z16.2 F1200.
Z9.75
X67.489 Y48.093 Z9.664
X67.479 Y48.111 Z9.58
X67.462 Y48.139 Z9.5
X67.44 Y48.178 Z9.427
X67.411 Y48.227 Z9.361
X67.379 Y48.283 Z9.305
X67.342 Y48.347 Z9.26
X67.301 Y48.416 Z9.227
X67.259 Y48.488 Z9.207
X67.216 Y48.563 Z9.2
X66.94 Y49.038 F1000.
G3 X66.188 Y49.238 I-0.476 J-0.276
G2 X0.12 Y59.954 I-26.505 J45.607 F3600.
X-2.663 Y65.2 I9.563 J8.433
Y66.575 I2.663 J0.687
X9.682 Y76.137 I12.345 J-3.188
G1 X69.683
G2 X82.028 Y66.575 I0. J-12.75
Y65.2 I-2.663 J-0.688
X79.245 Y59.954 I-12.345 J3.187
X66.188 Y49.238 I-39.563 J34.891
G3 X65.989 Y48.486 I0.276 J-0.476 F1000.
G1 X66.265 Y48.01
X66.308 Y47.936 Z9.207
X66.35 Y47.863 Z9.227
X66.39 Y47.794 Z9.26
X66.427 Y47.731 Z9.305
X66.46 Y47.674 Z9.361
X66.489 Y47.625 Z9.427
X66.511 Y47.586 Z9.5
X66.528 Y47.558 Z9.58
X66.538 Y47.54 Z9.664
X66.541 Y47.535 Z9.75
G0 Z23.2
X87.628 Y28.388
G1 Z16.2 F1200.
Z9.75
X87.631 Y28.382 Z9.664
X87.643 Y28.365 Z9.58
X87.661 Y28.338 Z9.5
X87.686 Y28.3 Z9.427
X87.717 Y28.254 Z9.361
X87.754 Y28.199 Z9.305
X87.795 Y28.138 Z9.26
X87.839 Y28.072 Z9.227
X87.886 Y28.003 Z9.207
X87.934 Y27.931 Z9.2
X88.241 Y27.475 F1000.
G3 X89.004 Y27.325 I0.456 J0.307
G2 X157.99 Y18.433 I29.422 J-43.782 F3600.
X148.427 Y-2.75 I-9.563 J-8.433
G1 X88.427
G2 X78.864 Y18.433 I0. J12.75
X89.004 Y27.325 I39.563 J-34.891
G3 X89.154 Y28.088 I-0.307 J0.456 F1000.
G1 X88.847 Y28.545
X88.799 Y28.616 Z9.207
X88.752 Y28.686 Z9.227
X88.708 Y28.752 Z9.26
X88.667 Y28.813 Z9.305
X88.63 Y28.867 Z9.361
X88.599 Y28.914 Z9.427
X88.574 Y28.951 Z9.5
X88.556 Y28.979 Z9.58
X88.544 Y28.996 Z9.664
X88.541 Y29.001 Z9.75
G0 Z23.2
X69.265 Y37.238
G1 Z13.2 F1200.
Z6.75
Y37.231 Z6.664
Y37.211 Z6.58
Y37.178 Z6.5
X69.264 Y37.133 Z6.427
Y37.077 Z6.361
X69.263 Y37.011 Z6.305
Y36.938 Z6.26
X69.262 Y36.858 Z6.227
X69.261 Y36.774 Z6.207
X69.26 Y36.688 Z6.2
X69.255 Y36.138 F1000.
G3 X69.8 Y35.583 I0.55 J-0.005
G2 X82.028 Y26.021 I-0.118 J-12.749 F3600.
Y24.646 I-2.663 J-0.687
X79.245 Y19.4 I-12.345 J3.187
X0.12 I-39.563 J34.891
X-2.663 Y24.646 I9.563 J8.433
Y26.021 I2.663 J0.687
X9.682 Y35.583 I12.345 J-3.188
G1 X69.683
X69.8
G3 X70.355 Y36.128 I0.005 J0.55 F1000.
G1 X70.36 Y36.678
X70.361 Y36.764 Z6.207
X70.362 Y36.848 Z6.227
Y36.927 Z6.26
X70.363 Y37.001 Z6.305
X70.364 Y37.067 Z6.361
Y37.123 Z6.427
X70.365 Y37.168 Z6.5
Y37.201 Z6.58
Y37.221 Z6.664
Y37.228 Z6.75
G0 Z23.2
X75.323 Y125.667
G1 Z22.2 F1200.
Z15.75
X75.329 Y125.669 Z15.664
X75.347 Y125.677 Z15.58
X75.378 Y125.69 Z15.5
X75.42 Y125.707 Z15.427
X75.471 Y125.728 Z15.361
X75.532 Y125.753 Z15.305
X75.6 Y125.781 Z15.26
X75.674 Y125.812 Z15.227
X75.752 Y125.844 Z15.207
X75.831 Y125.876 Z15.2
X76.34 Y126.086 F1000.
G3 X76.639 Y126.804 I-0.21 J0.509
G2 X78.864 Y140.095 I11.788 J4.858 F3600.
X157.99 I39.563 J-34.891
X148.427 Y118.912 I-9.563 J-8.433
G1 X118.267
X88.427
G2 X76.639 Y126.804 I0. J12.75
G3 X75.92 Y127.103 I-0.509 J-0.21 F1000.
G1 X75.412 Y126.893
X75.332 Y126.861 Z15.207
X75.255 Y126.829 Z15.227
X75.181 Y126.798 Z15.26
X75.113 Y126.77 Z15.305
X75.052 Y126.745 Z15.361
X75.001 Y126.724 Z15.427
X74.959 Y126.707 Z15.5
X74.928 Y126.694 Z15.58
X74.91 Y126.686 Z15.664
X74.903 Y126.684 Z15.75
G0 Z23.2
X67.492 Y129.195
G1 Z22.2 F1200.
Z15.75
X67.489 Y129.201 Z15.664
X67.479 Y129.219 Z15.58
X67.462 Y129.247 Z15.5
X67.44 Y129.286 Z15.427
X67.411 Y129.335 Z15.361
X67.378 Y129.391 Z15.305
X67.341 Y129.455 Z15.26
X67.301 Y129.524 Z15.227
X67.259 Y129.596 Z15.207
X67.216 Y129.671 Z15.2
X66.94 Y130.146 F1000.
G3 X66.188 Y130.346 I-0.476 J-0.276
G2 X0.12 Y141.062 I-26.505 J45.607 F3600.
X-2.663 Y146.307 I9.562 J8.433
Y147.682 I2.663 J0.688
X9.682 Y157.245 I12.345 J-3.188
G1 X69.683
G2 X82.028 Y147.682 I0. J-12.75
Y146.307 I-2.663 J-0.688
X79.245 Y141.062 I-12.345 J3.188
X66.188 Y130.346 I-39.563 J34.891
G3 X65.989 Y129.594 I0.276 J-0.476 F1000.
G1 X66.265 Y129.118
X66.308 Y129.044 Z15.207
X66.35 Y128.971 Z15.227
X66.39 Y128.902 Z15.26
X66.427 Y128.839 Z15.305
X66.46 Y128.782 Z15.361
X66.489 Y128.733 Z15.427
X66.511 Y128.694 Z15.5
X66.528 Y128.666 Z15.58
X66.538 Y128.648 Z15.664
X66.541 Y128.643 Z15.75
G0 Z23.2
X67.492 Y129.195
G1 Z19.2 F1200.
Z12.75
X67.489 Y129.201 Z12.664
X67.479 Y129.219 Z12.58
X67.462 Y129.247 Z12.5
X67.44 Y129.286 Z12.427
X67.411 Y129.335 Z12.361
X67.378 Y129.391 Z12.305
X67.341 Y129.455 Z12.26
X67.301 Y129.524 Z12.227
X67.259 Y129.596 Z12.207
X67.216 Y129.671 Z12.2
X66.94 Y130.146 F1000.
G3 X66.188 Y130.346 I-0.476 J-0.276
G2 X0.12 Y141.062 I-26.505 J45.607 F3600.
X-2.663 Y146.307 I9.562 J8.433
Y147.682 I2.663 J0.688
X9.682 Y157.245 I12.345 J-3.188
G1 X69.683
G2 X82.028 Y147.682 I0. J-12.75
Y146.307 I-2.663 J-0.688
X79.245 Y141.062 I-12.345 J3.188
X66.188 Y130.346 I-39.563 J34.891
G3 X65.989 Y129.594 I0.276 J-0.476 F1000.
G1 X66.265 Y129.118
X66.308 Y129.044 Z12.207
X66.35 Y128.971 Z12.227
X66.39 Y128.902 Z12.26
X66.427 Y128.839 Z12.305
X66.46 Y128.782 Z12.361
X66.489 Y128.733 Z12.427
X66.511 Y128.694 Z12.5
X66.528 Y128.666 Z12.58
X66.538 Y128.648 Z12.664
X66.541 Y128.643 Z12.75
G0 Z23.2
X75.323 Y125.667
G1 Z19.2 F1200.
Z12.75
X75.329 Y125.669 Z12.664
X75.347 Y125.677 Z12.58
X75.378 Y125.69 Z12.5
X75.42 Y125.707 Z12.427
X75.471 Y125.728 Z12.361
X75.532 Y125.753 Z12.305
X75.6 Y125.781 Z12.26
X75.674 Y125.812 Z12.227
X75.752 Y125.844 Z12.207
X75.831 Y125.876 Z12.2
X76.34 Y126.086 F1000.
G3 X76.639 Y126.804 I-0.21 J0.509
G2 X78.864 Y140.095 I11.788 J4.858 F3600.
X157.99 I39.563 J-34.891
X148.427 Y118.912 I-9.563 J-8.433
G1 X118.267
X88.427
G2 X76.639 Y126.804 I0. J12.75
G3 X75.92 Y127.103 I-0.509 J-0.21 F1000.
G1 X75.412 Y126.893
X75.332 Y126.861 Z12.207
X75.255 Y126.829 Z12.227
X75.181 Y126.798 Z12.26
X75.113 Y126.77 Z12.305
X75.052 Y126.745 Z12.361
X75.001 Y126.724 Z12.427
X74.959 Y126.707 Z12.5
X74.928 Y126.694 Z12.58
X74.91 Y126.686 Z12.664
X74.903 Y126.684 Z12.75
G0 Z23.2
X67.492 Y129.195
G1 Z16.2 F1200.
Z9.75
X67.489 Y129.201 Z9.664
X67.479 Y129.219 Z9.58
X67.462 Y129.247 Z9.5
X67.44 Y129.286 Z9.427
X67.411 Y129.335 Z9.361
X67.378 Y129.391 Z9.305
X67.341 Y129.455 Z9.26
X67.301 Y129.524 Z9.227
X67.259 Y129.596 Z9.207
X67.216 Y129.671 Z9.2
X66.94 Y130.146 F1000.
G3 X66.188 Y130.346 I-0.476 J-0.276
G2 X0.12 Y141.062 I-26.505 J45.607 F3600.
X-2.663 Y146.307 I9.562 J8.433
Y147.682 I2.663 J0.688
X9.682 Y157.245 I12.345 J-3.188
G1 X69.683
G2 X82.028 Y147.682 I0. J-12.75
Y146.307 I-2.663 J-0.688
X79.245 Y141.062 I-12.345 J3.188
X66.188 Y130.346 I-39.563 J34.891
G3 X65.989 Y129.594 I0.276 J-0.476 F1000.
G1 X66.265 Y129.118
X66.308 Y129.044 Z9.207
X66.35 Y128.971 Z9.227
X66.39 Y128.902 Z9.26
X66.427 Y128.839 Z9.305
X66.46 Y128.782 Z9.361
X66.489 Y128.733 Z9.427
X66.511 Y128.694 Z9.5
X66.528 Y128.666 Z9.58
X66.538 Y128.648 Z9.664
X66.541 Y128.643 Z9.75
G0 Z23.2
X75.322 Y85.113
G1 Z19.2 F1200.
Z12.75
X75.329 Y85.115 Z12.664
X75.347 Y85.123 Z12.58
X75.378 Y85.136 Z12.5
X75.419 Y85.153 Z12.427
X75.471 Y85.174 Z12.361
X75.532 Y85.199 Z12.305
X75.6 Y85.227 Z12.26
X75.674 Y85.258 Z12.227
X75.751 Y85.29 Z12.207
X75.831 Y85.322 Z12.2
X76.339 Y85.532 F1000.
G3 X76.638 Y86.25 I-0.21 J0.509
G2 X78.864 Y99.541 I11.788 J4.858 F3600.
X157.99 I39.563 J-34.891
X148.427 Y78.358 I-9.563 J-8.433
G1 X88.427
G2 X76.638 Y86.25 I0. J12.75
G3 X75.92 Y86.549 I-0.509 J-0.21 F1000.
G1 X75.412 Y86.339
X75.332 Y86.307 Z12.207
X75.255 Y86.275 Z12.227
X75.181 Y86.244 Z12.26
X75.113 Y86.216 Z12.305
X75.052 Y86.191 Z12.361
X75. Y86.17 Z12.427
X74.959 Y86.153 Z12.5
X74.928 Y86.14 Z12.58
X74.909 Y86.132 Z12.664
X74.903 Y86.13 Z12.75
G0 Z23.2
X75.322 Y85.113
G1 Z16.2 F1200.
Z9.75
X75.329 Y85.115 Z9.664
X75.347 Y85.123 Z9.58
X75.378 Y85.136 Z9.5
X75.419 Y85.153 Z9.427
X75.471 Y85.174 Z9.361
X75.532 Y85.199 Z9.305
X75.6 Y85.227 Z9.26
X75.674 Y85.258 Z9.227
X75.751 Y85.29 Z9.207
X75.831 Y85.322 Z9.2
X76.339 Y85.532 F1000.
G3 X76.638 Y86.25 I-0.21 J0.509
G2 X78.864 Y99.541 I11.788 J4.858 F3600.
X157.99 I39.563 J-34.891
X148.427 Y78.358 I-9.563 J-8.433
G1 X88.427
G2 X76.638 Y86.25 I0. J12.75
G3 X75.92 Y86.549 I-0.509 J-0.21 F1000.
G1 X75.412 Y86.339
X75.332 Y86.307 Z9.207
X75.255 Y86.275 Z9.227
X75.181 Y86.244 Z9.26
X75.113 Y86.216 Z9.305
X75.052 Y86.191 Z9.361
X75. Y86.17 Z9.427
X74.959 Y86.153 Z9.5
X74.928 Y86.14 Z9.58
X74.909 Y86.132 Z9.664
X74.903 Y86.13 Z9.75
G0 Z23.2
X67.492 Y88.641
G1 Z16.2 F1200.
Z9.75
X67.489 Y88.647 Z9.664
X67.479 Y88.665 Z9.58
X67.462 Y88.693 Z9.5
X67.44 Y88.732 Z9.427
X67.411 Y88.781 Z9.361
X67.378 Y88.837 Z9.305
X67.342 Y88.901 Z9.26
X67.301 Y88.97 Z9.227
X67.259 Y89.042 Z9.207
X67.216 Y89.117 Z9.2
X66.94 Y89.592 F1000.
G3 X66.188 Y89.792 I-0.476 J-0.276
G2 X0.12 Y100.508 I-26.505 J45.607 F3600.
X-2.663 Y105.753 I9.562 J8.433
Y107.129 I2.663 J0.688
X9.682 Y116.691 I12.345 J-3.188
G1 X69.683
G2 X82.028 Y107.128 I0. J-12.75
Y105.753 I-2.663 J-0.687
X79.245 Y100.508 I-12.345 J3.188
X66.188 Y89.792 I-39.563 J34.891
G3 X65.989 Y89.04 I0.276 J-0.476 F1000.
G1 X66.265 Y88.564
X66.308 Y88.49 Z9.207
X66.35 Y88.417 Z9.227
X66.39 Y88.348 Z9.26
X66.427 Y88.285 Z9.305
X66.46 Y88.228 Z9.361
X66.489 Y88.179 Z9.427
X66.511 Y88.14 Z9.5
X66.528 Y88.112 Z9.58
X66.538 Y88.094 Z9.664
X66.541 Y88.089 Z9.75
G0 Z23.2
X67.492 Y88.641
G1 Z13.2 F1200.
Z6.75
X67.489 Y88.647 Z6.664
X67.479 Y88.665 Z6.58
X67.462 Y88.693 Z6.5
X67.44 Y88.732 Z6.427
X67.411 Y88.781 Z6.361
X67.378 Y88.837 Z6.305
X67.342 Y88.901 Z6.26
X67.301 Y88.97 Z6.227
X67.259 Y89.042 Z6.207
X67.216 Y89.117 Z6.2
X66.94 Y89.592 F1000.
G3 X66.188 Y89.792 I-0.476 J-0.276
G2 X0.12 Y100.508 I-26.505 J45.607 F3600.
X-2.663 Y105.753 I9.562 J8.433
Y107.129 I2.663 J0.688
X9.682 Y116.691 I12.345 J-3.188
G1 X69.683
G2 X82.028 Y107.128 I0. J-12.75
Y105.753 I-2.663 J-0.687
X79.245 Y100.508 I-12.345 J3.188
X66.188 Y89.792 I-39.563 J34.891
G3 X65.989 Y89.04 I0.276 J-0.476 F1000.
G1 X66.265 Y88.564
X66.308 Y88.49 Z6.207
X66.35 Y88.417 Z6.227
X66.39 Y88.348 Z6.26
X66.427 Y88.285 Z6.305
X66.46 Y88.228 Z6.361
X66.489 Y88.179 Z6.427
X66.511 Y88.14 Z6.5
X66.528 Y88.112 Z6.58
X66.538 Y88.094 Z6.664
X66.541 Y88.089 Z6.75
G0 Z23.2
X75.322 Y44.559
G1 Z16.2 F1200.
Z9.75
X75.329 Y44.561 Z9.664
X75.347 Y44.569 Z9.58
X75.378 Y44.582 Z9.5
X75.419 Y44.599 Z9.427
X75.471 Y44.62 Z9.361
X75.532 Y44.645 Z9.305
X75.6 Y44.673 Z9.26
X75.674 Y44.704 Z9.227
X75.751 Y44.736 Z9.207
X75.831 Y44.768 Z9.2
X76.339 Y44.978 F1000.
G3 X76.638 Y45.696 I-0.21 J0.509
G2 X78.864 Y58.987 I11.788 J4.858 F3600.
X157.99 I39.563 J-34.891
X148.427 Y37.804 I-9.563 J-8.433
G1 X88.427
G2 X76.638 Y45.696 I0. J12.75
G3 X75.92 Y45.995 I-0.509 J-0.21 F1000.
G1 X75.412 Y45.785
X75.332 Y45.753 Z9.207
X75.255 Y45.721 Z9.227
X75.181 Y45.69 Z9.26
X75.113 Y45.662 Z9.305
X75.052 Y45.637 Z9.361
X75. Y45.616 Z9.427
X74.959 Y45.599 Z9.5
X74.928 Y45.586 Z9.58
X74.909 Y45.578 Z9.664
X74.903 Y45.576 Z9.75
G0 Z23.2
X75.322 Y44.559
G1 Z13.2 F1200.
Z6.75
X75.329 Y44.561 Z6.664
X75.347 Y44.569 Z6.58
X75.378 Y44.582 Z6.5
X75.419 Y44.599 Z6.427
X75.471 Y44.62 Z6.361
X75.532 Y44.645 Z6.305
X75.6 Y44.673 Z6.26
X75.674 Y44.704 Z6.227
X75.751 Y44.736 Z6.207
X75.831 Y44.768 Z6.2
X76.339 Y44.978 F1000.
G3 X76.638 Y45.696 I-0.21 J0.509
G2 X78.864 Y58.987 I11.788 J4.858 F3600.
X157.99 I39.563 J-34.891
X148.427 Y37.804 I-9.563 J-8.433
G1 X88.427
G2 X76.638 Y45.696 I0. J12.75
G3 X75.92 Y45.995 I-0.509 J-0.21 F1000.
G1 X75.412 Y45.785
X75.332 Y45.753 Z6.207
X75.255 Y45.721 Z6.227
X75.181 Y45.69 Z6.26
X75.113 Y45.662 Z6.305
X75.052 Y45.637 Z6.361
X75. Y45.616 Z6.427
X74.959 Y45.599 Z6.5
X74.928 Y45.586 Z6.58
X74.909 Y45.578 Z6.664
X74.903 Y45.576 Z6.75
G0 Z23.2
X67.492 Y48.087
G1 Z13.2 F1200.
Z6.75
X67.489 Y48.093 Z6.664
X67.479 Y48.111 Z6.58
X67.462 Y48.139 Z6.5
X67.44 Y48.178 Z6.427
X67.411 Y48.227 Z6.361
X67.379 Y48.283 Z6.305
X67.342 Y48.347 Z6.26
X67.301 Y48.416 Z6.227
X67.259 Y48.488 Z6.207
X67.216 Y48.563 Z6.2
X66.94 Y49.038 F1000.
G3 X66.188 Y49.238 I-0.476 J-0.276
G2 X0.12 Y59.954 I-26.505 J45.607 F3600.
X-2.663 Y65.2 I9.563 J8.433
Y66.575 I2.663 J0.687
X9.682 Y76.137 I12.345 J-3.188
G1 X69.683
G2 X82.028 Y66.575 I0. J-12.75
Y65.2 I-2.663 J-0.688
X79.245 Y59.954 I-12.345 J3.187
X66.188 Y49.238 I-39.563 J34.891
G3 X65.989 Y48.486 I0.276 J-0.476 F1000.
G1 X66.265 Y48.01
X66.308 Y47.936 Z6.207
X66.35 Y47.863 Z6.227
X66.39 Y47.794 Z6.26
X66.427 Y47.731 Z6.305
X66.46 Y47.674 Z6.361
X66.489 Y47.625 Z6.427
X66.511 Y47.586 Z6.5
X66.528 Y47.558 Z6.58
X66.538 Y47.54 Z6.664
X66.541 Y47.535 Z6.75
G0 Z23.2
X67.492 Y48.087
G1 Z10.2 F1200.
Z3.75
X67.489 Y48.093 Z3.664
X67.479 Y48.111 Z3.58
X67.462 Y48.139 Z3.5
X67.44 Y48.178 Z3.427
X67.411 Y48.227 Z3.361
X67.379 Y48.283 Z3.305
X67.342 Y48.347 Z3.26
X67.301 Y48.416 Z3.227
X67.259 Y48.488 Z3.207
X67.216 Y48.563 Z3.2
X66.94 Y49.038 F1000.
G3 X66.188 Y49.238 I-0.476 J-0.276
G2 X0.12 Y59.954 I-26.505 J45.607 F3600.
X-2.663 Y65.2 I9.563 J8.433
Y66.575 I2.663 J0.687
X9.682 Y76.137 I12.345 J-3.188
G1 X69.683
G2 X82.028 Y66.575 I0. J-12.75
Y65.2 I-2.663 J-0.688
X79.245 Y59.954 I-12.345 J3.187
X66.188 Y49.238 I-39.563 J34.891
G3 X65.989 Y48.486 I0.276 J-0.476 F1000.
G1 X66.265 Y48.01
X66.308 Y47.936 Z3.207
X66.35 Y47.863 Z3.227
X66.39 Y47.794 Z3.26
X66.427 Y47.731 Z3.305
X66.46 Y47.674 Z3.361
X66.489 Y47.625 Z3.427
X66.511 Y47.586 Z3.5
X66.528 Y47.558 Z3.58
X66.538 Y47.54 Z3.664
X66.541 Y47.535 Z3.75
G0 Z23.2
X87.628 Y28.388
G1 Z13.2 F1200.
Z6.75
X87.631 Y28.382 Z6.664
X87.643 Y28.365 Z6.58
X87.661 Y28.338 Z6.5
X87.686 Y28.3 Z6.427
X87.717 Y28.254 Z6.361
X87.754 Y28.199 Z6.305
X87.795 Y28.138 Z6.26
X87.839 Y28.072 Z6.227
X87.886 Y28.003 Z6.207
X87.934 Y27.931 Z6.2
X88.241 Y27.475 F1000.
G3 X89.004 Y27.325 I0.456 J0.307
G2 X157.99 Y18.433 I29.422 J-43.782 F3600.
X148.427 Y-2.75 I-9.563 J-8.433
G1 X88.427
G2 X78.864 Y18.433 I0. J12.75
X89.004 Y27.325 I39.563 J-34.891
G3 X89.154 Y28.088 I-0.307 J0.456 F1000.
G1 X88.847 Y28.545
X88.799 Y28.616 Z6.207
X88.752 Y28.686 Z6.227
X88.708 Y28.752 Z6.26
X88.667 Y28.813 Z6.305
X88.63 Y28.867 Z6.361
X88.599 Y28.914 Z6.427
X88.574 Y28.951 Z6.5
X88.556 Y28.979 Z6.58
X88.544 Y28.996 Z6.664
X88.541 Y29.001 Z6.75
G0 Z23.2
X87.628 Y28.388
G1 Z10.2 F1200.
Z3.75
X87.631 Y28.382 Z3.664
X87.643 Y28.365 Z3.58
X87.661 Y28.338 Z3.5
X87.686 Y28.3 Z3.427
X87.717 Y28.254 Z3.361
X87.754 Y28.199 Z3.305
X87.795 Y28.138 Z3.26
X87.839 Y28.072 Z3.227
X87.886 Y28.003 Z3.207
X87.934 Y27.931 Z3.2
X88.241 Y27.475 F1000.
G3 X89.004 Y27.325 I0.456 J0.307
G2 X157.99 Y18.433 I29.422 J-43.782 F3600.
X148.427 Y-2.75 I-9.563 J-8.433
G1 X88.427
G2 X78.864 Y18.433 I0. J12.75
X89.004 Y27.325 I39.563 J-34.891
G3 X89.154 Y28.088 I-0.307 J0.456 F1000.
G1 X88.847 Y28.545
X88.799 Y28.616 Z3.207
X88.752 Y28.686 Z3.227
X88.708 Y28.752 Z3.26
X88.667 Y28.813 Z3.305
X88.63 Y28.867 Z3.361
X88.599 Y28.914 Z3.427
X88.574 Y28.951 Z3.5
X88.556 Y28.979 Z3.58
X88.544 Y28.996 Z3.664
X88.541 Y29.001 Z3.75
G0 Z23.2
X69.265 Y37.238
G1 Z10.2 F1200.
Z3.75
Y37.231 Z3.664
Y37.211 Z3.58
Y37.178 Z3.5
X69.264 Y37.133 Z3.427
Y37.077 Z3.361
X69.263 Y37.011 Z3.305
Y36.938 Z3.26
X69.262 Y36.858 Z3.227
X69.261 Y36.774 Z3.207
X69.26 Y36.688 Z3.2
X69.255 Y36.138 F1000.
G3 X69.8 Y35.583 I0.55 J-0.005
G2 X82.028 Y26.021 I-0.118 J-12.749 F3600.
Y24.646 I-2.663 J-0.687
X79.245 Y19.4 I-12.345 J3.187
X0.12 I-39.563 J34.891
X-2.663 Y24.646 I9.563 J8.433
Y26.021 I2.663 J0.687
X9.682 Y35.583 I12.345 J-3.188
G1 X69.683
X69.8
G3 X70.355 Y36.128 I0.005 J0.55 F1000.
G1 X70.36 Y36.678
X70.361 Y36.764 Z3.207
X70.362 Y36.848 Z3.227
Y36.927 Z3.26
X70.363 Y37.001 Z3.305
X70.364 Y37.067 Z3.361
Y37.123 Z3.427
X70.365 Y37.168 Z3.5
Y37.201 Z3.58
Y37.221 Z3.664
Y37.228 Z3.75
G0 Z23.2
X69.265 Y37.238
G1 Z7.2 F1200.
Z2.15
Y37.231 Z2.064
Y37.211 Z1.98
Y37.178 Z1.9
X69.264 Y37.133 Z1.827
Y37.077 Z1.761
X69.263 Y37.011 Z1.705
Y36.938 Z1.66
X69.262 Y36.858 Z1.627
X69.261 Y36.774 Z1.607
X69.26 Y36.688 Z1.6
X69.255 Y36.138 F1000.
G3 X69.8 Y35.583 I0.55 J-0.005
G2 X82.028 Y26.021 I-0.118 J-12.749 F3600.
Y24.646 I-2.663 J-0.687
X79.245 Y19.4 I-12.345 J3.187
X0.12 I-39.563 J34.891
X-2.663 Y24.646 I9.563 J8.433
Y26.021 I2.663 J0.687
X9.682 Y35.583 I12.345 J-3.188
G1 X69.683
X69.8
G3 X70.355 Y36.128 I0.005 J0.55 F1000.
G1 X70.36 Y36.678
X70.361 Y36.764 Z1.607
X70.362 Y36.848 Z1.627
Y36.927 Z1.66
X70.363 Y37.001 Z1.705
X70.364 Y37.067 Z1.761
Y37.123 Z1.827
X70.365 Y37.168 Z1.9
Y37.201 Z1.98
Y37.221 Z2.064
Y37.228 Z2.15
G0 Z23.2
X75.323 Y125.667
G1 Z16.2 F1200.
Z9.75
X75.329 Y125.669 Z9.664
X75.347 Y125.677 Z9.58
X75.378 Y125.69 Z9.5
X75.42 Y125.707 Z9.427
X75.471 Y125.728 Z9.361
X75.532 Y125.753 Z9.305
X75.6 Y125.781 Z9.26
X75.674 Y125.812 Z9.227
X75.752 Y125.844 Z9.207
X75.831 Y125.876 Z9.2
X76.34 Y126.086 F1000.
G3 X76.639 Y126.804 I-0.21 J0.509
G2 X78.864 Y140.095 I11.788 J4.858 F3600.
X157.99 I39.563 J-34.891
X148.427 Y118.912 I-9.563 J-8.433
G1 X118.267
X88.427
G2 X76.639 Y126.804 I0. J12.75
G3 X75.92 Y127.103 I-0.509 J-0.21 F1000.
G1 X75.412 Y126.893
X75.332 Y126.861 Z9.207
X75.255 Y126.829 Z9.227
X75.181 Y126.798 Z9.26
X75.113 Y126.77 Z9.305
X75.052 Y126.745 Z9.361
X75.001 Y126.724 Z9.427
X74.959 Y126.707 Z9.5
X74.928 Y126.694 Z9.58
X74.91 Y126.686 Z9.664
X74.903 Y126.684 Z9.75
G0 Z23.2
X75.323 Y125.667
G1 Z13.2 F1200.
Z6.75
X75.329 Y125.669 Z6.664
X75.347 Y125.677 Z6.58
X75.378 Y125.69 Z6.5
X75.42 Y125.707 Z6.427
X75.471 Y125.728 Z6.361
X75.532 Y125.753 Z6.305
X75.6 Y125.781 Z6.26
X75.674 Y125.812 Z6.227
X75.752 Y125.844 Z6.207
X75.831 Y125.876 Z6.2
X76.34 Y126.086 F1000.
G3 X76.639 Y126.804 I-0.21 J0.509
G2 X78.864 Y140.095 I11.788 J4.858 F3600.
X157.99 I39.563 J-34.891
X148.427 Y118.912 I-9.563 J-8.433
G1 X118.267
X88.427
G2 X76.639 Y126.804 I0. J12.75
G3 X75.92 Y127.103 I-0.509 J-0.21 F1000.
G1 X75.412 Y126.893
X75.332 Y126.861 Z6.207
X75.255 Y126.829 Z6.227
X75.181 Y126.798 Z6.26
X75.113 Y126.77 Z6.305
X75.052 Y126.745 Z6.361
X75.001 Y126.724 Z6.427
X74.959 Y126.707 Z6.5
X74.928 Y126.694 Z6.58
X74.91 Y126.686 Z6.664
X74.903 Y126.684 Z6.75
G0 Z23.2
X67.492 Y129.195
G1 Z13.2 F1200.
Z6.75
X67.489 Y129.201 Z6.664
X67.479 Y129.219 Z6.58
X67.462 Y129.247 Z6.5
X67.44 Y129.286 Z6.427
X67.411 Y129.335 Z6.361
X67.378 Y129.391 Z6.305
X67.341 Y129.455 Z6.26
X67.301 Y129.524 Z6.227
X67.259 Y129.596 Z6.207
X67.216 Y129.671 Z6.2
X66.94 Y130.146 F1000.
G3 X66.188 Y130.346 I-0.476 J-0.276
G2 X0.12 Y141.062 I-26.505 J45.607 F3600.
X-2.663 Y146.307 I9.562 J8.433
Y147.682 I2.663 J0.688
X9.682 Y157.245 I12.345 J-3.188
G1 X69.683
G2 X82.028 Y147.682 I0. J-12.75
Y146.307 I-2.663 J-0.688
X79.245 Y141.062 I-12.345 J3.188
X66.188 Y130.346 I-39.563 J34.891
G3 X65.989 Y129.594 I0.276 J-0.476 F1000.
G1 X66.265 Y129.118
X66.308 Y129.044 Z6.207
X66.35 Y128.971 Z6.227
X66.39 Y128.902 Z6.26
X66.427 Y128.839 Z6.305
X66.46 Y128.782 Z6.361
X66.489 Y128.733 Z6.427
X66.511 Y128.694 Z6.5
X66.528 Y128.666 Z6.58
X66.538 Y128.648 Z6.664
X66.541 Y128.643 Z6.75
G0 Z23.2
X67.492 Y129.195
G1 Z10.2 F1200.
Z3.75
X67.489 Y129.201 Z3.664
X67.479 Y129.219 Z3.58
X67.462 Y129.247 Z3.5
X67.44 Y129.286 Z3.427
X67.411 Y129.335 Z3.361
X67.378 Y129.391 Z3.305
X67.341 Y129.455 Z3.26
X67.301 Y129.524 Z3.227
X67.259 Y129.596 Z3.207
X67.216 Y129.671 Z3.2
X66.94 Y130.146 F1000.
G3 X66.188 Y130.346 I-0.476 J-0.276
G2 X0.12 Y141.062 I-26.505 J45.607 F3600.
X-2.663 Y146.307 I9.562 J8.433
Y147.682 I2.663 J0.688
X9.682 Y157.245 I12.345 J-3.188
G1 X69.683
G2 X82.028 Y147.682 I0. J-12.75
Y146.307 I-2.663 J-0.688
X79.245 Y141.062 I-12.345 J3.188
X66.188 Y130.346 I-39.563 J34.891
G3 X65.989 Y129.594 I0.276 J-0.476 F1000.
G1 X66.265 Y129.118
X66.308 Y129.044 Z3.207
X66.35 Y128.971 Z3.227
X66.39 Y128.902 Z3.26
X66.427 Y128.839 Z3.305
X66.46 Y128.782 Z3.361
X66.489 Y128.733 Z3.427
X66.511 Y128.694 Z3.5
X66.528 Y128.666 Z3.58
X66.538 Y128.648 Z3.664
X66.541 Y128.643 Z3.75
G0 Z23.2
X75.322 Y85.113
G1 Z13.2 F1200.
Z6.75
X75.329 Y85.115 Z6.664
X75.347 Y85.123 Z6.58
X75.378 Y85.136 Z6.5
X75.419 Y85.153 Z6.427
X75.471 Y85.174 Z6.361
X75.532 Y85.199 Z6.305
X75.6 Y85.227 Z6.26
X75.674 Y85.258 Z6.227
X75.751 Y85.29 Z6.207
X75.831 Y85.322 Z6.2
X76.339 Y85.532 F1000.
G3 X76.638 Y86.25 I-0.21 J0.509
G2 X78.864 Y99.541 I11.788 J4.858 F3600.
X157.99 I39.563 J-34.891
X148.427 Y78.358 I-9.563 J-8.433
G1 X88.427
G2 X76.638 Y86.25 I0. J12.75
G3 X75.92 Y86.549 I-0.509 J-0.21 F1000.
G1 X75.412 Y86.339
X75.332 Y86.307 Z6.207
X75.255 Y86.275 Z6.227
X75.181 Y86.244 Z6.26
X75.113 Y86.216 Z6.305
X75.052 Y86.191 Z6.361
X75. Y86.17 Z6.427
X74.959 Y86.153 Z6.5
X74.928 Y86.14 Z6.58
X74.909 Y86.132 Z6.664
X74.903 Y86.13 Z6.75
G0 Z23.2
X75.322 Y85.113
G1 Z10.2 F1200.
Z3.75
X75.329 Y85.115 Z3.664
X75.347 Y85.123 Z3.58
X75.378 Y85.136 Z3.5
X75.419 Y85.153 Z3.427
X75.471 Y85.174 Z3.361
X75.532 Y85.199 Z3.305
X75.6 Y85.227 Z3.26
X75.674 Y85.258 Z3.227
X75.751 Y85.29 Z3.207
X75.831 Y85.322 Z3.2
X76.339 Y85.532 F1000.
G3 X76.638 Y86.25 I-0.21 J0.509
G2 X78.864 Y99.541 I11.788 J4.858 F3600.
X157.99 I39.563 J-34.891
X148.427 Y78.358 I-9.563 J-8.433
G1 X88.427
G2 X76.638 Y86.25 I0. J12.75
G3 X75.92 Y86.549 I-0.509 J-0.21 F1000.
G1 X75.412 Y86.339
X75.332 Y86.307 Z3.207
X75.255 Y86.275 Z3.227
X75.181 Y86.244 Z3.26
X75.113 Y86.216 Z3.305
X75.052 Y86.191 Z3.361
X75. Y86.17 Z3.427
X74.959 Y86.153 Z3.5
X74.928 Y86.14 Z3.58
X74.909 Y86.132 Z3.664
X74.903 Y86.13 Z3.75
G0 Z23.2
X67.492 Y88.641
G1 Z10.2 F1200.
Z3.75
X67.489 Y88.647 Z3.664
X67.479 Y88.665 Z3.58
X67.462 Y88.693 Z3.5
X67.44 Y88.732 Z3.427
X67.411 Y88.781 Z3.361
X67.378 Y88.837 Z3.305
X67.342 Y88.901 Z3.26
X67.301 Y88.97 Z3.227
X67.259 Y89.042 Z3.207
X67.216 Y89.117 Z3.2
X66.94 Y89.592 F1000.
G3 X66.188 Y89.792 I-0.476 J-0.276
G2 X0.12 Y100.508 I-26.505 J45.607 F3600.
X-2.663 Y105.753 I9.562 J8.433
Y107.129 I2.663 J0.688
X9.682 Y116.691 I12.345 J-3.188
G1 X69.683
G2 X82.028 Y107.128 I0. J-12.75
Y105.753 I-2.663 J-0.687
X79.245 Y100.508 I-12.345 J3.188
X66.188 Y89.792 I-39.563 J34.891
G3 X65.989 Y89.04 I0.276 J-0.476 F1000.
G1 X66.265 Y88.564
X66.308 Y88.49 Z3.207
X66.35 Y88.417 Z3.227
X66.39 Y88.348 Z3.26
X66.427 Y88.285 Z3.305
X66.46 Y88.228 Z3.361
X66.489 Y88.179 Z3.427
X66.511 Y88.14 Z3.5
X66.528 Y88.112 Z3.58
X66.538 Y88.094 Z3.664
X66.541 Y88.089 Z3.75
G0 Z23.2
X67.492 Y88.641
G1 Z7.2 F1200.
Z2.15
X67.489 Y88.647 Z2.064
X67.479 Y88.665 Z1.98
X67.462 Y88.693 Z1.9
X67.44 Y88.732 Z1.827
X67.411 Y88.781 Z1.761
X67.378 Y88.837 Z1.705
X67.342 Y88.901 Z1.66
X67.301 Y88.97 Z1.627
X67.259 Y89.042 Z1.607
X67.216 Y89.117 Z1.6
X66.94 Y89.592 F1000.
G3 X66.188 Y89.792 I-0.476 J-0.276
G2 X0.12 Y100.508 I-26.505 J45.607 F3600.
X-2.663 Y105.753 I9.562 J8.433
Y107.129 I2.663 J0.688
X9.682 Y116.691 I12.345 J-3.188
G1 X69.683
G2 X82.028 Y107.128 I0. J-12.75
Y105.753 I-2.663 J-0.687
X79.245 Y100.508 I-12.345 J3.188
X66.188 Y89.792 I-39.563 J34.891
G3 X65.989 Y89.04 I0.276 J-0.476 F1000.
G1 X66.265 Y88.564
X66.308 Y88.49 Z1.607
X66.35 Y88.417 Z1.627
X66.39 Y88.348 Z1.66
X66.427 Y88.285 Z1.705
X66.46 Y88.228 Z1.761
X66.489 Y88.179 Z1.827
X66.511 Y88.14 Z1.9
X66.528 Y88.112 Z1.98
X66.538 Y88.094 Z2.064
X66.541 Y88.089 Z2.15
G0 Z23.2
X75.322 Y44.559
G1 Z10.2 F1200.
Z3.75
X75.329 Y44.561 Z3.664
X75.347 Y44.569 Z3.58
X75.378 Y44.582 Z3.5
X75.419 Y44.599 Z3.427
X75.471 Y44.62 Z3.361
X75.532 Y44.645 Z3.305
X75.6 Y44.673 Z3.26
X75.674 Y44.704 Z3.227
X75.751 Y44.736 Z3.207
X75.831 Y44.768 Z3.2
X76.339 Y44.978 F1000.
G3 X76.638 Y45.696 I-0.21 J0.509
G2 X78.864 Y58.987 I11.788 J4.858 F3600.
X157.99 I39.563 J-34.891
X148.427 Y37.804 I-9.563 J-8.433
G1 X88.427
G2 X76.638 Y45.696 I0. J12.75
G3 X75.92 Y45.995 I-0.509 J-0.21 F1000.
G1 X75.412 Y45.785
X75.332 Y45.753 Z3.207
X75.255 Y45.721 Z3.227
X75.181 Y45.69 Z3.26
X75.113 Y45.662 Z3.305
X75.052 Y45.637 Z3.361
X75. Y45.616 Z3.427
X74.959 Y45.599 Z3.5
X74.928 Y45.586 Z3.58
X74.909 Y45.578 Z3.664
X74.903 Y45.576 Z3.75
G0 Z23.2
X75.322 Y44.559
G1 Z7.2 F1200.
Z2.15
X75.329 Y44.561 Z2.064
X75.347 Y44.569 Z1.98
X75.378 Y44.582 Z1.9
X75.419 Y44.599 Z1.827
X75.471 Y44.62 Z1.761
X75.532 Y44.645 Z1.705
X75.6 Y44.673 Z1.66
X75.674 Y44.704 Z1.627
X75.751 Y44.736 Z1.607
X75.831 Y44.768 Z1.6
X76.339 Y44.978 F1000.
G3 X76.638 Y45.696 I-0.21 J0.509
G2 X78.864 Y58.987 I11.788 J4.858 F3600.
X157.99 I39.563 J-34.891
X148.427 Y37.804 I-9.563 J-8.433
G1 X88.427
G2 X76.638 Y45.696 I0. J12.75
G3 X75.92 Y45.995 I-0.509 J-0.21 F1000.
G1 X75.412 Y45.785
X75.332 Y45.753 Z1.607
X75.255 Y45.721 Z1.627
X75.181 Y45.69 Z1.66
X75.113 Y45.662 Z1.705
X75.052 Y45.637 Z1.761
X75. Y45.616 Z1.827
X74.959 Y45.599 Z1.9
X74.928 Y45.586 Z1.98
X74.909 Y45.578 Z2.064
X74.903 Y45.576 Z2.15
G0 Z23.2
X67.492 Y48.087
G1 Z7.2 F1200.
Z2.15
X67.489 Y48.093 Z2.064
X67.479 Y48.111 Z1.98
X67.462 Y48.139 Z1.9
X67.44 Y48.178 Z1.827
X67.411 Y48.227 Z1.761
X67.379 Y48.283 Z1.705
X67.342 Y48.347 Z1.66
X67.301 Y48.416 Z1.627
X67.259 Y48.488 Z1.607
X67.216 Y48.563 Z1.6
X66.94 Y49.038 F1000.
G3 X66.188 Y49.238 I-0.476 J-0.276
G2 X0.12 Y59.954 I-26.505 J45.607 F3600.
X-2.663 Y65.2 I9.563 J8.433
Y66.575 I2.663 J0.687
X9.682 Y76.137 I12.345 J-3.188
G1 X69.683
G2 X82.028 Y66.575 I0. J-12.75
Y65.2 I-2.663 J-0.688
X79.245 Y59.954 I-12.345 J3.187
X66.188 Y49.238 I-39.563 J34.891
G3 X65.989 Y48.486 I0.276 J-0.476 F1000.
G1 X66.265 Y48.01
X66.308 Y47.936 Z1.607
X66.35 Y47.863 Z1.627
X66.39 Y47.794 Z1.66
X66.427 Y47.731 Z1.705
X66.46 Y47.674 Z1.761
X66.489 Y47.625 Z1.827
X66.511 Y47.586 Z1.9
X66.528 Y47.558 Z1.98
X66.538 Y47.54 Z2.064
X66.541 Y47.535 Z2.15
G0 Z23.2
X67.492 Y48.087
G1 Z5.6 F1200.
Z0.55
X67.489 Y48.093 Z0.464
X67.479 Y48.111 Z0.38
X67.462 Y48.139 Z0.3
X67.44 Y48.178 Z0.227
X67.411 Y48.227 Z0.161
X67.379 Y48.283 Z0.105
X67.342 Y48.347 Z0.06
X67.301 Y48.416 Z0.027
X67.259 Y48.488 Z0.007
X67.216 Y48.563 Z0.
X66.94 Y49.038 F1000.
G3 X66.188 Y49.238 I-0.476 J-0.276
G2 X0.12 Y59.954 I-26.505 J45.607 F3600.
X-2.663 Y65.2 I9.563 J8.433
Y66.575 I2.663 J0.687
X9.682 Y76.137 I12.345 J-3.188
G1 X69.683
G2 X82.028 Y66.575 I0. J-12.75
Y65.2 I-2.663 J-0.688
X79.245 Y59.954 I-12.345 J3.187
X66.188 Y49.238 I-39.563 J34.891
G3 X65.989 Y48.486 I0.276 J-0.476 F1000.
G1 X66.265 Y48.01
X66.308 Y47.936 Z0.007
X66.35 Y47.863 Z0.027
X66.39 Y47.794 Z0.06
X66.427 Y47.731 Z0.105
X66.46 Y47.674 Z0.161
X66.489 Y47.625 Z0.227
X66.511 Y47.586 Z0.3
X66.528 Y47.558 Z0.38
X66.538 Y47.54 Z0.464
X66.541 Y47.535 Z0.55
G0 Z23.2
X87.628 Y28.388
G1 Z7.2 F1200.
Z2.15
X87.631 Y28.382 Z2.064
X87.643 Y28.365 Z1.98
X87.661 Y28.338 Z1.9
X87.686 Y28.3 Z1.827
X87.717 Y28.254 Z1.761
X87.754 Y28.199 Z1.705
X87.795 Y28.138 Z1.66
X87.839 Y28.072 Z1.627
X87.886 Y28.003 Z1.607
X87.934 Y27.931 Z1.6
X88.241 Y27.475 F1000.
G3 X89.004 Y27.325 I0.456 J0.307
G2 X157.99 Y18.433 I29.422 J-43.782 F3600.
X148.427 Y-2.75 I-9.563 J-8.433
G1 X88.427
G2 X78.864 Y18.433 I0. J12.75
X89.004 Y27.325 I39.563 J-34.891
G3 X89.154 Y28.088 I-0.307 J0.456 F1000.
G1 X88.847 Y28.545
X88.799 Y28.616 Z1.607
X88.752 Y28.686 Z1.627
X88.708 Y28.752 Z1.66
X88.667 Y28.813 Z1.705
X88.63 Y28.867 Z1.761
X88.599 Y28.914 Z1.827
X88.574 Y28.951 Z1.9
X88.556 Y28.979 Z1.98
X88.544 Y28.996 Z2.064
X88.541 Y29.001 Z2.15
G0 Z23.2
X87.628 Y28.388
G1 Z5.6 F1200.
Z0.55
X87.631 Y28.382 Z0.464
X87.643 Y28.365 Z0.38
X87.661 Y28.338 Z0.3
X87.686 Y28.3 Z0.227
X87.717 Y28.254 Z0.161
X87.754 Y28.199 Z0.105
X87.795 Y28.138 Z0.06
X87.839 Y28.072 Z0.027
X87.886 Y28.003 Z0.007
X87.934 Y27.931 Z0.
X88.241 Y27.475 F1000.
G3 X89.004 Y27.325 I0.456 J0.307
G2 X157.99 Y18.433 I29.422 J-43.782 F3600.
X148.427 Y-2.75 I-9.563 J-8.433
G1 X88.427
G2 X78.864 Y18.433 I0. J12.75
X89.004 Y27.325 I39.563 J-34.891
G3 X89.154 Y28.088 I-0.307 J0.456 F1000.
G1 X88.847 Y28.545
X88.799 Y28.616 Z0.007
X88.752 Y28.686 Z0.027
X88.708 Y28.752 Z0.06
X88.667 Y28.813 Z0.105
X88.63 Y28.867 Z0.161
X88.599 Y28.914 Z0.227
X88.574 Y28.951 Z0.3
X88.556 Y28.979 Z0.38
X88.544 Y28.996 Z0.464
X88.541 Y29.001 Z0.55
G0 Z23.2
X69.265 Y37.238
G1 Z5.6 F1200.
Z0.55
Y37.231 Z0.464
Y37.211 Z0.38
Y37.178 Z0.3
X69.264 Y37.133 Z0.227
Y37.077 Z0.161
X69.263 Y37.011 Z0.105
Y36.938 Z0.06
X69.262 Y36.858 Z0.027
X69.261 Y36.774 Z0.007
X69.26 Y36.688 Z0.
X69.255 Y36.138 F1000.
G3 X69.8 Y35.583 I0.55 J-0.005
G2 X82.028 Y26.021 I-0.118 J-12.749 F3600.
Y24.646 I-2.663 J-0.687
X79.245 Y19.4 I-12.345 J3.187
X0.12 I-39.563 J34.891
X-2.663 Y24.646 I9.563 J8.433
Y26.021 I2.663 J0.687
X9.682 Y35.583 I12.345 J-3.188
G1 X69.683
X69.8
G3 X70.355 Y36.128 I0.005 J0.55 F1000.
G1 X70.36 Y36.678
X70.361 Y36.764 Z0.007
X70.362 Y36.848 Z0.027
Y36.927 Z0.06
X70.363 Y37.001 Z0.105
X70.364 Y37.067 Z0.161
Y37.123 Z0.227
X70.365 Y37.168 Z0.3
Y37.201 Z0.38
Y37.221 Z0.464
Y37.228 Z0.55
G0 Z23.2
X75.323 Y125.667
G1 Z10.2 F1200.
Z3.75
X75.329 Y125.669 Z3.664
X75.347 Y125.677 Z3.58
X75.378 Y125.69 Z3.5
X75.42 Y125.707 Z3.427
X75.471 Y125.728 Z3.361
X75.532 Y125.753 Z3.305
X75.6 Y125.781 Z3.26
X75.674 Y125.812 Z3.227
X75.752 Y125.844 Z3.207
X75.831 Y125.876 Z3.2
X76.34 Y126.086 F1000.
G3 X76.639 Y126.804 I-0.21 J0.509
G2 X78.864 Y140.095 I11.788 J4.858 F3600.
X157.99 I39.563 J-34.891
X148.427 Y118.912 I-9.563 J-8.433
G1 X118.267
X88.427
G2 X76.639 Y126.804 I0. J12.75
G3 X75.92 Y127.103 I-0.509 J-0.21 F1000.
G1 X75.412 Y126.893
X75.332 Y126.861 Z3.207
X75.255 Y126.829 Z3.227
X75.181 Y126.798 Z3.26
X75.113 Y126.77 Z3.305
X75.052 Y126.745 Z3.361
X75.001 Y126.724 Z3.427
X74.959 Y126.707 Z3.5
X74.928 Y126.694 Z3.58
X74.91 Y126.686 Z3.664
X74.903 Y126.684 Z3.75
G0 Z23.2
X75.323 Y125.667
G1 Z7.2 F1200.
Z2.15
X75.329 Y125.669 Z2.064
X75.347 Y125.677 Z1.98
X75.378 Y125.69 Z1.9
X75.42 Y125.707 Z1.827
X75.471 Y125.728 Z1.761
X75.532 Y125.753 Z1.705
X75.6 Y125.781 Z1.66
X75.674 Y125.812 Z1.627
X75.752 Y125.844 Z1.607
X75.831 Y125.876 Z1.6
X76.34 Y126.086 F1000.
G3 X76.639 Y126.804 I-0.21 J0.509
G2 X78.864 Y140.095 I11.788 J4.858 F3600.
X157.99 I39.563 J-34.891
X148.427 Y118.912 I-9.563 J-8.433
G1 X118.267
X88.427
G2 X76.639 Y126.804 I0. J12.75
G3 X75.92 Y127.103 I-0.509 J-0.21 F1000.
G1 X75.412 Y126.893
X75.332 Y126.861 Z1.607
X75.255 Y126.829 Z1.627
X75.181 Y126.798 Z1.66
X75.113 Y126.77 Z1.705
X75.052 Y126.745 Z1.761
X75.001 Y126.724 Z1.827
X74.959 Y126.707 Z1.9
X74.928 Y126.694 Z1.98
X74.91 Y126.686 Z2.064
X74.903 Y126.684 Z2.15
G0 Z23.2
X67.492 Y129.195
G1 Z7.2 F1200.
Z2.15
X67.489 Y129.201 Z2.064
X67.479 Y129.219 Z1.98
X67.462 Y129.247 Z1.9
X67.44 Y129.286 Z1.827
X67.411 Y129.335 Z1.761
X67.378 Y129.391 Z1.705
X67.341 Y129.455 Z1.66
X67.301 Y129.524 Z1.627
X67.259 Y129.596 Z1.607
X67.216 Y129.671 Z1.6
X66.94 Y130.146 F1000.
G3 X66.188 Y130.346 I-0.476 J-0.276
G2 X0.12 Y141.062 I-26.505 J45.607 F3600.
X-2.663 Y146.307 I9.562 J8.433
Y147.682 I2.663 J0.688
X9.682 Y157.245 I12.345 J-3.188
G1 X69.683
G2 X82.028 Y147.682 I0. J-12.75
Y146.307 I-2.663 J-0.688
X79.245 Y141.062 I-12.345 J3.188
X66.188 Y130.346 I-39.563 J34.891
G3 X65.989 Y129.594 I0.276 J-0.476 F1000.
G1 X66.265 Y129.118
X66.308 Y129.044 Z1.607
X66.35 Y128.971 Z1.627
X66.39 Y128.902 Z1.66
X66.427 Y128.839 Z1.705
X66.46 Y128.782 Z1.761
X66.489 Y128.733 Z1.827
X66.511 Y128.694 Z1.9
X66.528 Y128.666 Z1.98
X66.538 Y128.648 Z2.064
X66.541 Y128.643 Z2.15
G0 Z23.2
X67.492 Y129.195
G1 Z5.6 F1200.
Z0.55
X67.489 Y129.201 Z0.464
X67.479 Y129.219 Z0.38
X67.462 Y129.247 Z0.3
X67.44 Y129.286 Z0.227
X67.411 Y129.335 Z0.161
X67.378 Y129.391 Z0.105
X67.341 Y129.455 Z0.06
X67.301 Y129.524 Z0.027
X67.259 Y129.596 Z0.007
X67.216 Y129.671 Z0.
X66.94 Y130.146 F1000.
G3 X66.188 Y130.346 I-0.476 J-0.276
G2 X0.12 Y141.062 I-26.505 J45.607 F3600.
X-2.663 Y146.307 I9.562 J8.433
Y147.682 I2.663 J0.688
X9.682 Y157.245 I12.345 J-3.188
G1 X69.683
G2 X82.028 Y147.682 I0. J-12.75
Y146.307 I-2.663 J-0.688
X79.245 Y141.062 I-12.345 J3.188
X66.188 Y130.346 I-39.563 J34.891
G3 X65.989 Y129.594 I0.276 J-0.476 F1000.
G1 X66.265 Y129.118
X66.308 Y129.044 Z0.007
X66.35 Y128.971 Z0.027
X66.39 Y128.902 Z0.06
X66.427 Y128.839 Z0.105
X66.46 Y128.782 Z0.161
X66.489 Y128.733 Z0.227
X66.511 Y128.694 Z0.3
X66.528 Y128.666 Z0.38
X66.538 Y128.648 Z0.464
X66.541 Y128.643 Z0.55
G0 Z23.2
X75.322 Y85.113
G1 Z7.2 F1200.
Z2.15
X75.329 Y85.115 Z2.064
X75.347 Y85.123 Z1.98
X75.378 Y85.136 Z1.9
X75.419 Y85.153 Z1.827
X75.471 Y85.174 Z1.761
X75.532 Y85.199 Z1.705
X75.6 Y85.227 Z1.66
X75.674 Y85.258 Z1.627
X75.751 Y85.29 Z1.607
X75.831 Y85.322 Z1.6
X76.339 Y85.532 F1000.
G3 X76.638 Y86.25 I-0.21 J0.509
G2 X78.864 Y99.541 I11.788 J4.858 F3600.
X157.99 I39.563 J-34.891
X148.427 Y78.358 I-9.563 J-8.433
G1 X88.427
G2 X76.638 Y86.25 I0. J12.75
G3 X75.92 Y86.549 I-0.509 J-0.21 F1000.
G1 X75.412 Y86.339
X75.332 Y86.307 Z1.607
X75.255 Y86.275 Z1.627
X75.181 Y86.244 Z1.66
X75.113 Y86.216 Z1.705
X75.052 Y86.191 Z1.761
X75. Y86.17 Z1.827
X74.959 Y86.153 Z1.9
X74.928 Y86.14 Z1.98
X74.909 Y86.132 Z2.064
X74.903 Y86.13 Z2.15
G0 Z23.2
X75.322 Y85.113
G1 Z5.6 F1200.
Z0.55
X75.329 Y85.115 Z0.464
X75.347 Y85.123 Z0.38
X75.378 Y85.136 Z0.3
X75.419 Y85.153 Z0.227
X75.471 Y85.174 Z0.161
X75.532 Y85.199 Z0.105
X75.6 Y85.227 Z0.06
X75.674 Y85.258 Z0.027
X75.751 Y85.29 Z0.007
X75.831 Y85.322 Z0.
X76.339 Y85.532 F1000.
G3 X76.638 Y86.25 I-0.21 J0.509
G2 X78.864 Y99.541 I11.788 J4.858 F3600.
X157.99 I39.563 J-34.891
X148.427 Y78.358 I-9.563 J-8.433
G1 X88.427
G2 X76.638 Y86.25 I0. J12.75
G3 X75.92 Y86.549 I-0.509 J-0.21 F1000.
G1 X75.412 Y86.339
X75.332 Y86.307 Z0.007
X75.255 Y86.275 Z0.027
X75.181 Y86.244 Z0.06
X75.113 Y86.216 Z0.105
X75.052 Y86.191 Z0.161
X75. Y86.17 Z0.227
X74.959 Y86.153 Z0.3
X74.928 Y86.14 Z0.38
X74.909 Y86.132 Z0.464
X74.903 Y86.13 Z0.55
G0 Z23.2
X67.492 Y88.641
G1 Z5.6 F1200.
Z0.55
X67.489 Y88.647 Z0.464
X67.479 Y88.665 Z0.38
X67.462 Y88.693 Z0.3
X67.44 Y88.732 Z0.227
X67.411 Y88.781 Z0.161
X67.378 Y88.837 Z0.105
X67.342 Y88.901 Z0.06
X67.301 Y88.97 Z0.027
X67.259 Y89.042 Z0.007
X67.216 Y89.117 Z0.
X66.94 Y89.592 F1000.
G3 X66.188 Y89.792 I-0.476 J-0.276
G2 X0.12 Y100.508 I-26.505 J45.607 F3600.
X-2.663 Y105.753 I9.562 J8.433
Y107.129 I2.663 J0.688
X9.682 Y116.691 I12.345 J-3.188
G1 X69.683
G2 X82.028 Y107.128 I0. J-12.75
Y105.753 I-2.663 J-0.687
X79.245 Y100.508 I-12.345 J3.188
X66.188 Y89.792 I-39.563 J34.891
G3 X65.989 Y89.04 I0.276 J-0.476 F1000.
G1 X66.265 Y88.564
X66.308 Y88.49 Z0.007
X66.35 Y88.417 Z0.027
X66.39 Y88.348 Z0.06
X66.427 Y88.285 Z0.105
X66.46 Y88.228 Z0.161
X66.489 Y88.179 Z0.227
X66.511 Y88.14 Z0.3
X66.528 Y88.112 Z0.38
X66.538 Y88.094 Z0.464
X66.541 Y88.089 Z0.55
G0 Z23.2
X75.322 Y44.559
G1 Z5.6 F1200.
Z0.55
X75.329 Y44.561 Z0.464
X75.347 Y44.569 Z0.38
X75.378 Y44.582 Z0.3
X75.419 Y44.599 Z0.227
X75.471 Y44.62 Z0.161
X75.532 Y44.645 Z0.105
X75.6 Y44.673 Z0.06
X75.674 Y44.704 Z0.027
X75.751 Y44.736 Z0.007
X75.831 Y44.768 Z0.
X76.339 Y44.978 F1000.
G3 X76.638 Y45.696 I-0.21 J0.509
G2 X78.864 Y58.987 I11.788 J4.858 F3600.
X157.99 I39.563 J-34.891
X148.427 Y37.804 I-9.563 J-8.433
G1 X88.427
G2 X76.638 Y45.696 I0. J12.75
G3 X75.92 Y45.995 I-0.509 J-0.21 F1000.
G1 X75.412 Y45.785
X75.332 Y45.753 Z0.007
X75.255 Y45.721 Z0.027
X75.181 Y45.69 Z0.06
X75.113 Y45.662 Z0.105
X75.052 Y45.637 Z0.161
X75. Y45.616 Z0.227
X74.959 Y45.599 Z0.3
X74.928 Y45.586 Z0.38
X74.909 Y45.578 Z0.464
X74.903 Y45.576 Z0.55
G0 Z23.2
X75.323 Y125.667
G1 Z5.6 F1200.
Z0.55
X75.329 Y125.669 Z0.464
X75.347 Y125.677 Z0.38
X75.378 Y125.69 Z0.3
X75.42 Y125.707 Z0.227
X75.471 Y125.728 Z0.161
X75.532 Y125.753 Z0.105
X75.6 Y125.781 Z0.06
X75.674 Y125.812 Z0.027
X75.752 Y125.844 Z0.007
X75.831 Y125.876 Z0.
X76.34 Y126.086 F1000.
G3 X76.639 Y126.804 I-0.21 J0.509
G2 X78.864 Y140.095 I11.788 J4.858 F3600.
X157.99 I39.563 J-34.891
X148.427 Y118.912 I-9.563 J-8.433
G1 X118.267
X88.427
G2 X76.639 Y126.804 I0. J12.75
G3 X75.92 Y127.103 I-0.509 J-0.21 F1000.
G1 X75.412 Y126.893
X75.332 Y126.861 Z0.007
X75.255 Y126.829 Z0.027
X75.181 Y126.798 Z0.06
X75.113 Y126.77 Z0.105
X75.052 Y126.745 Z0.161
X75.001 Y126.724 Z0.227
X74.959 Y126.707 Z0.3
X74.928 Y126.694 Z0.38
X74.91 Y126.686 Z0.464
X74.903 Y126.684 Z0.55
G0 Z33.2

M9
G28 G91 Z0.
G90
G28 G91 X0. Y0.
G90
M30
