(TRIANGLE)
(TRIANGLE)
(T161  D=6. CR=0. - ZMIN=0. - FLAT END MILL)
G90 G94 G91.1 G40 G49 G17
G21
G28 G91 Z0.
G90

(DRILL1)
M5
M9
T161 M6
S12000 M3
G54
M8
G0 X50. Y66.603
Z25.
Z15.
G98 G81 X50. Y66.603 Z0. R15. F1200.
X17.321 Y10.
X82.679
G80
Z25.

(DRILL1)
M5
M9
T161 M6
S12000 M3
G54
M8
G0 X50.0. Y167.7093
Z25.
Z15.
G98 G81 X50.0. Y167.7093 Z0. R15. F1200.
X17.3211 Y111.106

(DRILL1)
M5
M9
T161 M6
S12000 M3
G54
M8
G0 X167.332. Y66.6033
Z25.
Z15.
G98 G81 X167.332. Y66.6033 Z0. R15. F1200.
X134.6531 Y10.0

(DRILL1)
M5
M9
T161 M6
S12000 M3
G54
M8
G0 X167.332. Y167.7093
Z25.
Z15.
G98 G81 X167.332. Y167.7093 Z0. R15. F1200.
X134.6531 Y111.106

(2D CONTOUR1)
G0 X104.344 Y2.129
Z25.
Z15.
G1 Z14. F1200.
Z7.6
X104.337 Y2.126 Z7.506
X104.316 Y2.119 Z7.415
X104.282 Y2.108 Z7.328
X104.235 Y2.091 Z7.247
X104.178 Y2.072 Z7.176
X104.11 Y2.048 Z7.115
X104.034 Y2.022 Z7.065
X103.952 Y1.994 Z7.029
X103.865 Y1.964 Z7.007
X103.776 Y1.934 Z7.
X103.209 Y1.738 F1000.
G3 X102.837 Y0.976 I0.195 J-0.567
G2 X100. Y-3. I-2.837 J-0.976 F3600.
G1 X0.
G2 X-2.598 Y1.5 I0. J3.
G1 X47.402 Y88.103
X47.404 Y88.106
G2 X52.598 Y88.103 I2.596 J-1.504
G1 X102.598 Y1.5
G2 X102.837 Y0.976 I-2.598 J-1.5
G3 X103.599 Y0.604 I0.567 J0.195 F1000.
G1 X104.167 Y0.799
X104.256 Y0.829 Z7.007
X104.342 Y0.859 Z7.029
X104.424 Y0.887 Z7.065
X104.5 Y0.914 Z7.115
X104.568 Y0.937 Z7.176
X104.626 Y0.957 Z7.247
X104.672 Y0.973 Z7.328
X104.706 Y0.984 Z7.415
X104.727 Y0.992 Z7.506
X104.734 Y0.994 Z7.6
G0 Z15.
X104.344 Y2.129
G1 Z11. F1200.
Z4.6
X104.337 Y2.126 Z4.506
X104.316 Y2.119 Z4.415
X104.282 Y2.108 Z4.328
X104.235 Y2.091 Z4.247
X104.178 Y2.072 Z4.176
X104.11 Y2.048 Z4.115
X104.034 Y2.022 Z4.065
X103.952 Y1.994 Z4.029
X103.865 Y1.964 Z4.007
X103.776 Y1.934 Z4.
X103.209 Y1.738 F1000.
G3 X102.837 Y0.976 I0.195 J-0.567
G2 X100. Y-3. I-2.837 J-0.976 F3600.
G1 X0.
G2 X-2.598 Y1.5 I0. J3.
G1 X47.402 Y88.103
G2 X52.598 I2.598 J-1.5
G1 X102.598 Y1.5
G2 X102.837 Y0.976 I-2.598 J-1.5
G3 X103.599 Y0.604 I0.567 J0.195 F1000.
G1 X104.167 Y0.799
X104.256 Y0.829 Z4.007
X104.342 Y0.859 Z4.029
X104.424 Y0.887 Z4.065
X104.5 Y0.914 Z4.115
X104.568 Y0.937 Z4.176
X104.626 Y0.957 Z4.247
X104.672 Y0.973 Z4.328
X104.706 Y0.984 Z4.415
X104.727 Y0.992 Z4.506
X104.734 Y0.994 Z4.6
G0 Z15.
X104.344 Y2.129
G1 Z8. F1200.
Z1.6
X104.337 Y2.126 Z1.506
X104.316 Y2.119 Z1.415
X104.282 Y2.108 Z1.328
X104.235 Y2.091 Z1.247
X104.178 Y2.072 Z1.176
X104.11 Y2.048 Z1.115
X104.034 Y2.022 Z1.065
X103.952 Y1.994 Z1.029
X103.865 Y1.964 Z1.007
X103.776 Y1.934 Z1.
X103.209 Y1.738 F1000.
G3 X102.837 Y0.976 I0.195 J-0.567
G2 X100. Y-3. I-2.837 J-0.976 F3600.
G1 X0.
G2 X-2.598 Y1.5 I0. J3.
G1 X47.402 Y88.103
G2 X52.598 I2.598 J-1.5
G1 X102.598 Y1.5
G2 X102.837 Y0.976 I-2.598 J-1.5
G3 X103.599 Y0.604 I0.567 J0.195 F1000.
G1 X104.167 Y0.799
X104.256 Y0.829 Z1.007
X104.342 Y0.859 Z1.029
X104.424 Y0.887 Z1.065
X104.5 Y0.914 Z1.115
X104.568 Y0.937 Z1.176
X104.626 Y0.957 Z1.247
X104.672 Y0.973 Z1.328
X104.706 Y0.984 Z1.415
X104.727 Y0.992 Z1.506
X104.734 Y0.994 Z1.6
G0 Z15.
X104.344 Y2.129
G1 Z5. F1200.
Z0.6
X104.337 Y2.126 Z0.506
X104.316 Y2.119 Z0.415
X104.282 Y2.108 Z0.328
X104.235 Y2.091 Z0.247
X104.178 Y2.072 Z0.176
X104.11 Y2.048 Z0.115
X104.034 Y2.022 Z0.065
X103.952 Y1.994 Z0.029
X103.865 Y1.964 Z0.007
X103.776 Y1.934 Z0.
X103.209 Y1.738 F1000.
G3 X102.837 Y0.976 I0.195 J-0.567
G2 X100. Y-3. I-2.837 J-0.976 F3600.
G1 X0.
G2 X-2.598 Y1.5 I0. J3.
G1 X47.402 Y88.103
G2 X52.598 I2.598 J-1.5
G1 X102.598 Y1.5
G2 X102.837 Y0.976 I-2.598 J-1.5
G3 X103.599 Y0.604 I0.567 J0.195 F1000.
G1 X104.167 Y0.799
X104.256 Y0.829 Z0.007
X104.342 Y0.859 Z0.029
X104.424 Y0.887 Z0.065
X104.5 Y0.914 Z0.115
X104.568 Y0.937 Z0.176
X104.626 Y0.957 Z0.247
X104.672 Y0.973 Z0.328
X104.706 Y0.984 Z0.415
X104.727 Y0.992 Z0.506
X104.734 Y0.994 Z0.6
G0 Z25.

(2D CONTOUR1)
G0 X104.3444 Y103.2359
Z25.
Z15.
G1 Z14. F1200.
Z7.6
X104.3377 Y103.2326 Z7.506
X104.3166 Y103.2250069 Z7.415
X104.2822 Y103.2140058 Z7.328
X104.2355 Y103.197011 Z7.247
X104.1788 Y103.1782 Z7.176
X104.111 Y103.1548 Z7.115
X104.0344 Y103.1280062 Z7.065
X103.9522 Y103.1000064 Z7.029
X103.8655 Y103.074 Z7.007
X103.7766 Y103.044 Z7.
X103.2099 Y102.8448 F1000.
G3 X102.8377 Y102.0826 I0.195 J-0.567
G2 X100.0. Y98.106. I-2.837 J-0.976 F3600.
G1 X0.0.
G2 X-2.5988 Y102.6065 I0. J3.
G1 X47.4022 Y189.2093
X47.4044 Y189.2126
G2 X52.5988 Y189.2093 I2.596 J-1.504
G1 X102.5988 Y102.6065
G2 X102.8377 Y102.0826 I-2.598 J-1.5
G3 X103.5999 Y101.714 I0.567 J0.195 F1000.
G1 X104.1677 Y101.905019
X104.2566 Y101.9350059 Z7.007
X104.3422 Y101.9650049 Z7.029
X104.4244 Y101.9930047 Z7.065
X104.55 Y102.0200044 Z7.115
X104.5688 Y102.0437 Z7.176
X104.6266 Y102.0637 Z7.247
X104.6722 Y102.0793 Z7.328
X104.7066 Y102.0900044 Z7.415
X104.7277 Y102.0982 Z7.506
X104.7344 Y102.1000064 Z7.6
G0 Z15.
X104.3444 Y103.2359
G1 Z11. F1200.
Z4.6
X104.3377 Y103.2326 Z4.506
X104.3166 Y103.2250069 Z4.415
X104.2822 Y103.2140058 Z4.328
X104.2355 Y103.197011 Z4.247
X104.1788 Y103.1782 Z4.176
X104.111 Y103.1548 Z4.115
X104.0344 Y103.1280062 Z4.065
X103.9522 Y103.1000064 Z4.029
X103.8655 Y103.074 Z4.007
X103.7766 Y103.044 Z4.
X103.2099 Y102.8448 F1000.
G3 X102.8377 Y102.0826 I0.195 J-0.567
G2 X100.0. Y98.106. I-2.837 J-0.976 F3600.
G1 X0.0.
G2 X-2.5988 Y102.6065 I0. J3.
G1 X47.4022 Y189.2093
G2 X52.5988 I2.598 J-1.5
G1 X102.5988 Y102.6065
G2 X102.8377 Y102.0826 I-2.598 J-1.5
G3 X103.5999 Y101.714 I0.567 J0.195 F1000.
G1 X104.1677 Y101.905019
X104.2566 Y101.9350059 Z4.007
X104.3422 Y101.9650049 Z4.029
X104.4244 Y101.9930047 Z4.065
X104.55 Y102.0200044 Z4.115
X104.5688 Y102.0437 Z4.176
X104.6266 Y102.0637 Z4.247
X104.6722 Y102.0793 Z4.328
X104.7066 Y102.0900044 Z4.415
X104.7277 Y102.0982 Z4.506
X104.7344 Y102.1000064 Z4.6
G0 Z15.
X104.3444 Y103.2359
G1 Z8. F1200.
Z1.6
X104.3377 Y103.2326 Z1.506
X104.3166 Y103.2250069 Z1.415
X104.2822 Y103.2140058 Z1.328
X104.2355 Y103.197011 Z1.247
X104.1788 Y103.1782 Z1.176
X104.111 Y103.1548 Z1.115
X104.0344 Y103.1280062 Z1.065
X103.9522 Y103.1000064 Z1.029
X103.8655 Y103.074 Z1.007
X103.7766 Y103.044 Z1.
X103.2099 Y102.8448 F1000.
G3 X102.8377 Y102.0826 I0.195 J-0.567
G2 X100.0. Y98.106. I-2.837 J-0.976 F3600.
G1 X0.0.
G2 X-2.5988 Y102.6065 I0. J3.
G1 X47.4022 Y189.2093
G2 X52.5988 I2.598 J-1.5
G1 X102.5988 Y102.6065
G2 X102.8377 Y102.0826 I-2.598 J-1.5
G3 X103.5999 Y101.714 I0.567 J0.195 F1000.
G1 X104.1677 Y101.905019
X104.2566 Y101.9350059 Z1.007
X104.3422 Y101.9650049 Z1.029
X104.4244 Y101.9930047 Z1.065
X104.55 Y102.0200044 Z1.115
X104.5688 Y102.0437 Z1.176
X104.6266 Y102.0637 Z1.247
X104.6722 Y102.0793 Z1.328
X104.7066 Y102.0900044 Z1.415
X104.7277 Y102.0982 Z1.506
X104.7344 Y102.1000064 Z1.6
G0 Z15.
X104.3444 Y103.2359
G1 Z5. F1200.
Z0.6
X104.3377 Y103.2326 Z0.506
X104.3166 Y103.2250069 Z0.415
X104.2822 Y103.2140058 Z0.328
X104.2355 Y103.197011 Z0.247
X104.1788 Y103.1782 Z0.176
X104.111 Y103.1548 Z0.115
X104.0344 Y103.1280062 Z0.065
X103.9522 Y103.1000064 Z0.029
X103.8655 Y103.074 Z0.007
X103.7766 Y103.044 Z0.
X103.2099 Y102.8448 F1000.
G3 X102.8377 Y102.0826 I0.195 J-0.567
G2 X100.0. Y98.106. I-2.837 J-0.976 F3600.
G1 X0.0.
G2 X-2.5988 Y102.6065 I0. J3.
G1 X47.4022 Y189.2093
G2 X52.5988 I2.598 J-1.5
G1 X102.5988 Y102.6065
G2 X102.8377 Y102.0826 I-2.598 J-1.5
G3 X103.5999 Y101.714 I0.567 J0.195 F1000.
G1 X104.1677 Y101.905019
X104.2566 Y101.9350059 Z0.007
X104.3422 Y101.9650049 Z0.029
X104.4244 Y101.9930047 Z0.065
X104.55 Y102.0200044 Z0.115
X104.5688 Y102.0437 Z0.176
X104.6266 Y102.0637 Z0.247
X104.6722 Y102.0793 Z0.328
X104.7066 Y102.0900044 Z0.415
X104.7277 Y102.098

(2D CONTOUR1)
G0 X221.6764 Y2.1299
Z25.
Z15.
G1 Z14. F1200.
Z7.6
X221.6697 Y2.1266 Z7.506
X221.648016 Y2.1199 Z7.415
X221.6142 Y2.1088 Z7.328
X221.5675 Y2.0911 Z7.247
X221.510018 Y2.0722 Z7.176
X221.4421 Y2.0488 Z7.115
X221.3664 Y2.0222 Z7.065
X221.2842 Y1.9944 Z7.029
X221.196995 Y1.9644 Z7.007
X221.1086 Y1.9344 Z7.
X220.5419 Y1.7388 F1000.
G3 X220.1697 Y0.9766 I0.195 J-0.567
G2 X217.332. Y-3.0. I-2.837 J-0.976 F3600.
G1 X117.332.
G2 X114.7348 Y1.55 I0. J3.
G1 X164.734012 Y88.1033
X164.7364 Y88.1066
G2 X169.938 Y88.1033 I2.596 J-1.504
G1 X219.938 Y1.55
G2 X220.1697 Y0.9766 I-2.598 J-1.5
G3 X220.9319 Y0.6044 I0.567 J0.195 F1000.
G1 X221.4997 Y0.7999
X221.5886 Y0.8299 Z7.007
X221.674012 Y0.8599 Z7.029
X221.756014 Y0.8877 Z7.065
X221.8325 Y0.9144 Z7.115
X221.98 Y0.9377 Z7.176
X221.958016 Y0.9577 Z7.247
X222.0042 Y0.9733 Z7.328
X222.0386 Y0.9844 Z7.415
X222.058997 Y0.9922 Z7.506
X222.066014 Y0.9944 Z7.6
G0 Z15.
X221.6764 Y2.1299
G1 Z11. F1200.
Z4.6
X221.6697 Y2.1266 Z4.506
X221.648016 Y2.1199 Z4.415
X221.6142 Y2.1088 Z4.328
X221.5675 Y2.0911 Z4.247
X221.510018 Y2.0722 Z4.176
X221.4421 Y2.0488 Z4.115
X221.3664 Y2.0222 Z4.065
X221.2842 Y1.9944 Z4.029
X221.196995 Y1.9644 Z4.007
X221.1086 Y1.9344 Z4.
X220.5419 Y1.7388 F1000.
G3 X220.1697 Y0.9766 I0.195 J-0.567
G2 X217.332. Y-3.0. I-2.837 J-0.976 F3600.
G1 X117.332.
G2 X114.7348 Y1.55 I0. J3.
G1 X164.734012 Y88.1033
G2 X169.938 I2.598 J-1.5
G1 X219.938 Y1.55
G2 X220.1697 Y0.9766 I-2.598 J-1.5
G3 X220.9319 Y0.6044 I0.567 J0.195 F1000.
G1 X221.4997 Y0.7999
X221.5886 Y0.8299 Z4.007
X221.674012 Y0.8599 Z4.029
X221.756014 Y0.8877 Z4.065
X221.8325 Y0.9144 Z4.115
X221.98 Y0.9377 Z4.176
X221.958016 Y0.9577 Z4.247
X222.0042 Y0.9733 Z4.328
X222.0386 Y0.9844 Z4.415
X222.058997 Y0.9922 Z4.506
X222.066014 Y0.9944 Z4.6
G0 Z15.
X221.6764 Y2.1299
G1 Z8. F1200.
Z1.6
X221.6697 Y2.1266 Z1.506
X221.648016 Y2.1199 Z1.415
X221.6142 Y2.1088 Z1.328
X221.5675 Y2.0911 Z1.247
X221.510018 Y2.0722 Z1.176
X221.4421 Y2.0488 Z1.115
X221.3664 Y2.0222 Z1.065
X221.2842 Y1.9944 Z1.029
X221.196995 Y1.9644 Z1.007
X221.1086 Y1.9344 Z1.
X220.5419 Y1.7388 F1000.
G3 X220.1697 Y0.9766 I0.195 J-0.567
G2 X217.332. Y-3.0. I-2.837 J-0.976 F3600.
G1 X117.332.
G2 X114.7348 Y1.55 I0. J3.
G1 X164.734012 Y88.1033
G2 X169.938 I2.598 J-1.5
G1 X219.938 Y1.55
G2 X220.1697 Y0.9766 I-2.598 J-1.5
G3 X220.9319 Y0.6044 I0.567 J0.195 F1000.
G1 X221.4997 Y0.7999
X221.5886 Y0.8299 Z1.007
X221.674012 Y0.8599 Z1.029
X221.756014 Y0.8877 Z1.065
X221.8325 Y0.9144 Z1.115
X221.98 Y0.9377 Z1.176
X221.958016 Y0.9577 Z1.247
X222.0042 Y0.9733 Z1.328
X222.0386 Y0.9844 Z1.415
X222.058997 Y0.9922 Z1.506
X222.066014 Y0.9944 Z1.6
G0 Z15.
X221.6764 Y2.1299
G1 Z5. F1200.
Z0.6
X221.6697 Y2.1266 Z0.506
X221.648016 Y2.1199 Z0.415
X221.6142 Y2.1088 Z0.328
X221.5675 Y2.0911 Z0.247
X221.510018 Y2.0722 Z0.176
X221.4421 Y2.0488 Z0.115
X221.3664 Y2.0222 Z0.065
X221.2842 Y1.9944 Z0.029
X221.196995 Y1.9644 Z0.007
X221.1086 Y1.9344 Z0.
X220.5419 Y1.7388 F1000.
G3 X220.1697 Y0.9766 I0.195 J-0.567
G2 X217.332. Y-3.0. I-2.837 J-0.976 F3600.
G1 X117.332.
G2 X114.7348 Y1.55 I0. J3.
G1 X164.734012 Y88.1033
G2 X169.938 I2.598 J-1.5
G1 X219.938 Y1.55
G2 X220.1697 Y0.9766 I-2.598 J-1.5
G3 X220.9319 Y0.6044 I0.567 J0.195 F1000.
G1 X221.4997 Y0.7999
X221.5886 Y0.8299 Z0.007
X221.674012 Y0.8599 Z0.029
X221.756014 Y0.8877 Z0.065
X221.8325 Y0.9144 Z0.115
X221.98 Y0.9377 Z0.176
X221.958016 Y0.9577 Z0.247
X222.0042 Y0.9733 Z0.328
X222.0386 Y0.9844 Z0.415
X222.058997 Y0.992

(2D CONTOUR1)
G0 X221.6764 Y103.2359
Z25.
Z15.
G1 Z14. F1200.
Z7.6
X221.6697 Y103.2326 Z7.506
X221.648016 Y103.2250069 Z7.415
X221.6142 Y103.2140058 Z7.328
X221.5675 Y103.197011 Z7.247
X221.510018 Y103.1782 Z7.176
X221.4421 Y103.1548 Z7.115
X221.3664 Y103.1280062 Z7.065
X221.2842 Y103.1000064 Z7.029
X221.196995 Y103.074 Z7.007
X221.1086 Y103.044 Z7.
X220.5419 Y102.8448 F1000.
G3 X220.1697 Y102.0826 I0.195 J-0.567
G2 X217.332. Y98.106. I-2.837 J-0.976 F3600.
G1 X117.332.
G2 X114.7348 Y102.6065 I0. J3.
G1 X164.734012 Y189.2093
X164.7364 Y189.2126
G2 X169.938 Y189.2093 I2.596 J-1.504
G1 X219.938 Y102.6065
G2 X220.1697 Y102.0826 I-2.598 J-1.5
G3 X220.9319 Y101.714 I0.567 J0.195 F1000.
G1 X221.4997 Y101.905019
X221.5886 Y101.9350059 Z7.007
X221.674012 Y101.9650049 Z7.029
X221.756014 Y101.9930047 Z7.065
X221.8325 Y102.0200044 Z7.115
X221.98 Y102.0437 Z7.176
X221.958016 Y102.0637 Z7.247
X222.0042 Y102.0793 Z7.328
X222.0386 Y102.0900044 Z7.415
X222.058997 Y102.0982 Z7.506
X222.066014 Y102.1000064 Z7.6
G0 Z15.
X221.6764 Y103.2359
G1 Z11. F1200.
Z4.6
X221.6697 Y103.2326 Z4.506
X221.648016 Y103.2250069 Z4.415
X221.6142 Y103.2140058 Z4.328
X221.5675 Y103.197011 Z4.247
X221.510018 Y103.1782 Z4.176
X221.4421 Y103.1548 Z4.115
X221.3664 Y103.1280062 Z4.065
X221.2842 Y103.1000064 Z4.029
X221.196995 Y103.074 Z4.007
X221.1086 Y103.044 Z4.
X220.5419 Y102.8448 F1000.
G3 X220.1697 Y102.0826 I0.195 J-0.567
G2 X217.332. Y98.106. I-2.837 J-0.976 F3600.
G1 X117.332.
G2 X114.7348 Y102.6065 I0. J3.
G1 X164.734012 Y189.2093
G2 X169.938 I2.598 J-1.5
G1 X219.938 Y102.6065
G2 X220.1697 Y102.0826 I-2.598 J-1.5
G3 X220.9319 Y101.714 I0.567 J0.195 F1000.
G1 X221.4997 Y101.905019
X221.5886 Y101.9350059 Z4.007
X221.674012 Y101.9650049 Z4.029
X221.756014 Y101.9930047 Z4.065
X221.8325 Y102.0200044 Z4.115
X221.98 Y102.0437 Z4.176
X221.958016 Y102.0637 Z4.247
X222.0042 Y102.0793 Z4.328
X222.0386 Y102.0900044 Z4.415
X222.058997 Y102.0982 Z4.506
X222.066014 Y102.1000064 Z4.6
G0 Z15.
X221.6764 Y103.2359
G1 Z8. F1200.
Z1.6
X221.6697 Y103.2326 Z1.506
X221.648016 Y103.2250069 Z1.415
X221.6142 Y103.2140058 Z1.328
X221.5675 Y103.197011 Z1.247
X221.510018 Y103.1782 Z1.176
X221.4421 Y103.1548 Z1.115
X221.3664 Y103.1280062 Z1.065
X221.2842 Y103.1000064 Z1.029
X221.196995 Y103.074 Z1.007
X221.1086 Y103.044 Z1.
X220.5419 Y102.8448 F1000.
G3 X220.1697 Y102.0826 I0.195 J-0.567
G2 X217.332. Y98.106. I-2.837 J-0.976 F3600.
G1 X117.332.
G2 X114.7348 Y102.6065 I0. J3.
G1 X164.734012 Y189.2093
G2 X169.938 I2.598 J-1.5
G1 X219.938 Y102.6065
G2 X220.1697 Y102.0826 I-2.598 J-1.5
G3 X220.9319 Y101.714 I0.567 J0.195 F1000.
G1 X221.4997 Y101.905019
X221.5886 Y101.9350059 Z1.007
X221.674012 Y101.9650049 Z1.029
X221.756014 Y101.9930047 Z1.065
X221.8325 Y102.0200044 Z1.115
X221.98 Y102.0437 Z1.176
X221.958016 Y102.0637 Z1.247
X222.0042 Y102.0793 Z1.328
X222.0386 Y102.0900044 Z1.415
X222.058997 Y102.0982 Z1.506
X222.066014 Y102.1000064 Z1.6
G0 Z15.
X221.6764 Y103.2359
G1 Z5. F1200.
Z0.6
X221.6697 Y103.2326 Z0.506
X221.648016 Y103.2250069 Z0.415
X221.6142 Y103.2140058 Z0.328
X221.5675 Y103.197011 Z0.247
X221.510018 Y103.1782 Z0.176
X221.4421 Y103.1548 Z0.115
X221.3664 Y103.1280062 Z0.065
X221.2842 Y103.1000064 Z0.029
X221.196995 Y103.074 Z0.007
X221.1086 Y103.044 Z0.
X220.5419 Y102.8448 F1000.
G3 X220.1697 Y102.0826 I0.195 J-0.567
G2 X217.332. Y98.106. I-2.837 J-0.976 F3600.
G1 X117.332.
G2 X114.7348 Y102.6065 I0. J3.
G1 X164.734012 Y189.2093
G2 X169.938 I2.598 J-1.5
G1 X219.938 Y102.6065
G2 X220.1697 Y102.0826 I-2.598 J-1.5
G3 X220.9319 Y101.714 I0.567 J0.195 F1000.
G1 X221.4997 Y101.905019
X221.5886 Y101.9350059 Z0.007
X221.674012 Y101.9650049 Z0.029
X221.756014 Y101.9930047 Z0.065
X221.8325 Y102.0200044 Z0.115
X221.98 Y102.0437 Z0.176
X221.958016 Y102.0637 Z0.247
X222.0042 Y102.0793 Z0.328
X222.0386 Y102.0900044 Z0.415
X222.058997 Y102.098

M9
G28 G91 Z0.
G90
G28 G91 X0. Y0.
G90
M30


