(TRIANGLE)
(TRIANGLE)
(T161  D=6. CR=0. - ZMIN=0. - FLAT END MILL)
G90 G94 G91.1 G40 G49 G17
G21
G28 G91 Z0.
G90

(2D CONTOUR1)
G0 X104.3444 Y2.1299
Z25.
Z15.
G1 Z14. F1200.
Z7.6
X104.3377 Y2.1266 Z7.506
X104.3166 Y2.1199 Z7.415
X104.2822 Y2.1088 Z7.328
X104.2355 Y2.0911 Z7.247
X104.1788 Y2.0722 Z7.176
X104.111 Y2.0488 Z7.115
X104.0344 Y2.0222 Z7.065
X103.9522 Y1.9944 Z7.029
X103.8655 Y1.9644 Z7.007
X103.7766 Y1.9344 Z7.
X103.2099 Y1.7388 F1000.
G3 X102.8377 Y0.9766 I0.195 J-0.567
G2 X100.0. Y-3.0. I-2.837 J-0.976 F3600.
G1 X0.0.
G2 X-2.5988 Y1.55 I0. J3.
G1 X47.4022 Y88.1033
X47.4044 Y88.1066
G2 X52.5988 Y88.1033 I2.596 J-1.504
G1 X102.5988 Y1.55
G2 X102.8377 Y0.9766 I-2.598 J-1.5
G3 X103.5999 Y0.6044 I0.567 J0.195 F1000.
G1 X104.1677 Y0.7999
X104.2566 Y0.8299 Z7.007
X104.3422 Y0.8599 Z7.029
X104.4244 Y0.8877 Z7.065
X104.55 Y0.9144 Z7.115
X104.5688 Y0.9377 Z7.176
X104.6266 Y0.9577 Z7.247
X104.6722 Y0.9733 Z7.328
X104.7066 Y0.9844 Z7.415
X104.7277 Y0.9922 Z7.506
X104.7344 Y0.9944 Z7.6
G0 Z15.
X104.3444 Y2.1299
G1 Z11. F1200.
Z4.6
X104.3377 Y2.1266 Z4.506
X104.3166 Y2.1199 Z4.415
X104.2822 Y2.1088 Z4.328
X104.2355 Y2.0911 Z4.247
X104.1788 Y2.0722 Z4.176
X104.111 Y2.0488 Z4.115
X104.0344 Y2.0222 Z4.065
X103.9522 Y1.9944 Z4.029
X103.8655 Y1.9644 Z4.007
X103.7766 Y1.9344 Z4.
X103.2099 Y1.7388 F1000.
G3 X102.8377 Y0.9766 I0.195 J-0.567
G2 X100.0. Y-3.0. I-2.837 J-0.976 F3600.
G1 X0.0.
G2 X-2.5988 Y1.55 I0. J3.
G1 X47.4022 Y88.1033
G2 X52.5988 I2.598 J-1.5
G1 X102.5988 Y1.55
G2 X102.8377 Y0.9766 I-2.598 J-1.5
G3 X103.5999 Y0.6044 I0.567 J0.195 F1000.
G1 X104.1677 Y0.7999
X104.2566 Y0.8299 Z4.007
X104.3422 Y0.8599 Z4.029
X104.4244 Y0.8877 Z4.065
X104.55 Y0.9144 Z4.115
X104.5688 Y0.9377 Z4.176
X104.6266 Y0.9577 Z4.247
X104.6722 Y0.9733 Z4.328
X104.7066 Y0.9844 Z4.415
X104.7277 Y0.9922 Z4.506
X104.7344 Y0.9944 Z4.6
G0 Z15.
X104.3444 Y2.1299
G1 Z8. F1200.
Z1.6
X104.3377 Y2.1266 Z1.506
X104.3166 Y2.1199 Z1.415
X104.2822 Y2.1088 Z1.328
X104.2355 Y2.0911 Z1.247
X104.1788 Y2.0722 Z1.176
X104.111 Y2.0488 Z1.115
X104.0344 Y2.0222 Z1.065
X103.9522 Y1.9944 Z1.029
X103.8655 Y1.9644 Z1.007
X103.7766 Y1.9344 Z1.
X103.2099 Y1.7388 F1000.
G3 X102.8377 Y0.9766 I0.195 J-0.567
G2 X100.0. Y-3.0. I-2.837 J-0.976 F3600.
G1 X0.0.
G2 X-2.5988 Y1.55 I0. J3.
G1 X47.4022 Y88.1033
G2 X52.5988 I2.598 J-1.5
G1 X102.5988 Y1.55
G2 X102.8377 Y0.9766 I-2.598 J-1.5
G3 X103.5999 Y0.6044 I0.567 J0.195 F1000.
G1 X104.1677 Y0.7999
X104.2566 Y0.8299 Z1.007
X104.3422 Y0.8599 Z1.029
X104.4244 Y0.8877 Z1.065
X104.55 Y0.9144 Z1.115
X104.5688 Y0.9377 Z1.176
X104.6266 Y0.9577 Z1.247
X104.6722 Y0.9733 Z1.328
X104.7066 Y0.9844 Z1.415
X104.7277 Y0.9922 Z1.506
X104.7344 Y0.9944 Z1.6
G0 Z15.
X104.3444 Y2.1299
G1 Z5. F1200.
Z0.6
X104.3377 Y2.1266 Z0.506
X104.3166 Y2.1199 Z0.415
X104.2822 Y2.1088 Z0.328
X104.2355 Y2.0911 Z0.247
X104.1788 Y2.0722 Z0.176
X104.111 Y2.0488 Z0.115
X104.0344 Y2.0222 Z0.065
X103.9522 Y1.9944 Z0.029
X103.8655 Y1.9644 Z0.007
X103.7766 Y1.9344 Z0.
X103.2099 Y1.7388 F1000.
G3 X102.8377 Y0.9766 I0.195 J-0.567
G2 X100.0. Y-3.0. I-2.837 J-0.976 F3600.
G1 X0.0.
G2 X-2.5988 Y1.55 I0. J3.
G1 X47.4022 Y88.1033
G2 X52.5988 I2.598 J-1.5
G1 X102.5988 Y1.55
G2 X102.8377 Y0.9766 I-2.598 J-1.5
G3 X103.5999 Y0.6044 I0.567 J0.195 F1000.
G1 X104.1677 Y0.7999
X104.2566 Y0.8299 Z0.007
X104.3422 Y0.8599 Z0.029
X104.4244 Y0.8877 Z0.065
X104.55 Y0.9144 Z0.115
X104.5688 Y0.9377 Z0.176
X104.6266 Y0.9577 Z0.247
X104.6722 Y0.9733 Z0.328
X104.7066 Y0.9844 Z0.415
X104.7277 Y0.992

(DRILL1)
M5
M9
T161 M6
S12000 M3
G54
M8
G0 X50.0. Y66.6033
Z25.
Z15.
G98 G81 X50.0. Y66.6033 Z0. R15. F1200.
X17.3211 Y10.0

M9
G28 G91 Z0.
G90
G28 G91 X0. Y0.
G90
M30


