(TRIANGLE)
(TRIANGLE)
(T161  D=6. CR=0. - ZMIN=0. - FLAT END MILL)
G90 G94 G91.1 G40 G49 G17
G21
G28 G91 Z0.
G90

(2D CONTOUR1)
G0 X104.344 Y2.129
Z25.
Z15.
G1 Z14. F1200.
Z7.6
X104.337 Y2.126 Z7.506
X104.316 Y2.119 Z7.415
X104.282 Y2.108 Z7.328
X104.235 Y2.091 Z7.247
X104.178 Y2.072 Z7.176
X104.11 Y2.048 Z7.115
X104.034 Y2.022 Z7.065
X103.952 Y1.994 Z7.029
X103.865 Y1.964 Z7.007
X103.776 Y1.934 Z7.
X103.209 Y1.738 F1000.
G3 X102.837 Y0.976 I0.195 J-0.567
G2 X100. Y-3. I-2.837 J-0.976 F3600.
G1 X0.
G2 X-2.598 Y1.5 I0. J3.
G1 X47.402 Y88.103
X47.404 Y88.106
G2 X52.598 Y88.103 I2.596 J-1.504
G1 X102.598 Y1.5
G2 X102.837 Y0.976 I-2.598 J-1.5
G3 X103.599 Y0.604 I0.567 J0.195 F1000.
G1 X104.167 Y0.799
X104.256 Y0.829 Z7.007
X104.342 Y0.859 Z7.029
X104.424 Y0.887 Z7.065
X104.5 Y0.914 Z7.115
X104.568 Y0.937 Z7.176
X104.626 Y0.957 Z7.247
X104.672 Y0.973 Z7.328
X104.706 Y0.984 Z7.415
X104.727 Y0.992 Z7.506
X104.734 Y0.994 Z7.6
G0 Z15.
X104.344 Y2.129
G1 Z11. F1200.
Z4.6
X104.337 Y2.126 Z4.506
X104.316 Y2.119 Z4.415
X104.282 Y2.108 Z4.328
X104.235 Y2.091 Z4.247
X104.178 Y2.072 Z4.176
X104.11 Y2.048 Z4.115
X104.034 Y2.022 Z4.065
X103.952 Y1.994 Z4.029
X103.865 Y1.964 Z4.007
X103.776 Y1.934 Z4.
X103.209 Y1.738 F1000.
G3 X102.837 Y0.976 I0.195 J-0.567
G2 X100. Y-3. I-2.837 J-0.976 F3600.
G1 X0.
G2 X-2.598 Y1.5 I0. J3.
G1 X47.402 Y88.103
G2 X52.598 I2.598 J-1.5
G1 X102.598 Y1.5
G2 X102.837 Y0.976 I-2.598 J-1.5
G3 X103.599 Y0.604 I0.567 J0.195 F1000.
G1 X104.167 Y0.799
X104.256 Y0.829 Z4.007
X104.342 Y0.859 Z4.029
X104.424 Y0.887 Z4.065
X104.5 Y0.914 Z4.115
X104.568 Y0.937 Z4.176
X104.626 Y0.957 Z4.247
X104.672 Y0.973 Z4.328
X104.706 Y0.984 Z4.415
X104.727 Y0.992 Z4.506
X104.734 Y0.994 Z4.6
G0 Z15.
X104.344 Y2.129
G1 Z8. F1200.
Z1.6
X104.337 Y2.126 Z1.506
X104.316 Y2.119 Z1.415
X104.282 Y2.108 Z1.328
X104.235 Y2.091 Z1.247
X104.178 Y2.072 Z1.176
X104.11 Y2.048 Z1.115
X104.034 Y2.022 Z1.065
X103.952 Y1.994 Z1.029
X103.865 Y1.964 Z1.007
X103.776 Y1.934 Z1.
X103.209 Y1.738 F1000.
G3 X102.837 Y0.976 I0.195 J-0.567
G2 X100. Y-3. I-2.837 J-0.976 F3600.
G1 X0.
G2 X-2.598 Y1.5 I0. J3.
G1 X47.402 Y88.103
G2 X52.598 I2.598 J-1.5
G1 X102.598 Y1.5
G2 X102.837 Y0.976 I-2.598 J-1.5
G3 X103.599 Y0.604 I0.567 J0.195 F1000.
G1 X104.167 Y0.799
X104.256 Y0.829 Z1.007
X104.342 Y0.859 Z1.029
X104.424 Y0.887 Z1.065
X104.5 Y0.914 Z1.115
X104.568 Y0.937 Z1.176
X104.626 Y0.957 Z1.247
X104.672 Y0.973 Z1.328
X104.706 Y0.984 Z1.415
X104.727 Y0.992 Z1.506
X104.734 Y0.994 Z1.6
G0 Z15.
X104.344 Y2.129
G1 Z5. F1200.
Z0.6
X104.337 Y2.126 Z0.506
X104.316 Y2.119 Z0.415
X104.282 Y2.108 Z0.328
X104.235 Y2.091 Z0.247
X104.178 Y2.072 Z0.176
X104.11 Y2.048 Z0.115
X104.034 Y2.022 Z0.065
X103.952 Y1.994 Z0.029
X103.865 Y1.964 Z0.007
X103.776 Y1.934 Z0.
X103.209 Y1.738 F1000.
G3 X102.837 Y0.976 I0.195 J-0.567
G2 X100. Y-3. I-2.837 J-0.976 F3600.
G1 X0.
G2 X-2.598 Y1.5 I0. J3.
G1 X47.402 Y88.103
G2 X52.598 I2.598 J-1.5
G1 X102.598 Y1.5
G2 X102.837 Y0.976 I-2.598 J-1.5
G3 X103.599 Y0.604 I0.567 J0.195 F1000.
G1 X104.167 Y0.799
X104.256 Y0.829 Z0.007
X104.342 Y0.859 Z0.029
X104.424 Y0.887 Z0.065
X104.5 Y0.914 Z0.115
X104.568 Y0.937 Z0.176
X104.626 Y0.957 Z0.247
X104.672 Y0.973 Z0.328
X104.706 Y0.984 Z0.415
X104.727 Y0.992 Z0.506
X104.734 Y0.994 Z0.6
G0 Z25.

M9
G28 G91 Z0.
G90
G28 G91 X0. Y0.
G90
M30


